;Generated with Cura_SteamEngine 15.05
; Default start code
G28 ; Home extruder
G1 Z15 F100
M107 ; Turn off fan
G90 ; Absolute positioning
M82 ; Extruder in absolute mode
M190 S50
; Activate all used extruder
M104 T0 S190
G92 E0 ; Reset extruder position
; Wait for all used extruders to reach temperature
M109 T0 S190
;Layer count: 10
;LAYER:0
M107
G0 F9000 X31.492 Y37.396 Z0.300
G0 X31.506 Y37.462
;TYPE:SKIRT
G1 F900 X31.492 Y37.396 E0.00337
G1 X31.980 Y37.036 E0.03362
G1 X32.416 Y36.644 E0.06287
G1 X32.475 Y36.670 E0.06609
G1 X34.446 Y35.216 E0.18828
G1 X34.443 Y35.157 E0.19123
G1 X34.864 Y34.907 E0.21566
G1 X35.310 Y34.578 E0.24331
G1 X35.365 Y34.610 E0.24648
G1 X37.506 Y33.339 E0.37070
G1 X37.509 Y33.290 E0.37315
G1 X37.901 Y33.105 E0.39478
G1 X38.371 Y32.826 E0.42205
G1 X38.420 Y32.860 E0.42502
G1 X40.735 Y31.767 E0.55274
G1 X40.742 Y31.724 E0.55492
G1 X41.081 Y31.603 E0.57287
G1 X41.647 Y31.336 E0.60410
G1 X41.701 Y31.383 E0.60767
G1 X43.008 Y30.917 E0.67689
G1 X44.067 Y30.527 E0.73320
G1 X44.076 Y30.492 E0.73500
G1 X44.336 Y30.428 E0.74836
G1 X45.014 Y30.178 E0.78441
G1 X45.077 Y30.244 E0.78896
G1 X47.344 Y29.683 E0.90548
G1 X47.364 Y29.615 E0.90901
G1 X47.984 Y29.525 E0.94027
G1 X48.513 Y29.394 E0.96746
G1 X48.550 Y29.443 E0.97052
G1 X50.884 Y29.103 E1.08819
G1 X50.906 Y29.051 E1.09101
G1 X51.429 Y29.024 E1.11714
G1 X51.883 Y28.958 E1.14003
G1 X51.913 Y28.999 E1.14256
G1 X54.404 Y28.870 E1.26700
G1 X54.434 Y28.813 E1.27022
G1 X54.982 Y28.840 E1.29759
G1 X55.610 Y28.808 E1.32896
G1 X55.642 Y28.874 E1.33262
G1 X57.049 Y28.944 E1.40290
G1 X57.951 Y29.004 E1.44800
G1 X57.967 Y28.980 E1.44944
G1 X58.383 Y29.033 E1.47036
G1 X59.186 Y29.087 E1.51052
G1 X59.206 Y29.139 E1.51330
G1 X60.529 Y29.308 E1.57984
G1 X61.628 Y29.473 E1.63528
G1 X61.661 Y29.437 E1.63772
G1 X62.083 Y29.541 E1.65940
G1 X62.686 Y29.632 E1.68983
G1 X62.703 Y29.695 E1.69308
G1 X65.091 Y30.286 E1.81581
G1 X65.126 Y30.254 E1.81818
G1 X65.504 Y30.388 E1.83819
G1 X65.923 Y30.492 E1.85973
G1 X65.937 Y30.542 E1.86232
G1 X67.456 Y31.082 E1.94275
G1 X68.322 Y31.401 E1.98879
G1 X68.381 Y31.351 E1.99265
G1 X69.073 Y31.677 E2.03081
G1 X69.282 Y31.754 E2.04192
G1 X69.286 Y31.777 E2.04309
G1 X70.724 Y32.455 E2.12240
G1 X71.762 Y32.946 E2.17969
G1 X71.797 Y32.926 E2.18170
G1 X72.098 Y33.105 E2.19917
G1 X72.511 Y33.300 E2.22196
G1 X72.514 Y33.351 E2.22451
G1 X74.797 Y34.707 E2.35698
G1 X74.836 Y34.689 E2.35913
G1 X75.121 Y34.899 E2.37679
G1 X75.537 Y35.146 E2.40093
G1 X75.535 Y35.204 E2.40382
G1 X76.790 Y36.129 E2.48160
G1 X76.790 Y36.128 E2.48165
G1 X77.594 Y36.719 E2.53144
G1 X77.643 Y36.699 E2.53408
G1 X77.983 Y37.004 E2.55686
G1 X78.392 Y37.305 E2.58220
G1 X78.383 Y37.364 E2.58518
G1 X80.265 Y39.055 E2.71140
G1 X80.322 Y39.038 E2.71437
G1 X80.663 Y39.413 E2.73966
G1 X81.135 Y39.837 E2.77131
G1 X81.112 Y39.906 E2.77494
G1 X82.780 Y41.740 E2.89862
G1 X82.824 Y41.734 E2.90084
G1 X83.054 Y42.041 E2.91998
G1 X83.486 Y42.516 E2.95201
G1 X83.457 Y42.580 E2.95551
G1 X84.948 Y44.571 E3.07961
G1 X84.993 Y44.570 E3.08186
G1 X85.180 Y44.881 E3.09996
G1 X85.574 Y45.407 E3.13275
G1 X85.536 Y45.472 E3.13651
G1 X86.814 Y47.595 E3.26013
G1 X86.865 Y47.599 E3.26268
G1 X87.045 Y47.980 E3.28371
G1 X87.339 Y48.468 E3.31213
G1 X87.302 Y48.521 E3.31536
G1 X88.308 Y50.649 E3.43279
G1 X88.369 Y50.655 E3.43585
G1 X88.555 Y51.171 E3.46321
G1 X88.729 Y51.538 E3.48347
G1 X88.702 Y51.576 E3.48580
G1 X89.554 Y53.937 E3.61102
G1 X89.623 Y53.950 E3.61453
G1 X89.766 Y54.525 E3.64409
G1 X89.969 Y55.087 E3.67390
G1 X89.918 Y55.135 E3.67739
G1 X90.248 Y56.461 E3.74557
G1 X90.524 Y57.529 E3.80060
G1 X90.566 Y57.545 E3.80284
G1 X90.616 Y57.884 E3.81994
G1 X90.785 Y58.537 E3.85359
G1 X90.720 Y58.587 E3.85768
G1 X90.916 Y59.923 E3.92505
G1 X91.085 Y61.031 E3.98097
G1 X91.123 Y61.050 E3.98308
G1 X91.140 Y61.388 E3.99997
G1 X91.244 Y62.071 E4.03444
G1 X91.177 Y62.113 E4.03838
G1 X91.292 Y64.397 E4.15248
G1 X91.351 Y64.428 E4.15580
G1 X91.323 Y64.995 E4.18412
G1 X91.343 Y65.400 E4.20435
G1 X91.301 Y65.426 E4.20682
G1 X91.221 Y67.014 E4.28614
G1 X91.167 Y68.087 E4.33974
G1 X91.205 Y68.115 E4.34210
G1 X91.145 Y68.520 E4.36252
G1 X91.112 Y69.188 E4.39589
G1 X91.044 Y69.213 E4.39951
G1 X90.849 Y70.538 E4.46632
G1 X90.709 Y71.457 E4.51270
G1 X90.757 Y71.496 E4.51579
G1 X90.617 Y72.057 E4.54463
G1 X90.523 Y72.674 E4.57577
G1 X90.459 Y72.691 E4.57907
G1 X89.872 Y75.049 E4.70031
G1 X89.907 Y75.088 E4.70292
G1 X89.762 Y75.489 E4.72419
G1 X89.630 Y76.018 E4.75139
G1 X89.566 Y76.031 E4.75465
G1 X88.746 Y78.295 E4.87478
G1 X88.784 Y78.342 E4.87780
G1 X88.550 Y78.838 E4.90516
G1 X88.419 Y79.199 E4.92432
G1 X88.376 Y79.207 E4.92650
G1 X87.687 Y80.664 E5.00691
G1 X87.272 Y81.527 E5.05469
G1 X87.308 Y81.581 E5.05792
G1 X86.997 Y82.099 E5.08807
G1 X86.841 Y82.422 E5.10596
G1 X86.801 Y82.424 E5.10796
G1 X85.996 Y83.762 E5.18586
G1 X85.997 Y83.762 E5.18591
G1 X85.446 Y84.686 E5.23959
G1 X85.467 Y84.731 E5.24206
G1 X85.228 Y85.052 E5.26203
G1 X84.892 Y85.614 E5.29470
G1 X84.815 Y85.604 E5.29857
G1 X83.986 Y86.714 E5.36769
G1 X83.416 Y87.474 E5.41508
G1 X83.440 Y87.532 E5.41822
G1 X83.054 Y87.957 E5.44686
G1 X82.701 Y88.427 E5.47618
G1 X82.639 Y88.413 E5.47936
G1 X80.962 Y90.257 E5.60371
G1 X80.973 Y90.304 E5.60612
G1 X80.675 Y90.572 E5.62611
G1 X80.269 Y91.019 E5.65624
G1 X80.204 Y90.997 E5.65966
G1 X78.377 Y92.643 E5.78235
G1 X78.385 Y92.700 E5.78522
G1 X78.000 Y92.983 E5.80906
G1 X77.719 Y93.236 E5.82792
G1 X77.676 Y93.221 E5.83019
G1 X75.535 Y94.793 E5.96271
G1 X75.537 Y94.846 E5.96536
G1 X75.143 Y95.081 E5.98824
G1 X74.750 Y95.370 E6.01258
G1 X74.702 Y95.345 E6.01528
G1 X72.514 Y96.652 E6.14243
G1 X72.511 Y96.705 E6.14508
G1 X72.107 Y96.895 E6.16735
G1 X71.773 Y97.094 E6.18675
G1 X71.732 Y97.070 E6.18912
G1 X70.295 Y97.745 E6.26833
G1 X69.276 Y98.227 E6.32457
G1 X69.268 Y98.273 E6.32690
G1 X68.905 Y98.402 E6.34612
G1 X68.372 Y98.654 E6.37553
G1 X68.320 Y98.610 E6.37893
G1 X66.983 Y99.085 E6.44972
G1 X65.951 Y99.447 E6.50428
G1 X65.937 Y99.499 E6.50697
G1 X65.473 Y99.615 E6.53083
G1 X64.962 Y99.794 E6.55784
G1 X64.922 Y99.752 E6.56073
G1 X62.656 Y100.317 E6.67725
G1 X62.636 Y100.385 E6.68078
G1 X62.035 Y100.472 E6.71108
G1 X61.654 Y100.567 E6.73067
G1 X61.622 Y100.532 E6.73304
G1 X60.091 Y100.754 E6.81022
G1 X59.030 Y100.913 E6.86374
G1 X59.010 Y100.956 E6.86611
G1 X58.608 Y100.976 E6.88619
G1 X58.122 Y101.049 E6.91071
G1 X58.088 Y101.002 E6.91360
G1 X55.420 Y101.136 E7.04687
G1 X55.395 Y101.177 E7.04927
G1 X55.001 Y101.157 E7.06895
G1 X54.389 Y101.188 E7.09952
G1 X54.358 Y101.125 E7.10303
G1 X52.041 Y101.009 E7.21877
G1 X52.008 Y101.059 E7.22176
G1 X51.465 Y100.980 E7.24913
G1 X50.825 Y100.948 E7.28110
G1 X50.801 Y100.884 E7.28451
G1 X48.509 Y100.551 E7.40006
G1 X48.471 Y100.598 E7.40308
G1 X47.962 Y100.471 E7.42925
G1 X47.404 Y100.390 E7.45738
G1 X47.384 Y100.327 E7.46068
G1 X44.856 Y99.697 E7.59066
G1 X44.822 Y99.726 E7.59289
G1 X44.468 Y99.600 E7.61163
G1 X44.086 Y99.505 E7.63127
G1 X44.074 Y99.460 E7.63359
G1 X41.661 Y98.603 E7.76135
G1 X41.613 Y98.643 E7.76446
G1 X41.113 Y98.408 E7.79203
G1 X40.742 Y98.276 E7.81167
G1 X40.734 Y98.230 E7.81400
G1 X38.244 Y97.058 E7.95130
G1 X38.204 Y97.081 E7.95360
G1 X37.877 Y96.886 E7.97260
G1 X37.497 Y96.707 E7.99356
G1 X37.494 Y96.657 E7.99605
G1 X36.150 Y95.854 E8.07416
G1 X36.150 Y95.855 E8.07421
G1 X35.327 Y95.364 E8.12202
G1 X35.275 Y95.392 E8.12497
G1 X34.854 Y95.082 E8.15105
G1 X34.292 Y94.747 E8.18370
G1 X34.301 Y94.675 E8.18732
G1 X33.209 Y93.872 E8.25494
G1 X32.285 Y93.193 E8.31215
G1 X32.246 Y93.206 E8.31420
G1 X31.995 Y92.980 E8.33105
G1 X31.459 Y92.586 E8.36424
G1 X31.476 Y92.512 E8.36803
G1 X29.738 Y90.946 E8.48474
G1 X29.679 Y90.964 E8.48782
G1 X29.324 Y90.574 E8.51413
G1 X28.856 Y90.152 E8.54557
G1 X28.879 Y90.084 E8.54915
G1 X27.219 Y88.259 E8.67223
G1 X27.173 Y88.265 E8.67454
G1 X26.934 Y87.946 E8.69443
G1 X26.509 Y87.478 E8.72597
G1 X26.538 Y87.415 E8.72943
G1 X25.725 Y86.328 E8.79715
G1 X25.079 Y85.467 E8.85085
G1 X25.032 Y85.469 E8.85320
G1 X24.831 Y85.136 E8.87261
G1 X24.424 Y84.593 E8.90646
G1 X24.463 Y84.525 E8.91037
G1 X23.190 Y82.413 E9.03340
G1 X23.136 Y82.409 E9.03610
G1 X22.950 Y82.015 E9.05784
G1 X22.760 Y81.700 E9.07619
G1 X22.783 Y81.661 E9.07845
G1 X22.103 Y80.222 E9.15785
G1 X21.613 Y79.205 E9.21417
G1 X21.576 Y79.198 E9.21605
G1 X21.475 Y78.918 E9.23090
G1 X21.267 Y78.486 E9.25482
G1 X21.302 Y78.437 E9.25783
G1 X20.459 Y76.096 E9.38196
G1 X20.387 Y76.084 E9.38560
G1 X20.234 Y75.470 E9.41717
G1 X20.032 Y74.910 E9.44687
G1 X20.082 Y74.863 E9.45030
G1 X19.752 Y73.542 E9.51823
G1 X19.477 Y72.482 E9.57286
G1 X19.436 Y72.467 E9.57504
G1 X19.387 Y72.133 E9.59188
G1 X19.264 Y71.659 E9.61631
G1 X19.311 Y71.616 E9.61949
G1 X18.922 Y68.983 E9.75228
G1 X18.877 Y68.961 E9.75478
G1 X18.855 Y68.528 E9.77641
G1 X18.798 Y68.140 E9.79597
G1 X18.834 Y68.112 E9.79825
G1 X18.755 Y66.539 E9.87682
G1 X18.692 Y65.594 E9.92408
G1 X18.647 Y65.571 E9.92660
G1 X18.666 Y65.203 E9.94498
G1 X18.612 Y64.398 E9.98523
G1 X18.709 Y64.350 E9.99063
G1 X18.779 Y62.960 E10.06007
G1 X18.850 Y61.893 E10.11342
G1 X18.798 Y61.853 E10.11669
G1 X18.898 Y61.173 E10.15098
G1 X18.907 Y61.045 E10.15738
G1 X18.918 Y61.039 E10.15801
G1 X19.314 Y58.361 E10.29307
G1 X19.282 Y58.331 E10.29526
G1 X19.370 Y57.979 E10.31336
G1 X19.466 Y57.330 E10.34609
G1 X19.537 Y57.311 E10.34976
G1 X19.870 Y55.983 E10.41806
G1 X20.139 Y54.941 E10.47175
G1 X20.102 Y54.899 E10.47454
G1 X20.273 Y54.423 E10.49978
G1 X20.355 Y54.106 E10.51611
G1 X20.390 Y54.097 E10.51792
G1 X21.221 Y51.786 E10.64044
G1 X21.178 Y51.737 E10.64369
G1 X21.431 Y51.201 E10.67326
G1 X21.590 Y50.759 E10.69670
G1 X21.644 Y50.751 E10.69942
G1 X22.312 Y49.336 E10.77749
G1 X22.788 Y48.347 E10.83224
G1 X22.760 Y48.298 E10.83506
G1 X23.015 Y47.875 E10.85970
G1 X23.149 Y47.597 E10.87510
G1 X23.184 Y47.595 E10.87685
G1 X24.015 Y46.218 E10.95709
G1 X24.505 Y45.412 E11.00415
G1 X24.470 Y45.346 E11.00787
G1 X24.868 Y44.815 E11.04098
G1 X25.129 Y44.385 E11.06608
G1 X25.184 Y44.392 E11.06884
G1 X26.591 Y42.514 E11.18591
G1 X26.567 Y42.456 E11.18905
G1 X26.948 Y42.037 E11.21730
G1 X27.295 Y41.574 E11.24617
G1 X27.357 Y41.588 E11.24934
G1 X28.286 Y40.567 E11.31821
G1 X28.932 Y39.858 E11.36606
G1 X28.912 Y39.793 E11.36945
G1 X29.347 Y39.402 E11.39863
G1 X29.737 Y38.974 E11.42752
G1 X29.800 Y38.995 E11.43083
G1 X31.506 Y37.462 E11.54526
G1 F2400 E7.54526
G0 F9000 X33.381 Y41.318
;TYPE:WALL-INNER
G1 F2400 E11.54526
G1 F900 X33.348 Y41.232 E11.54986
G1 X34.102 Y41.651 E11.59289
G1 X34.660 Y42.028 E11.62649
G1 X35.113 Y42.383 E11.65520
G1 X35.577 Y42.154 E11.68102
G1 X36.274 Y41.588 E11.72581
G1 X36.570 Y41.175 E11.75116
G1 X36.193 Y40.383 E11.79492
G1 X36.007 Y39.908 E11.82037
G1 X35.837 Y39.398 E11.84719
G1 X35.792 Y39.233 E11.85573
G1 X36.232 Y39.526 E11.88210
G1 X36.787 Y39.952 E11.91700
G1 X37.295 Y40.410 E11.95113
G1 X37.632 Y40.477 E11.96827
G1 X37.920 Y40.372 E11.98356
G1 X38.665 Y39.877 E12.02819
G1 X39.007 Y39.500 E12.05358
G1 X38.712 Y38.676 E12.09725
G1 X38.563 Y38.155 E12.12428
G1 X38.452 Y37.659 E12.14964
G1 X38.422 Y37.484 E12.15850
G1 X38.956 Y37.926 E12.19308
G1 X39.339 Y38.291 E12.21948
G1 X39.921 Y38.943 E12.26308
G1 X40.421 Y38.831 E12.28864
G1 X41.222 Y38.405 E12.33391
G1 X41.599 Y38.063 E12.35930
G1 X41.384 Y37.223 E12.40256
G1 X41.292 Y36.708 E12.42866
G1 X41.227 Y36.169 E12.45574
G1 X41.214 Y35.999 E12.46425
G1 X41.817 Y36.623 E12.50754
G1 X42.290 Y37.215 E12.54535
G1 X42.555 Y37.597 E12.56854
G1 X43.070 Y37.535 E12.59442
G1 X43.913 Y37.186 E12.63994
G1 X44.318 Y36.874 E12.66545
G1 X44.223 Y36.303 E12.69433
G1 X44.137 Y35.331 E12.74301
G1 X44.133 Y34.975 E12.76077
G1 X44.138 Y34.795 E12.76975
G1 X44.479 Y35.210 E12.79655
G1 X45.041 Y36.027 E12.84602
G1 X45.326 Y36.529 E12.87482
G1 X45.841 Y36.500 E12.90056
G1 X46.561 Y36.283 E12.93807
G1 X46.713 Y36.235 E12.94603
G1 X47.136 Y35.979 E12.97069
G1 X47.093 Y35.104 E13.01440
G1 X47.092 Y34.975 E13.02084
G1 X47.113 Y34.398 E13.04964
G1 X47.161 Y33.886 E13.07530
G1 X47.162 Y33.876 E13.07580
G1 X47.622 Y34.588 E13.11809
G1 X47.871 Y35.048 E13.14419
G1 X48.177 Y35.722 E13.18112
G1 X48.693 Y35.743 E13.20688
G1 X49.574 Y35.571 E13.25166
G1 X50.033 Y35.352 E13.27704
G1 X50.076 Y34.474 E13.32089
G1 X50.136 Y33.963 E13.34656
G1 X50.230 Y33.431 E13.37351
G1 X50.268 Y33.263 E13.38211
G1 X50.698 Y34.115 E13.42972
G1 X50.869 Y34.528 E13.45202
G1 X51.098 Y35.186 E13.48678
G1 X51.597 Y35.271 E13.51203
G1 X52.358 Y35.199 E13.55017
G1 X52.515 Y35.179 E13.55807
G1 X52.990 Y35.006 E13.58329
G1 X53.048 Y34.508 E13.60830
G1 X53.134 Y33.997 E13.63415
G1 X53.386 Y33.047 E13.68319
G1 X53.417 Y32.957 E13.68794
G1 X53.735 Y33.761 E13.73107
G1 X54.054 Y34.958 E13.79287
G1 X54.549 Y35.083 E13.81835
G1 X55.450 Y35.083 E13.86330
G1 X55.941 Y34.958 E13.88857
G1 X56.158 Y34.091 E13.93316
G1 X56.510 Y33.116 E13.98488
G1 X56.582 Y32.955 E13.99368
G1 X56.786 Y33.651 E14.02986
G1 X56.897 Y34.158 E14.05576
G1 X57.010 Y35.007 E14.09849
G1 X57.498 Y35.184 E14.12438
G1 X58.402 Y35.271 E14.16969
G1 X58.895 Y35.187 E14.19464
G1 X59.192 Y34.372 E14.23792
G1 X59.405 Y33.886 E14.26439
G1 X59.637 Y33.432 E14.28983
G1 X59.731 Y33.266 E14.29935
G1 X59.884 Y34.120 E14.34263
G1 X59.928 Y34.528 E14.36310
G1 X59.965 Y35.351 E14.40421
G1 X60.425 Y35.571 E14.42965
G1 X61.163 Y35.715 E14.46716
G1 X61.304 Y35.744 E14.47434
G1 X61.810 Y35.722 E14.49961
G1 X62.196 Y34.913 E14.54433
G1 X62.625 Y34.185 E14.58649
G1 X62.835 Y33.877 E14.60508
G1 X62.902 Y34.731 E14.64782
G1 X62.907 Y35.106 E14.66653
G1 X62.863 Y35.981 E14.71024
G1 X63.298 Y36.241 E14.73552
G1 X64.158 Y36.500 E14.78033
G1 X64.663 Y36.528 E14.80557
G1 X65.115 Y35.776 E14.84934
G1 X65.678 Y35.011 E14.89673
G1 X65.863 Y34.794 E14.91095
G1 X65.867 Y35.058 E14.92413
G1 X65.850 Y35.574 E14.94988
G1 X65.784 Y36.248 E14.98367
G1 X65.677 Y36.870 E15.01516
G1 X66.086 Y37.186 E15.04094
G1 X66.929 Y37.535 E15.08646
G1 X67.429 Y37.596 E15.11159
G1 X67.954 Y36.892 E15.15541
G1 X68.667 Y36.111 E15.20817
G1 X68.788 Y35.998 E15.21643
G1 X68.670 Y36.940 E15.26379
G1 X68.580 Y37.374 E15.28590
G1 X68.397 Y38.059 E15.32128
G1 X68.777 Y38.405 E15.34692
G1 X69.438 Y38.756 E15.38425
G1 X69.577 Y38.830 E15.39211
G1 X70.069 Y38.941 E15.41727
G1 X70.657 Y38.294 E15.46089
G1 X71.020 Y37.947 E15.48594
G1 X71.578 Y37.480 E15.52225
G1 X71.485 Y37.942 E15.54576
G1 X71.378 Y38.375 E15.56801
G1 X70.989 Y39.492 E15.62702
G1 X71.330 Y39.875 E15.65260
G1 X72.079 Y40.373 E15.69748
G1 X72.567 Y40.549 E15.72336
G1 X73.263 Y39.910 E15.77050
G1 X73.683 Y39.586 E15.79696
G1 X74.139 Y39.273 E15.82456
G1 X74.209 Y39.230 E15.82865
G1 X74.055 Y39.727 E15.85461
G1 X73.886 Y40.193 E15.87934
G1 X73.707 Y40.605 E15.90175
G1 X73.424 Y41.167 E15.93315
G1 X73.725 Y41.588 E15.95897
G1 X74.424 Y42.156 E16.00390
G1 X74.904 Y42.388 E16.03050
G1 X75.222 Y42.119 E16.05128
G1 X75.648 Y41.812 E16.07748
G1 X76.094 Y41.532 E16.10375
G1 X76.587 Y41.262 E16.13179
G1 X76.653 Y41.229 E16.13547
G1 X76.310 Y42.012 E16.17812
G1 X75.955 Y42.653 E16.21468
G1 X75.684 Y43.076 E16.23974
G1 X75.940 Y43.525 E16.26553
G1 X76.582 Y44.163 E16.31068
G1 X77.022 Y44.425 E16.33623
G1 X77.837 Y43.934 E16.38370
G1 X78.307 Y43.701 E16.40987
G1 X78.802 Y43.490 E16.43672
G1 X78.890 Y43.457 E16.44141
G1 X78.461 Y44.216 E16.48490
G1 X77.743 Y45.209 E16.54604
G1 X77.958 Y45.673 E16.57155
G1 X78.438 Y46.257 E16.60927
G1 X78.544 Y46.381 E16.61740
G1 X78.945 Y46.663 E16.64186
G1 X79.728 Y46.295 E16.68503
G1 X80.221 Y46.103 E16.71142
G1 X80.706 Y45.944 E16.73688
G1 X80.894 Y45.892 E16.74662
G1 X80.544 Y46.406 E16.77764
G1 X80.220 Y46.822 E16.80395
G1 X79.580 Y47.515 E16.85101
G1 X79.751 Y48.005 E16.87690
G1 X80.253 Y48.753 E16.92184
G1 X80.630 Y49.088 E16.94701
G1 X81.464 Y48.793 E16.99114
G1 X81.952 Y48.655 E17.01644
G1 X82.489 Y48.537 E17.04387
G1 X82.653 Y48.509 E17.05217
G1 X82.147 Y49.102 E17.09106
G1 X81.789 Y49.466 E17.11653
G1 X81.175 Y50.005 E17.15730
G1 X81.311 Y50.506 E17.18320
G1 X81.660 Y51.163 E17.22031
G1 X81.734 Y51.300 E17.22808
G1 X82.080 Y51.665 E17.25317
G1 X82.923 Y51.454 E17.29653
G1 X83.443 Y51.363 E17.32286
G1 X83.954 Y51.300 E17.34855
