;Generated with Cura_SteamEngine 15.05
; Default start code
G28 ; Home extruder
G1 Z15 F100
M107 ; Turn off fan
G90 ; Absolute positioning
M82 ; Extruder in absolute mode
M190 S50
; Activate all used extruder
M104 T0 S190
G92 E0 ; Reset extruder position
; Wait for all used extruders to reach temperature
M109 T0 S190
;Layer count: 125
;LAYER:0
M107
G0 F9000 X-2.082 Y13.424 Z0.300
;TYPE:SKIRT
G1 F900 X14.121 Y-0.170 E1.05519
G1 X112.081 Y116.575 E8.65842
G1 X98.556 Y127.922 E9.53921
G1 X95.881 Y130.172 E9.71360
G1 X-2.082 Y13.424 E17.31704
G1 F2400 E13.31704
G0 F9000 X2.708 Y13.844
;TYPE:WALL-OUTER
G1 F2400 E17.31704
G1 F900 X13.701 Y4.620 E18.03298
G1 X107.291 Y116.155 E25.29695
G1 X96.298 Y125.379 E26.01289
G1 X2.708 Y13.844 E33.27686
G0 F9000 X3.060 Y13.938
G0 X11.740 Y15.968
G0 X12.020 Y16.075
G1 F900 X12.004 Y16.113 E33.27892
G1 X11.932 Y16.720 E33.30942
G1 X11.927 Y16.752 E33.31103
G1 X12.008 Y17.363 E33.34178
G1 X12.014 Y17.400 E33.34365
G1 X12.241 Y17.961 E33.37385
G1 X12.256 Y17.996 E33.37575
G1 X12.630 Y18.505 E33.40726
G1 X13.127 Y18.915 E33.43940
G1 X13.691 Y19.180 E33.47049
G1 X13.726 Y19.195 E33.47239
G1 X14.319 Y19.303 E33.50246
G1 X14.353 Y19.312 E33.50422
G1 X14.968 Y19.268 E33.53498
G1 X15.005 Y19.265 E33.53683
G1 X15.604 Y19.067 E33.56830
G1 X16.160 Y18.713 E33.60119
G1 X16.590 Y18.248 E33.63279
G1 X16.900 Y17.683 E33.66494
G1 X17.062 Y17.045 E33.69778
G1 X17.059 Y16.428 E33.72856
G1 X17.056 Y16.391 E33.73041
G1 X16.897 Y15.786 E33.76162
G1 X16.585 Y15.221 E33.79382
G1 X16.142 Y14.751 E33.82604
G1 X15.585 Y14.400 E33.85889
G1 X14.982 Y14.209 E33.89045
G1 X14.362 Y14.170 E33.92144
G1 X14.327 Y14.167 E33.92319
G1 X13.703 Y14.291 E33.95493
G1 X13.120 Y14.566 E33.98709
G1 X12.624 Y14.979 E34.01929
G1 X12.259 Y15.483 E34.05034
G1 X12.237 Y15.514 E34.05224
G1 X12.020 Y16.075 E34.08224
G0 F9000 X11.740 Y15.968
G0 X11.629 Y17.508
G0 X12.914 Y19.255
G0 X93.424 Y111.272
G0 X93.616 Y111.501
G1 F900 X93.250 Y112.005 E34.11332
G1 X93.228 Y112.036 E34.11522
G1 X93.011 Y112.597 E34.14523
G1 X92.996 Y112.635 E34.14726
G1 X92.923 Y113.241 E34.17772
G1 X92.918 Y113.274 E34.17938
G1 X92.999 Y113.885 E34.21013
G1 X93.005 Y113.922 E34.21200
G1 X93.232 Y114.483 E34.24219
G1 X93.247 Y114.518 E34.24409
G1 X93.621 Y115.027 E34.27561
G1 X94.119 Y115.436 E34.30776
G1 X94.682 Y115.701 E34.33880
G1 X94.717 Y115.716 E34.34070
G1 X95.310 Y115.825 E34.37078
G1 X95.345 Y115.834 E34.37258
G1 X95.959 Y115.790 E34.40329
G1 X95.996 Y115.787 E34.40515
G1 X96.595 Y115.588 E34.43664
G1 X97.151 Y115.235 E34.46949
G1 X97.581 Y114.770 E34.50109
G1 X97.891 Y114.204 E34.53329
G1 X98.053 Y113.567 E34.56608
G1 X98.050 Y112.949 E34.59691
G1 X98.047 Y112.912 E34.59876
G1 X97.888 Y112.308 E34.62992
G1 X97.576 Y111.743 E34.66212
G1 X97.133 Y111.273 E34.69435
G1 X96.576 Y110.921 E34.72722
G1 X95.973 Y110.730 E34.75878
G1 X95.353 Y110.692 E34.78977
G1 X95.318 Y110.689 E34.79152
G1 X94.694 Y110.813 E34.82326
G1 X94.111 Y111.088 E34.85542
G1 X93.616 Y111.501 E34.88758
G0 F9000 X93.551 Y111.370
;TYPE:SKIN
G1 F900 X38.701 Y56.520 E38.75755
G0 F9000 X38.823 Y56.418
G0 X35.872 Y52.902
G0 X35.750 Y53.004
G1 F900 X93.859 Y111.113 E42.85745
G0 F9000 X94.201 Y110.889
G1 F900 X32.800 Y49.488 E47.18962
G0 F9000 X32.922 Y49.386
G0 X29.971 Y45.869
G0 X29.849 Y45.971
G1 F900 X94.586 Y110.708 E51.75717
G0 F9000 X95.043 Y110.599
G1 F900 X26.899 Y42.456 E56.56506
G0 F9000 X27.021 Y42.354
G0 X24.070 Y38.837
G0 X23.948 Y38.939
G1 F900 X95.573 Y110.564 E61.61859
G0 F9000 X96.242 Y110.667
G1 F900 X20.998 Y35.423 E66.92746
G0 F9000 X21.120 Y35.321
G0 X31.774 Y26.623
G0 X31.896 Y26.522
G1 F900 X11.784 Y6.410 E68.34647
G0 F9000 X11.477 Y6.668
G1 F900 X34.846 Y30.038 E69.99531
G0 F9000 X34.724 Y30.139
G0 X37.676 Y33.656
G0 X37.797 Y33.555
G1 F900 X11.169 Y6.926 E71.87410
G0 F9000 X10.861 Y7.184
G1 F900 X40.748 Y37.071 E73.98279
G0 F9000 X40.626 Y37.172
G0 X43.576 Y40.688
G0 X43.698 Y40.587
G1 F900 X10.554 Y7.443 E76.32128
G0 F9000 X10.246 Y7.701
G1 F900 X46.649 Y44.103 E78.88967
G0 F9000 X46.527 Y44.204
G0 X49.478 Y47.721
G0 X49.600 Y47.620
G1 F900 X9.939 Y7.959 E81.68797
G0 F9000 X9.631 Y8.217
G1 F900 X15.757 Y14.342 E82.12015
G0 F9000 X14.912 Y14.064
G1 F900 X9.323 Y8.475 E82.51449
G0 F9000 X9.016 Y8.733
G1 F900 X14.309 Y14.026 E82.88794
G0 F9000 X13.838 Y14.120
G1 F900 X8.708 Y8.991 E83.24985
G0 F9000 X8.401 Y9.249
G1 F900 X13.420 Y14.268 E83.60397
G0 F9000 X13.036 Y14.451
G1 F900 X8.093 Y9.507 E83.95276
G0 F9000 X7.785 Y9.765
G1 F900 X12.728 Y14.708 E84.30152
G0 F9000 X12.443 Y14.989
G1 F900 X7.478 Y10.023 E84.65186
G0 F9000 X7.170 Y10.282
G1 F900 X12.205 Y15.316 E85.00707
G0 F9000 X12.017 Y15.694
G1 F900 X6.863 Y10.540 E85.37071
G0 F9000 X6.555 Y10.798
G1 F900 X11.863 Y16.106 E85.74522
G0 F9000 X11.803 Y16.612
G1 F900 X6.247 Y11.056 E86.13723
G0 F9000 X5.940 Y11.314
G1 F900 X11.848 Y17.222 E86.55407
G0 F9000 X12.153 Y18.092
G1 F900 X5.633 Y11.573 E87.01405
G0 F9000 X5.325 Y11.831
G1 F900 X93.860 Y100.366 E93.26068
G0 F9000 X93.738 Y100.468
G0 X96.688 Y103.984
G0 X96.811 Y103.882
G1 F900 X5.018 Y12.089 E99.73717
G0 F9000 X4.710 Y12.347
G1 F900 X99.762 Y107.398 E106.44356
G0 F9000 X99.639 Y107.501
G0 X98.241 Y112.471
G0 X98.085 Y112.510
G1 F900 X104.167 Y118.592 E106.87268
G0 F9000 X103.859 Y118.850
G1 F900 X98.190 Y113.181 E107.27266
G0 F9000 X98.159 Y113.715
G1 F900 X103.552 Y119.108 E107.65317
G0 F9000 X103.244 Y119.366
G1 F900 X98.044 Y114.166 E108.02005
G0 F9000 X97.860 Y114.548
G1 F900 X102.937 Y119.624 E108.37823
G0 F9000 X102.629 Y119.882
G1 F900 X97.648 Y114.902 E108.72963
G0 F9000 X97.376 Y115.195
G1 F900 X102.321 Y120.140 E109.07853
G0 F9000 X102.014 Y120.399
G1 F900 X97.068 Y115.452 E109.42753
G0 F9000 X96.722 Y115.672
G1 F900 X101.706 Y120.657 E109.77921
G0 F9000 X101.399 Y120.915
G1 F900 X96.312 Y115.829 E110.13809
G0 F9000 X95.855 Y115.937
G1 F900 X101.091 Y121.173 E110.50752
G0 F9000 X100.783 Y121.431
G1 F900 X95.325 Y115.973 E110.89261
G0 F9000 X94.605 Y115.819
G1 F900 X100.476 Y121.689 E111.30681
G0 F9000 X100.168 Y121.947
G1 F900 X59.353 Y81.132 E114.18653
G0 F9000 X59.475 Y81.030
G0 X56.525 Y77.515
G0 X56.403 Y77.616
G1 F900 X92.953 Y114.166 E116.76533
G0 F9000 X92.799 Y113.447
G1 F900 X53.453 Y74.100 E119.54143
G0 F9000 X53.575 Y73.999
G0 X50.624 Y70.483
G0 X50.502 Y70.584
G1 F900 X92.823 Y112.905 E122.52741
G0 F9000 X92.922 Y112.438
G1 F900 X47.552 Y67.068 E125.72851
G0 F9000 X47.674 Y66.967
G0 X44.723 Y63.450
G0 X44.602 Y63.552
G1 F900 X93.080 Y112.030 E129.14889
G0 F9000 X93.305 Y111.690
G1 F900 X41.651 Y60.036 E132.79336
G0 F9000 X41.773 Y59.934
G0 X52.428 Y51.238
G0 X52.550 Y51.136
G1 F900 X16.876 Y15.462 E135.31035
G0 F9000 X17.185 Y16.336
G1 F900 X55.501 Y54.652 E138.01375
G0 F9000 X55.379 Y54.754
G0 X58.330 Y58.271
G0 X58.452 Y58.169
G1 F900 X17.200 Y16.917 E140.92431
G0 F9000 X17.116 Y17.399
G1 F900 X61.403 Y61.685 E144.04896
G0 F9000 X61.280 Y61.787
G0 X64.231 Y65.304
G0 X64.353 Y65.202
G1 F900 X16.979 Y17.827 E147.39148
G0 F9000 X16.778 Y18.193
G1 F900 X67.304 Y68.718 E150.95633
G0 F9000 X67.181 Y68.820
G0 X70.133 Y72.337
G0 X70.255 Y72.235
G1 F900 X16.533 Y18.513 E154.74671
G0 F9000 X16.261 Y18.806
G1 F900 X73.206 Y75.751 E158.76449
G0 F9000 X73.084 Y75.854
G0 X76.034 Y79.370
G0 X76.156 Y79.268
G1 F900 X15.919 Y19.031 E163.01453
G0 F9000 X15.553 Y19.230
G1 F900 X79.106 Y82.783 E167.49854
G0 F9000 X78.984 Y82.885
G0 X68.327 Y91.580
G0 X68.205 Y91.681
G1 F900 X99.245 Y122.721 E169.68858
G0 F9000 X98.938 Y122.980
G1 F900 X71.155 Y95.197 E171.64882
G0 F9000 X71.277 Y95.096
G0 X74.227 Y98.612
G0 X74.106 Y98.713
G1 F900 X98.630 Y123.238 E173.37916
G0 F9000 X98.323 Y123.496
G1 F900 X77.056 Y102.229 E174.87966
G0 F9000 X77.178 Y102.128
G0 X80.128 Y105.644
G0 X80.007 Y105.745
G1 F900 X98.015 Y123.754 E176.15025
G0 F9000 X97.708 Y124.012
G1 F900 X82.957 Y109.261 E177.19102
G0 F9000 X83.079 Y109.160
G0 X86.028 Y112.676
G0 X85.907 Y112.777
G1 F900 X97.400 Y124.270 E178.00191
G0 F9000 X97.092 Y124.528
G1 F900 X88.857 Y116.293 E178.58293
G0 F9000 X88.979 Y116.192
G0 X91.930 Y119.709
G0 X91.808 Y119.810
G1 F900 X96.785 Y124.786 E178.93405
G0 F9000 X96.477 Y125.044
G1 F900 X94.758 Y123.325 E179.05534
G0 F9000 X94.880 Y123.224
G0 X99.452 Y122.342
G0 X99.553 Y122.463
G1 F900 X65.254 Y88.164 E181.47532
G0 F9000 X65.376 Y88.063
G0 X62.426 Y84.547
G0 X62.304 Y84.649
G1 F900 X99.861 Y122.205 E184.12513
G0 F9000 X99.760 Y122.083
G0 X104.374 Y118.213
G0 X104.475 Y118.334
G1 F900 X18.048 Y31.907 E190.22302
G0 F9000 X18.170 Y31.805
G0 X15.219 Y28.289
G0 X15.097 Y28.391
G1 F900 X104.782 Y118.076 E196.55078
G0 F9000 X105.090 Y117.818
G1 F900 X12.147 Y24.875 E203.10841
G0 F9000 X12.269 Y24.773
G0 X9.318 Y21.256
G0 X9.196 Y21.358
G1 F900 X105.397 Y117.560 E209.89595
G0 F9000 X105.705 Y117.301
G1 F900 X6.246 Y17.843 E216.91328
G0 F9000 X6.368 Y17.740
G0 X3.417 Y14.224
G0 X3.295 Y14.326
G1 F900 X106.012 Y117.043 E224.16052
G0 F9000 X106.320 Y116.785
G1 F900 X3.172 Y13.637 E231.43817
G0 F9000 X3.480 Y13.379
G1 F900 X106.627 Y116.526 E238.71575
G0 F9000 X106.935 Y116.268
G1 F900 X3.787 Y13.121 E245.99336
G0 F9000 X4.095 Y12.863
G1 F900 X105.663 Y114.431 E253.15953
G0 F9000 X105.540 Y114.534
G0 X102.590 Y111.018
G0 X102.712 Y110.915
G1 F900 X4.403 Y12.605 E260.09580
G0 F9000 X4.504 Y12.726
G0 X12.194 Y6.275
G0 X12.092 Y6.152
G1 F900 X28.945 Y23.005 E261.28487
G0 F9000 X28.823 Y23.106
G0 X25.873 Y19.590
G0 X25.994 Y19.489
G1 F900 X12.399 Y5.894 E262.24407
G0 F9000 X12.707 Y5.636
G1 F900 X23.043 Y15.972 E262.97333
G0 F9000 X22.922 Y16.073
G0 X19.971 Y12.557
G0 X20.093 Y12.456
G1 F900 X13.015 Y5.378 E263.47272
G0 F9000 X13.322 Y5.120
G1 F900 X17.142 Y8.939 E263.74221
G0 F9000 X17.020 Y9.040
G0 X14.070 Y5.524
G0 X14.191 Y5.423
G1 F900 X13.629 Y4.861 E263.78186
G0 F9000 X13.732 Y4.985
G0 X11.525 Y16.746
G0 X12.338 Y18.781
G0 X13.064 Y19.216
G0 X13.132 Y19.072
G1 F900 X90.909 Y96.849 E269.26945
G0 F9000 X90.787 Y96.951
G0 X87.836 Y93.435
G0 X87.959 Y93.333
G1 F900 X14.015 Y19.389 E274.48660
G0 F9000 X14.623 Y19.432
G1 F900 X85.008 Y89.816 E279.45260
G0 F9000 X84.885 Y89.918
G0 X81.935 Y86.402
G0 X82.057 Y86.300
G1 F900 X15.128 Y19.371 E284.17481
G0 F9000 X15.397 Y20.189
;LAYER:1
M106 S63
G0 X14.956 Y19.269 Z0.500
;TYPE:WALL-OUTER
G1 F840 X15.005 Y19.265 E284.17644
G1 X15.571 Y19.078 E284.19627
G1 X15.618 Y19.062 E284.19792
G1 X16.119 Y18.739 E284.21775
G1 X16.159 Y18.714 E284.21931
G1 X16.565 Y18.275 E284.23920
G1 X16.598 Y18.239 E284.24083
G1 X16.880 Y17.718 E284.26053
G1 X16.905 Y17.673 E284.26224
G1 X17.062 Y17.044 E284.28381
G1 X17.059 Y16.444 E284.30376
G1 X17.057 Y16.395 E284.30539
G1 X16.906 Y15.820 E284.32517
G1 X16.892 Y15.771 E284.32686
G1 X16.602 Y15.252 E284.34663
G1 X16.578 Y15.209 E284.34827
G1 X16.167 Y14.778 E284.36808
G1 X16.133 Y14.742 E284.36973
G1 X15.584 Y14.400 E284.39124
G1 X15.016 Y14.220 E284.41106
G1 X14.972 Y14.205 E284.41260
G1 X14.373 Y14.171 E284.43256
G1 X14.327 Y14.167 E284.43410
G1 X13.738 Y14.284 E284.45407
G1 X13.690 Y14.294 E284.45570
G1 X13.151 Y14.551 E284.47556
G1 X13.106 Y14.574 E284.47724
G1 X12.633 Y14.971 E284.49778
G1 X12.266 Y15.473 E284.51846
G1 X12.237 Y15.514 E284.52013
G1 X12.003 Y16.115 E284.54158
G1 X11.933 Y16.708 E284.56144
G1 X11.927 Y16.756 E284.56305
G1 X12.006 Y17.351 E284.58302
G1 X12.014 Y17.400 E284.58467
G1 X12.236 Y17.947 E284.60430
G1 X12.254 Y17.994 E284.60598
G1 X12.608 Y18.476 E284.62587
G1 X12.639 Y18.517 E284.62758
G1 X13.097 Y18.890 E284.64722
G1 X13.137 Y18.923 E284.64895
G1 X13.681 Y19.175 E284.66889
G1 X13.726 Y19.195 E284.67053
G1 X14.306 Y19.301 E284.69014
G1 X14.357 Y19.311 E284.69186
G1 X14.956 Y19.269 E284.71184
G0 F9000 X14.968 Y19.569
G0 X13.515 Y19.539
G0 X12.287 Y18.713
G0 X3.060 Y13.939
G0 X2.708 Y13.844
G1 F840 X13.701 Y4.620 E285.18913
G1 X107.291 Y116.155 E290.03178
G1 X96.298 Y125.379 E290.50907
G1 X2.708 Y13.844 E295.35172
G0 F9000 X3.060 Y13.939
G0 X93.385 Y111.315
G0 X93.625 Y111.493
G1 F840 X93.257 Y111.995 E295.37242
G1 X93.228 Y112.036 E295.37409
G1 X92.995 Y112.637 E295.39553
G1 X92.918 Y113.278 E295.41700
G1 X92.997 Y113.873 E295.43697
G1 X93.005 Y113.922 E295.43862
G1 X93.227 Y114.469 E295.45825
G1 X93.245 Y114.516 E295.45993
G1 X93.599 Y114.997 E295.47979
G1 X93.630 Y115.038 E295.48150
G1 X94.110 Y115.428 E295.50207
G1 X94.671 Y115.695 E295.52273
G1 X94.717 Y115.716 E295.52441
G1 X95.298 Y115.823 E295.54406
G1 X95.349 Y115.833 E295.54579
G1 X95.947 Y115.791 E295.56573
G1 X95.996 Y115.787 E295.56737
G1 X96.562 Y115.599 E295.58720
G1 X96.609 Y115.583 E295.58885
G1 X97.106 Y115.263 E295.60851
G1 X97.150 Y115.236 E295.61023
G1 X97.556 Y114.797 E295.63012
G1 X97.590 Y114.761 E295.63177
G1 X97.871 Y114.239 E295.65148
G1 X97.896 Y114.194 E295.65320
G1 X98.053 Y113.566 E295.67473
G1 X98.050 Y112.965 E295.69472
G1 X98.048 Y112.916 E295.69635
G1 X97.896 Y112.339 E295.71619
G1 X97.882 Y112.292 E295.71782
G1 X97.593 Y111.774 E295.73755
G1 X97.569 Y111.731 E295.73919
G1 X97.158 Y111.300 E295.75900
G1 X97.124 Y111.264 E295.76065
G1 X96.618 Y110.947 E295.78051
G1 X96.575 Y110.921 E295.78218
G1 X96.007 Y110.741 E295.80199
G1 X95.963 Y110.726 E295.80354
G1 X95.364 Y110.693 E295.82349
G1 X95.318 Y110.689 E295.82503
G1 X94.729 Y110.806 E295.84500
G1 X94.681 Y110.816 E295.84663
G1 X94.143 Y111.073 E295.86646
G1 X94.098 Y111.096 E295.86814
G1 X93.625 Y111.493 E295.88868
G0 F9000 X93.130 Y111.930
;TYPE:SKIN
G1 F840 X88.816 Y116.244 E296.09160
G0 F9000 X89.074 Y116.551
G1 F840 X92.834 Y112.792 E296.26844
G0 F9000 X92.792 Y113.400
G1 F840 X89.333 Y116.859 E296.43114
G0 F9000 X89.591 Y117.166
G1 F840 X92.858 Y113.899 E296.58481
G0 F9000 X93.011 Y114.312
G1 F840 X89.849 Y117.474 E296.73354
G0 F9000 X90.107 Y117.782
G1 F840 X93.198 Y114.690 E296.87895
G0 F9000 X93.439 Y115.015
G1 F840 X90.365 Y118.089 E297.02354
G0 F9000 X90.623 Y118.397
G1 F840 X93.726 Y115.294 E297.16950
G0 F9000 X94.038 Y115.548
G1 F840 X90.881 Y118.704 E297.31797
G0 F9000 X91.139 Y119.012
G1 F840 X94.422 Y115.729 E297.47239
G0 F9000 X94.838 Y115.879
G1 F840 X91.397 Y119.320 E297.63425
G0 F9000 X91.655 Y119.627
G1 F840 X95.315 Y115.967 E297.80640
G0 F9000 X95.917 Y115.931
G1 F840 X91.913 Y119.935 E297.99474
G0 F9000 X92.172 Y120.242
G1 F840 X96.769 Y115.645 E298.21097
G0 F9000 X96.855 Y115.781
G0 X97.915 Y114.995
G0 X98.002 Y114.628
G0 X97.862 Y114.552
G1 F840 X102.158 Y110.256 E298.41304
G0 F9000 X102.416 Y110.563
G1 F840 X92.430 Y120.550 E298.88277
G0 F9000 X92.688 Y120.857
G1 F840 X102.675 Y110.870 E299.35253
G0 F9000 X102.933 Y111.178
G1 F840 X92.946 Y121.165 E299.82229
G0 F9000 X93.204 Y121.473
G1 F840 X103.191 Y111.485 E300.29207
G0 F9000 X103.449 Y111.793
G1 F840 X93.462 Y121.780 E300.76183
G0 F9000 X93.720 Y122.088
G1 F840 X103.707 Y112.101 E301.23159
G0 F9000 X103.965 Y112.408
G1 F840 X93.978 Y122.395 E301.70134
G0 F9000 X94.236 Y122.703
G1 F840 X104.224 Y112.716 E302.17112
G0 F9000 X104.482 Y113.023
G1 F840 X94.494 Y123.011 E302.64093
G0 F9000 X94.753 Y123.318
G1 F840 X104.740 Y113.331 E303.11069
G0 F9000 X104.998 Y113.639
G1 F840 X95.011 Y123.626 E303.58045
G0 F9000 X95.269 Y123.933
G1 F840 X105.256 Y113.946 E304.05020
G0 F9000 X105.514 Y114.254
G1 F840 X95.527 Y124.241 E304.51996
G0 F9000 X95.785 Y124.549
G1 F840 X105.772 Y114.561 E304.98974
G0 F9000 X106.030 Y114.869
G1 F840 X96.043 Y124.856 E305.45950
G0 F9000 X96.301 Y125.164
G1 F840 X106.288 Y115.177 E305.92926
G0 F9000 X106.546 Y115.484
G1 F840 X99.638 Y122.393 E306.25421
G0 F9000 X99.537 Y122.271
G0 X103.053 Y119.321
G0 X103.154 Y119.442
G1 F840 X106.804 Y115.792 E306.42590
G0 F9000 X107.063 Y116.099
G1 F840 X106.672 Y116.490 E306.44429
G0 F9000 X106.572 Y116.369
G0 X101.778 Y110.051
G0 X101.900 Y109.948
G1 F840 X98.169 Y113.680 E306.61981
G0 F9000 X98.190 Y113.092
G1 F840 X101.642 Y109.641 E306.78216
G0 F9000 X101.384 Y109.333
G1 F840 X98.111 Y112.606 E306.93611
G0 F9000 X97.977 Y112.174
G1 F840 X101.126 Y109.025 E307.08423
G0 F9000 X100.868 Y108.718
G1 F840 X97.774 Y111.811 E307.22974
G0 F9000 X97.532 Y111.488
G1 F840 X100.609 Y108.410 E307.37449
G0 F9000 X100.351 Y108.103
G1 F840 X97.256 Y111.198 E307.52007
G0 F9000 X96.918 Y110.971
