;Generated with Cura_SteamEngine 15.05
; Default start code
G28 ; Home extruder
G1 Z15 F100
M107 ; Turn off fan
G90 ; Absolute positioning
M82 ; Extruder in absolute mode
M190 S50
; Activate all used extruder
M104 T0 S190
G92 E0 ; Reset extruder position
; Wait for all used extruders to reach temperature
M109 T0 S190
;Layer count: 50
;LAYER:0
M107
G0 F9000 X1.132 Y17.254 Z0.300
;TYPE:SKIRT
G1 F900 X17.334 Y3.660 E1.05515
G1 X108.867 Y112.744 E8.15949
G1 X95.342 Y124.092 E9.04031
G1 X92.667 Y126.342 E9.21470
G1 X1.132 Y17.254 E16.31925
G1 F2400 E12.31925
G0 F9000 X5.922 Y17.674
;TYPE:WALL-OUTER
G1 F2400 E16.31925
G1 F900 X16.915 Y8.450 E17.03519
G1 X104.077 Y112.325 E23.80027
G1 X93.084 Y121.549 E24.51621
G1 X5.922 Y17.674 E31.28130
G0 F9000 X6.274 Y17.768
G0 X14.930 Y19.792
G0 X15.210 Y19.899
G1 F900 X15.194 Y19.937 E31.28335
G1 X15.121 Y20.551 E31.31420
G1 X15.116 Y20.583 E31.31582
G1 X15.197 Y21.200 E31.34686
G1 X15.203 Y21.237 E31.34873
G1 X15.433 Y21.804 E31.37926
G1 X15.448 Y21.839 E31.38116
G1 X15.826 Y22.353 E31.41299
G1 X16.328 Y22.766 E31.44542
G1 X16.885 Y23.027 E31.47611
G1 X16.925 Y23.048 E31.47836
G1 X17.532 Y23.158 E31.50914
G1 X17.566 Y23.167 E31.51090
G1 X18.187 Y23.123 E31.54196
G1 X18.224 Y23.120 E31.54381
G1 X18.830 Y22.919 E31.57566
G1 X19.390 Y22.562 E31.60879
G1 X19.824 Y22.093 E31.64067
G1 X20.137 Y21.522 E31.67316
G1 X20.292 Y20.914 E31.70446
G1 X20.301 Y20.877 E31.70636
G1 X20.298 Y20.257 E31.73730
G1 X20.295 Y20.219 E31.73920
G1 X20.134 Y19.607 E31.77077
G1 X19.819 Y19.037 E31.80326
G1 X19.372 Y18.562 E31.83580
G1 X18.810 Y18.207 E31.86896
G1 X18.200 Y18.014 E31.90088
G1 X17.575 Y17.976 E31.93212
G1 X17.538 Y17.973 E31.93398
G1 X16.909 Y18.098 E31.96597
G1 X16.321 Y18.376 E31.99842
G1 X15.820 Y18.792 E32.03091
G1 X15.451 Y19.301 E32.06227
G1 X15.429 Y19.332 E32.06417
G1 X15.210 Y19.899 E32.09449
G0 F9000 X14.930 Y19.792
G0 X14.818 Y21.345
G0 X16.115 Y23.106
G0 X90.192 Y107.423
G0 X90.383 Y107.653
G1 F900 X90.014 Y108.163 E32.12590
G1 X89.992 Y108.194 E32.12780
G1 X89.773 Y108.760 E32.15807
G1 X89.757 Y108.798 E32.16013
G1 X89.684 Y109.412 E32.19098
G1 X89.679 Y109.444 E32.19259
G1 X89.761 Y110.061 E32.22365
G1 X89.767 Y110.097 E32.22547
G1 X89.996 Y110.665 E32.25602
G1 X90.011 Y110.700 E32.25792
G1 X90.389 Y111.214 E32.28975
G1 X90.891 Y111.627 E32.32218
G1 X91.448 Y111.888 E32.35287
G1 X91.488 Y111.909 E32.35513
G1 X92.095 Y112.019 E32.38590
G1 X92.129 Y112.028 E32.38766
G1 X92.750 Y111.984 E32.41872
G1 X92.787 Y111.981 E32.42057
G1 X93.392 Y111.780 E32.45238
G1 X93.953 Y111.424 E32.48552
G1 X94.388 Y110.954 E32.51747
G1 X94.701 Y110.383 E32.54996
G1 X94.864 Y109.738 E32.58315
G1 X94.861 Y109.118 E32.61408
G1 X94.858 Y109.080 E32.61599
G1 X94.697 Y108.468 E32.64756
G1 X94.382 Y107.898 E32.68005
G1 X93.935 Y107.423 E32.71259
G1 X93.373 Y107.068 E32.74575
G1 X92.763 Y106.876 E32.77766
G1 X92.138 Y106.837 E32.80890
G1 X92.103 Y106.834 E32.81065
G1 X91.473 Y106.959 E32.84270
G1 X90.884 Y107.237 E32.87519
G1 X90.383 Y107.653 E32.90768
G0 F9000 X90.291 Y107.545
;TYPE:SKIN
G1 F900 X35.749 Y53.002 E36.75595
G0 F9000 X35.871 Y52.900
G0 X32.921 Y49.384
G0 X32.799 Y49.486
G1 F900 X90.600 Y107.288 E40.83415
G0 F9000 X90.934 Y107.056
G1 F900 X29.848 Y45.970 E45.14410
G0 F9000 X29.970 Y45.868
G0 X27.019 Y42.351
G0 X26.897 Y42.453
G1 F900 X91.319 Y106.875 E49.68942
G0 F9000 X91.766 Y106.757
G1 F900 X23.946 Y38.937 E54.47449
G0 F9000 X24.068 Y38.834
G0 X21.118 Y35.319
G0 X20.996 Y35.421
G1 F900 X92.279 Y106.704 E59.50389
G0 F9000 X92.917 Y106.776
G1 F900 X18.046 Y31.905 E64.78644
G0 F9000 X18.168 Y31.803
G0 X15.217 Y28.286
G0 X15.095 Y28.388
G1 F900 X94.009 Y107.303 E70.35429
G0 F9000 X94.114 Y107.408
G1 F900 X101.232 Y114.526 E70.85650
G0 F9000 X100.925 Y114.784
G1 F900 X94.924 Y108.784 E71.27987
G0 F9000 X95.001 Y109.426
G1 F900 X100.617 Y115.042 E71.67611
G0 F9000 X100.310 Y115.300
G1 F900 X94.955 Y109.945 E72.05393
G0 F9000 X94.841 Y110.397
G1 F900 X100.003 Y115.559 E72.41814
G0 F9000 X99.903 Y115.438
G0 X101.440 Y114.148
G0 X101.540 Y114.268
G1 F900 X12.144 Y24.872 E78.72551
G0 F9000 X12.266 Y24.769
G0 X15.123 Y21.835
G0 X15.271 Y21.776
G1 F900 X8.874 Y15.379 E79.17685
G0 F9000 X9.181 Y15.121
G1 F900 X15.025 Y20.965 E79.58918
G0 F9000 X15.000 Y20.374
G1 F900 X9.489 Y14.863 E79.97801
G0 F9000 X9.796 Y14.605
G1 F900 X15.067 Y19.876 E80.34991
G0 F9000 X15.226 Y19.468
G1 F900 X10.104 Y14.347 E80.71126
G0 F9000 X10.412 Y14.089
G1 F900 X15.423 Y19.100 E81.06481
G0 F9000 X15.661 Y18.772
G1 F900 X10.719 Y13.831 E81.41346
G0 F9000 X11.027 Y13.572
G1 F900 X15.952 Y18.497 E81.76094
G0 F9000 X16.265 Y18.245
G1 F900 X11.334 Y13.314 E82.10885
G0 F9000 X11.642 Y13.056
G1 F900 X16.650 Y18.064 E82.46219
G0 F9000 X17.073 Y17.921
G1 F900 X11.950 Y12.798 E82.82365
G0 F9000 X12.257 Y12.540
G1 F900 X17.550 Y17.833 E83.19710
G0 F9000 X18.153 Y17.870
G1 F900 X12.565 Y12.282 E83.59136
G0 F9000 X12.872 Y12.024
G1 F900 X19.027 Y18.179 E84.02563
G0 F9000 X19.112 Y18.044
G0 X22.920 Y16.070
G0 X23.041 Y15.970
G1 F900 X16.256 Y9.185 E84.50435
G0 F9000 X16.563 Y8.927
G1 F900 X20.091 Y12.454 E84.75323
G0 F9000 X19.969 Y12.554
G0 X16.050 Y9.566
G0 X15.948 Y9.443
G1 F900 X25.992 Y19.487 E85.46189
G0 F9000 X25.871 Y19.587
G0 X20.232 Y19.165
G0 X20.091 Y19.242
G1 F900 X55.501 Y54.652 E87.96026
G0 F9000 X55.379 Y54.754
G0 X52.428 Y51.238
G0 X52.550 Y51.136
G1 F900 X13.180 Y11.766 E90.73802
G0 F9000 X13.488 Y11.508
G1 F900 X49.599 Y47.619 E93.28585
G0 F9000 X49.477 Y47.721
G0 X46.526 Y44.204
G0 X46.648 Y44.102
G1 F900 X13.795 Y11.250 E95.60377
G0 F9000 X14.103 Y10.991
G1 F900 X43.697 Y40.586 E97.69182
G0 F9000 X43.576 Y40.687
G0 X58.330 Y58.271
G0 X58.452 Y58.169
G1 F900 X20.415 Y20.132 E100.37554
G0 F9000 X20.439 Y20.722
G1 F900 X61.403 Y61.685 E103.26574
G0 F9000 X61.281 Y61.788
G0 X64.231 Y65.304
G0 X64.353 Y65.202
G1 F900 X20.360 Y21.208 E106.36971
G0 F9000 X20.229 Y21.643
G1 F900 X67.304 Y68.718 E109.69111
G0 F9000 X67.181 Y68.820
G0 X70.133 Y72.338
G0 X70.255 Y72.235
G1 F900 X20.028 Y22.008 E113.23490
G0 F9000 X20.168 Y22.087
G0 X28.821 Y23.104
G0 X28.943 Y23.003
G1 F900 X15.641 Y9.701 E114.17342
G0 F9000 X15.333 Y9.959
G1 F900 X31.894 Y26.520 E115.34189
G0 F9000 X31.773 Y26.621
G0 X34.724 Y30.138
G0 X34.845 Y30.037
G1 F900 X15.026 Y10.217 E116.74026
G0 F9000 X14.718 Y10.475
G1 F900 X37.796 Y33.553 E118.36854
G0 F9000 X37.674 Y33.654
G0 X40.625 Y37.171
G0 X40.747 Y37.070
G1 F900 X14.410 Y10.733 E120.22676
G0 F9000 X14.513 Y10.856
G0 X16.947 Y8.814
G0 X16.871 Y8.669
G1 F900 X17.140 Y8.937 E120.24570
G0 F9000 X17.018 Y9.037
G0 X8.668 Y15.759
G0 X8.566 Y15.637
G1 F900 X96.813 Y103.884 E126.47201
G0 F9000 X96.690 Y103.987
G0 X93.740 Y100.471
G0 X93.862 Y100.368
G1 F900 X16.491 Y22.996 E131.93098
G0 F9000 X17.321 Y23.261
G1 F900 X90.912 Y96.851 E137.12319
G0 F9000 X90.789 Y96.955
G0 X87.837 Y93.437
G0 X87.960 Y93.334
G1 F900 X17.908 Y23.282 E142.06574
G0 F9000 X18.400 Y23.208
G1 F900 X85.009 Y89.818 E146.76540
G0 F9000 X84.887 Y89.921
G0 X81.936 Y86.404
G0 X82.059 Y86.301
G1 F900 X18.824 Y23.067 E151.22693
G0 F9000 X19.182 Y22.859
G1 F900 X79.108 Y82.785 E155.45504
G0 F9000 X78.986 Y82.888
G0 X68.327 Y91.581
G0 X68.206 Y91.682
G1 F900 X95.697 Y119.172 E157.39464
G0 F9000 X96.004 Y118.914
G1 F900 X65.255 Y88.165 E159.56415
G0 F9000 X65.376 Y88.064
G0 X62.426 Y84.547
G0 X62.304 Y84.649
G1 F900 X96.312 Y118.656 E161.96356
G0 F9000 X96.619 Y118.398
G1 F900 X59.354 Y81.133 E164.59281
G0 F9000 X59.475 Y81.031
G0 X56.524 Y77.514
G0 X56.403 Y77.616
G1 F900 X96.927 Y118.140 E167.45199
G0 F9000 X97.234 Y117.882
G1 F900 X91.347 Y111.995 E167.86735
G0 F9000 X92.075 Y112.157
G1 F900 X97.542 Y117.624 E168.25308
G0 F9000 X97.850 Y117.366
G1 F900 X92.616 Y112.132 E168.62237
G0 F9000 X93.080 Y112.030
G1 F900 X98.157 Y117.108 E168.98061
G0 F9000 X98.465 Y116.850
G1 F900 X93.494 Y111.879 E169.33134
G0 F9000 X93.840 Y111.659
G1 F900 X98.772 Y116.592 E169.67936
G0 F9000 X99.080 Y116.333
G1 F900 X94.155 Y111.408 E170.02684
G0 F9000 X94.428 Y111.116
G1 F900 X99.388 Y116.075 E170.37676
G0 F9000 X99.695 Y115.817
G1 F900 X94.647 Y110.769 E170.73293
G0 F9000 X94.787 Y110.847
G0 X93.564 Y112.142
G0 X91.354 Y112.288
G0 X89.661 Y110.897
G0 X89.581 Y110.436
G0 X89.729 Y110.376
G1 F900 X53.453 Y74.100 E173.29239
G0 F9000 X53.575 Y73.999
G0 X50.624 Y70.482
G0 X50.502 Y70.584
G1 F900 X89.564 Y109.646 E176.04843
G0 F9000 X89.580 Y109.096
G1 F900 X47.551 Y67.067 E179.01380
G0 F9000 X47.673 Y66.965
G0 X44.723 Y63.450
G0 X44.601 Y63.551
G1 F900 X89.675 Y108.625 E182.19402
G0 F9000 X89.832 Y108.217
G1 F900 X41.650 Y60.035 E185.59352
G0 F9000 X41.772 Y59.933
G0 X38.821 Y56.417
G0 X38.699 Y56.519
G1 F900 X90.052 Y107.871 E189.21671
G0 F9000 X89.923 Y107.778
G0 X86.030 Y112.678
G0 X85.909 Y112.779
G1 F900 X93.851 Y120.721 E189.77706
G0 F9000 X93.543 Y120.979
G1 F900 X88.859 Y116.295 E190.10755
G0 F9000 X88.981 Y116.195
G0 X91.932 Y119.711
G0 X91.810 Y119.812
G1 F900 X93.236 Y121.237 E190.20812
G0 F9000 X94.159 Y120.463
G1 F900 X82.959 Y109.263 E190.99834
G0 F9000 X83.080 Y109.162
G0 X80.129 Y105.646
G0 X80.008 Y105.747
G1 F900 X94.466 Y120.205 E192.01843
G0 F9000 X94.774 Y119.947
G1 F900 X77.057 Y102.230 E193.26846
G0 F9000 X77.178 Y102.129
G0 X74.228 Y98.613
G0 X74.106 Y98.714
G1 F900 X95.081 Y119.689 E194.74836
G0 F9000 X95.389 Y119.431
G1 F900 X71.156 Y95.198 E196.45813
G0 F9000 X71.278 Y95.097
G0 X76.035 Y79.371
G0 X76.157 Y79.268
G1 F900 X19.516 Y22.628 E200.45442
G0 F9000 X19.789 Y22.335
G1 F900 X73.206 Y75.752 E204.22328
G0 F9000 X73.084 Y75.855
G0 X99.641 Y107.504
G0 X99.764 Y107.401
G1 F900 X8.259 Y15.895 E210.67949
G0 F9000 X7.951 Y16.153
G1 F900 X102.715 Y110.917 E217.36560
G0 F9000 X102.592 Y111.021
G0 X103.594 Y112.341
G0 X103.693 Y112.461
G1 F900 X7.643 Y16.411 E224.14245
G0 F9000 X7.336 Y16.670
G1 F900 X103.386 Y112.719 E230.91926
G0 F9000 X103.078 Y112.977
G1 F900 X7.028 Y16.928 E237.69607
G0 F9000 X6.721 Y17.186
G1 F900 X102.770 Y113.236 E244.47288
G0 F9000 X102.463 Y113.494
G1 F900 X6.413 Y17.444 E251.24973
G0 F9000 X6.243 Y17.840
G1 F900 X102.155 Y113.752 E258.01684
G0 F9000 X101.848 Y114.010
G1 F900 X9.194 Y21.356 E264.55408
G0 F9000 X9.851 Y20.803
;LAYER:1
M106 S63
G0 X6.274 Y17.769 Z0.500
G0 X5.922 Y17.674
;TYPE:WALL-OUTER
G1 F840 X16.915 Y8.450 E265.03137
G1 X104.077 Y112.325 E269.54142
G1 X93.084 Y121.549 E270.01871
G1 X5.922 Y17.674 E274.52877
G0 F9000 X6.274 Y17.769
G0 X14.915 Y19.831
G0 X15.193 Y19.939
G1 F840 X15.122 Y20.538 E274.54884
G1 X15.116 Y20.587 E274.55048
G1 X15.195 Y21.187 E274.57061
G1 X15.203 Y21.237 E274.57229
G1 X15.429 Y21.794 E274.59228
G1 X15.449 Y21.840 E274.59395
G1 X15.805 Y22.323 E274.61391
G1 X15.835 Y22.364 E274.61560
G1 X16.298 Y22.741 E274.63546
G1 X16.338 Y22.774 E274.63718
G1 X16.886 Y23.028 E274.65727
G1 X16.928 Y23.049 E274.65883
G1 X17.524 Y23.157 E274.67898
G1 X17.570 Y23.166 E274.68054
G1 X18.175 Y23.124 E274.70071
G1 X18.224 Y23.120 E274.70234
G1 X18.796 Y22.930 E274.72239
G1 X18.843 Y22.914 E274.72404
G1 X19.350 Y22.588 E274.74409
G1 X19.392 Y22.560 E274.74577
G1 X19.799 Y22.120 E274.76570
G1 X19.832 Y22.084 E274.76733
G1 X20.143 Y21.510 E274.78904
G1 X20.301 Y20.877 E274.81074
G1 X20.298 Y20.272 E274.83086
G1 X20.296 Y20.222 E274.83253
G1 X20.143 Y19.641 E274.85251
G1 X20.129 Y19.592 E274.85421
G1 X19.836 Y19.068 E274.87417
G1 X19.812 Y19.025 E274.87581
G1 X19.362 Y18.553 E274.89750
G1 X18.810 Y18.207 E274.91917
G1 X18.234 Y18.025 E274.93926
G1 X18.190 Y18.010 E274.94081
G1 X17.586 Y17.977 E274.96093
G1 X17.538 Y17.973 E274.96253
G1 X16.944 Y18.091 E274.98267
G1 X16.895 Y18.101 E274.98433
G1 X16.352 Y18.361 E275.00436
G1 X16.308 Y18.384 E275.00601
G1 X15.829 Y18.784 E275.02677
G1 X15.458 Y19.291 E275.04766
G1 X15.429 Y19.332 E275.04933
G1 X15.193 Y19.939 E275.07099
G0 F9000 X14.915 Y19.831
G0 X14.818 Y21.345
G0 X16.122 Y23.113
G0 X90.152 Y107.467
G0 X90.392 Y107.645
G1 F840 X90.021 Y108.153 E275.09191
G1 X89.992 Y108.194 E275.09358
G1 X89.756 Y108.800 E275.11521
G1 X89.685 Y109.399 E275.13528
G1 X89.679 Y109.448 E275.13692
G1 X89.759 Y110.049 E275.15708
G1 X89.767 Y110.098 E275.15874
G1 X89.991 Y110.651 E275.17858
G1 X90.009 Y110.698 E275.18025
G1 X90.368 Y111.184 E275.20035
G1 X90.398 Y111.225 E275.20204
G1 X90.861 Y111.602 E275.22190
G1 X90.901 Y111.635 E275.22362
G1 X91.449 Y111.889 E275.24371
G1 X91.491 Y111.910 E275.24527
G1 X92.087 Y112.018 E275.26542
G1 X92.133 Y112.027 E275.26698
G1 X92.738 Y111.985 E275.28715
G1 X92.787 Y111.981 E275.28879
G1 X93.359 Y111.791 E275.30883
G1 X93.406 Y111.775 E275.31048
G1 X93.908 Y111.452 E275.33034
G1 X93.952 Y111.425 E275.33206
G1 X94.363 Y110.981 E275.35218
G1 X94.396 Y110.945 E275.35380
G1 X94.707 Y110.371 E275.37552
G1 X94.864 Y109.738 E275.39721
G1 X94.861 Y109.133 E275.41733
G1 X94.859 Y109.083 E275.41899
G1 X94.706 Y108.502 E275.43898
G1 X94.692 Y108.453 E275.44067
G1 X94.399 Y107.929 E275.46064
G1 X94.375 Y107.886 E275.46228
G1 X93.925 Y107.414 E275.48397
G1 X93.372 Y107.068 E275.50566
G1 X92.797 Y106.887 E275.52571
G1 X92.753 Y106.872 E275.52726
G1 X92.149 Y106.838 E275.54738
G1 X92.103 Y106.834 E275.54892
G1 X91.508 Y106.952 E275.56909
G1 X91.460 Y106.962 E275.57072
G1 X90.915 Y107.222 E275.59081
G1 X90.871 Y107.245 E275.59246
G1 X90.392 Y107.645 E275.61321
G0 F9000 X89.689 Y108.583
;TYPE:SKIN
G1 F840 X85.719 Y112.553 E275.79995
G0 F9000 X85.977 Y112.860
G1 F840 X89.556 Y109.281 E275.96830
G0 F9000 X89.586 Y109.817
G1 F840 X86.235 Y113.168 E276.12592
G0 F9000 X86.494 Y113.475
G1 F840 X89.689 Y110.280 E276.27620
G0 F9000 X89.852 Y110.682
G1 F840 X86.752 Y113.783 E276.42204
G0 F9000 X87.010 Y114.090
G1 F840 X90.076 Y111.024 E276.56625
G0 F9000 X90.323 Y111.343
G1 F840 X87.268 Y114.398 E276.70995
G0 F9000 X87.526 Y114.706
G1 F840 X90.634 Y111.597 E276.85617
G0 F9000 X90.974 Y111.823
G1 F840 X87.784 Y115.013 E277.00621
G0 F9000 X88.042 Y115.321
G1 F840 X91.361 Y112.002 E277.16233
G0 F9000 X91.819 Y112.110
G1 F840 X88.300 Y115.628 E277.32783
G0 F9000 X88.558 Y115.936
G1 F840 X92.344 Y112.150 E277.50591
G0 F9000 X93.006 Y112.054
G1 F840 X88.816 Y116.244 E277.70300
G0 F9000 X89.074 Y116.551
G1 F840 X99.062 Y106.564 E278.17278
G0 F9000 X99.320 Y106.872
G1 F840 X89.333 Y116.859 E278.64253
G0 F9000 X89.591 Y117.166
G1 F840 X99.578 Y107.179 E279.11229
G0 F9000 X99.836 Y107.487
G1 F840 X89.849 Y117.474 E279.58205
G0 F9000 X90.107 Y117.782
G1 F840 X100.094 Y107.794 E280.05183
G0 F9000 X100.352 Y108.102
G1 F840 X90.365 Y118.089 E280.52159
G0 F9000 X90.623 Y118.397
G1 F840 X100.610 Y108.410 E280.99135
G0 F9000 X100.868 Y108.717
G1 F840 X90.881 Y118.704 E281.46111
G0 F9000 X91.140 Y119.011
G1 F840 X101.126 Y109.025 E281.93082
G0 F9000 X101.384 Y109.332
G1 F840 X91.398 Y119.319 E282.40055
G0 F9000 X91.656 Y119.626
G1 F840 X101.643 Y109.640 E282.87028
G0 F9000 X101.901 Y109.948
G1 F840 X91.914 Y119.934 E283.34002
G0 F9000 X92.035 Y119.834
G0 X97.915 Y117.105
G0 X98.016 Y117.226
G1 F840 X103.449 Y111.793 E283.59557
G0 F9000 X103.707 Y112.101
G1 F840 X101.532 Y114.276 E283.69788
G0 F9000 X101.432 Y114.155
G0 X103.068 Y111.588
G0 X103.191 Y111.485
G1 F840 X94.499 Y120.178 E284.10674
G0 F9000 X94.397 Y120.056
G0 X93.067 Y121.064
G0 X92.947 Y121.164
G1 F840 X102.933 Y111.178 E284.57646
G0 F9000 X102.675 Y110.870
G1 F840 X92.688 Y120.857 E285.04621
G0 F9000 X92.430 Y120.549
G1 F840 X102.417 Y110.563 E285.51595
G0 F9000 X102.159 Y110.255
G1 F840 X92.172 Y120.242 E285.98571
G0 F9000 X92.293 Y120.142
G0 X85.582 Y112.144
G0 X85.461 Y112.245
G1 F840 X95.448 Y102.258 E286.45546
G0 F9000 X95.190 Y101.951
G1 F840 X85.203 Y111.937 E286.92520
G0 F9000 X84.945 Y111.630
G1 F840 X94.931 Y101.643 E287.39493
G0 F9000 X94.673 Y101.336
G1 F840 X84.687 Y111.322 E287.86464
G0 F9000 X84.429 Y111.015
G1 F840 X94.415 Y101.028 E288.33438
G0 F9000 X94.157 Y100.720
G1 F840 X84.171 Y110.707 E288.80411
G0 F9000 X83.913 Y110.399
G1 F840 X93.899 Y100.413 E289.27382
G0 F9000 X93.641 Y100.105
G1 F840 X83.654 Y110.092 E289.74358
G0 F9000 X83.396 Y109.784
G1 F840 X93.383 Y99.798 E290.21331
G0 F9000 X93.125 Y99.490
G1 F840 X83.138 Y109.477 E290.68307
G0 F9000 X82.880 Y109.169
