;Generated with Cura_SteamEngine 15.05
; Default start code
G28 ; Home extruder
G1 Z15 F100
M107 ; Turn off fan
G90 ; Absolute positioning
M82 ; Extruder in absolute mode
M190 S50
; Activate all used extruder
M104 T0 S190
G92 E0 ; Reset extruder position
; Wait for all used extruders to reach temperature
M109 T0 S190
;Layer count: 50
;LAYER:0
M107
G0 F9000 X1.132 Y17.254 Z0.300
;TYPE:SKIRT
G1 F900 X17.334 Y3.660 E1.05515
G1 X108.867 Y112.744 E8.15949
G1 X95.342 Y124.092 E9.04031
G1 X92.667 Y126.342 E9.21470
G1 X1.132 Y17.254 E16.31925
G1 F2400 E12.31925
G0 F9000 X6.486 Y17.723
;TYPE:WALL-INNER
G1 F2400 E16.31925
G1 F900 X16.866 Y9.014 E16.99524
G1 X103.513 Y112.276 E23.72039
G1 X93.133 Y120.985 E24.39638
G1 X6.486 Y17.723 E31.12152
G0 F9000 X14.743 Y19.721
G1 F900 X14.706 Y19.810 E31.12633
G1 X14.625 Y20.497 E31.16084
G1 X14.612 Y20.580 E31.16504
G1 X14.705 Y21.280 E31.20027
G1 X14.719 Y21.368 E31.20471
G1 X14.976 Y22.005 E31.23898
G1 X15.010 Y22.087 E31.24341
G1 X15.460 Y22.698 E31.28127
G1 X16.060 Y23.192 E31.32004
G1 X16.696 Y23.490 E31.35508
G1 X16.770 Y23.527 E31.35921
G1 X17.430 Y23.647 E31.39268
G1 X17.531 Y23.670 E31.39784
G1 X18.234 Y23.620 E31.43301
G1 X18.322 Y23.614 E31.43741
G1 X19.046 Y23.374 E31.47546
G1 X19.713 Y22.948 E31.51494
G1 X20.232 Y22.387 E31.55307
G1 X20.606 Y21.706 E31.59184
G1 X20.778 Y21.025 E31.62688
G1 X20.800 Y20.954 E31.63059
G1 X20.797 Y20.226 E31.66691
G1 X20.790 Y20.138 E31.67131
G1 X20.601 Y19.420 E31.70835
G1 X20.253 Y18.790 E31.74426
G1 X20.205 Y18.713 E31.74879
G1 X19.741 Y18.228 E31.78227
G1 X19.688 Y18.168 E31.78627
G1 X19.095 Y17.797 E31.82116
G1 X19.022 Y17.751 E31.82547
G1 X18.291 Y17.520 E31.86372
G1 X17.592 Y17.477 E31.89866
G1 X17.507 Y17.470 E31.90291
G1 X16.752 Y17.620 E31.94131
G1 X16.052 Y17.952 E31.97997
G1 X15.451 Y18.448 E32.01884
G1 X14.996 Y19.079 E32.05765
G1 X14.743 Y19.721 E32.09208
G0 F9000 X14.721 Y21.368
G0 X16.062 Y23.191
G0 X90.015 Y107.309
G1 F900 X89.560 Y107.940 E32.13089
G1 X89.306 Y108.582 E32.16534
G1 X89.269 Y108.672 E32.17019
G1 X89.188 Y109.359 E32.20470
G1 X89.175 Y109.442 E32.20890
G1 X89.268 Y110.141 E32.24408
G1 X89.282 Y110.229 E32.24852
G1 X89.539 Y110.866 E32.28279
G1 X89.573 Y110.948 E32.28722
G1 X90.024 Y111.559 E32.32511
G1 X90.623 Y112.053 E32.36384
G1 X91.259 Y112.351 E32.39888
G1 X91.333 Y112.388 E32.40301
G1 X91.996 Y112.508 E32.43663
G1 X92.095 Y112.531 E32.44170
G1 X92.798 Y112.481 E32.47686
G1 X92.886 Y112.475 E32.48126
G1 X93.609 Y112.235 E32.51926
G1 X94.276 Y111.809 E32.55875
G1 X94.795 Y111.248 E32.59688
G1 X95.169 Y110.568 E32.63560
G1 X95.342 Y109.887 E32.67065
G1 X95.365 Y109.814 E32.67447
G1 X95.360 Y109.087 E32.71074
G1 X95.353 Y108.999 E32.71514
G1 X95.164 Y108.282 E32.75214
G1 X94.816 Y107.652 E32.78804
G1 X94.768 Y107.576 E32.79253
G1 X94.304 Y107.089 E32.82609
G1 X94.251 Y107.029 E32.83008
G1 X93.659 Y106.659 E32.86491
G1 X93.586 Y106.613 E32.86922
G1 X92.855 Y106.381 E32.90748
G1 X92.156 Y106.338 E32.94242
G1 X92.071 Y106.331 E32.94667
G1 X91.316 Y106.481 E32.98508
G1 X90.614 Y106.813 E33.02382
G1 X90.015 Y107.309 E33.06262
G0 F9000 X90.310 Y107.584
;TYPE:WALL-OUTER
G1 F900 X89.913 Y108.133 E33.09642
G1 X89.675 Y108.736 E33.12876
G1 X89.660 Y108.774 E33.13080
G1 X89.585 Y109.405 E33.16250
G1 X89.579 Y109.446 E33.16457
G1 X89.664 Y110.084 E33.19668
G1 X89.670 Y110.122 E33.19860
G1 X89.909 Y110.714 E33.23045
G1 X89.924 Y110.749 E33.23235
G1 X90.317 Y111.282 E33.26539
G1 X90.838 Y111.712 E33.29909
G1 X91.424 Y111.986 E33.33136
G1 X91.461 Y112.005 E33.33344
G1 X92.090 Y112.120 E33.36534
G1 X92.126 Y112.128 E33.36718
G1 X92.769 Y112.082 E33.39934
G1 X92.807 Y112.080 E33.40124
G1 X93.436 Y111.871 E33.43431
G1 X94.017 Y111.500 E33.46870
G1 X94.468 Y111.013 E33.50181
G1 X94.794 Y110.420 E33.53558
G1 X94.951 Y109.798 E33.56758
G1 X94.964 Y109.755 E33.56982
G1 X94.960 Y109.104 E33.60230
G1 X94.957 Y109.066 E33.60420
G1 X94.790 Y108.432 E33.63691
G1 X94.472 Y107.856 E33.66974
G1 X94.451 Y107.823 E33.67169
G1 X94.015 Y107.365 E33.70324
G1 X93.991 Y107.338 E33.70504
G1 X93.415 Y106.978 E33.73893
G1 X92.781 Y106.777 E33.77211
G1 X92.132 Y106.737 E33.80455
G1 X92.095 Y106.734 E33.80640
G1 X91.442 Y106.864 E33.83962
G1 X90.831 Y107.153 E33.87334
G1 X90.310 Y107.584 E33.90707
G0 F9000 X90.120 Y107.353
G0 X89.271 Y108.672
G0 X89.574 Y110.946
G0 X93.178 Y121.197
G0 X93.084 Y121.549
G1 F900 X5.922 Y17.674 E40.67216
G1 X16.915 Y8.450 E41.38810
G1 X104.077 Y112.325 E48.15318
G1 X93.084 Y121.549 E48.86912
G0 F9000 X93.178 Y121.197
G0 X19.614 Y22.892
G0 X19.454 Y22.639
G1 F900 X19.905 Y22.152 E48.90223
G1 X20.231 Y21.559 E48.93599
G1 X20.387 Y20.937 E48.96799
G1 X20.400 Y20.895 E48.97018
G1 X20.397 Y20.243 E49.00271
G1 X20.394 Y20.205 E49.00461
G1 X20.227 Y19.570 E49.03737
G1 X19.909 Y18.994 E49.07019
G1 X19.888 Y18.961 E49.07214
G1 X19.452 Y18.504 E49.10366
G1 X19.428 Y18.477 E49.10546
G1 X18.883 Y18.136 E49.13753
G1 X18.851 Y18.116 E49.13941
G1 X18.218 Y17.916 E49.17253
G1 X17.568 Y17.876 E49.20502
G1 X17.531 Y17.873 E49.20688
G1 X16.879 Y18.003 E49.24004
G1 X16.268 Y18.292 E49.27376
G1 X15.746 Y18.723 E49.30754
G1 X15.350 Y19.272 E49.34131
G1 X15.112 Y19.875 E49.37365
G1 X15.097 Y19.913 E49.37569
G1 X15.022 Y20.543 E49.40734
G1 X15.016 Y20.584 E49.40941
G1 X15.101 Y21.223 E49.44157
G1 X15.107 Y21.261 E49.44349
G1 X15.346 Y21.853 E49.47534
G1 X15.361 Y21.888 E49.47724
G1 X15.753 Y22.421 E49.51025
G1 X16.275 Y22.851 E49.54399
G1 X16.861 Y23.125 E49.57626
G1 X16.898 Y23.144 E49.57834
G1 X17.526 Y23.259 E49.61019
G1 X17.562 Y23.267 E49.61203
G1 X18.205 Y23.221 E49.64419
G1 X18.243 Y23.219 E49.64609
G1 X18.873 Y23.010 E49.67921
G1 X19.454 Y22.639 E49.71360
G0 F9000 X19.870 Y22.981
;TYPE:SKIN
G1 F900 X72.909 Y76.021 E53.45582
G0 F9000 X69.959 Y72.505
G1 F900 X20.141 Y22.687 E56.97075
G0 F9000 X20.395 Y22.375
G1 F900 X67.008 Y68.988 E60.25955
G0 F9000 X64.058 Y65.472
G1 F900 X20.596 Y22.010 E63.32603
G0 F9000 X20.771 Y21.619
G1 F900 X61.107 Y61.955 E66.17195
G0 F9000 X75.860 Y79.537
G1 F900 X19.543 Y23.220 E70.14542
G0 F9000 X19.198 Y23.441
G1 F900 X78.811 Y83.053 E74.35140
G0 F9000 X68.500 Y91.410
G1 F900 X95.720 Y118.630 E76.27192
G0 F9000 X96.027 Y118.372
G1 F900 X65.549 Y87.894 E78.42231
G0 F9000 X62.599 Y84.378
G1 F900 X96.335 Y118.114 E80.80257
G0 F9000 X96.643 Y117.856
G1 F900 X91.313 Y112.526 E81.17863
G0 F9000 X92.005 Y112.653
G1 F900 X96.950 Y117.598 E81.52752
G0 F9000 X97.258 Y117.340
G1 F900 X92.556 Y112.638 E81.85927
G0 F9000 X93.051 Y112.567
G1 F900 X97.565 Y117.082 E82.17780
G0 F9000 X97.873 Y116.823
G1 F900 X93.475 Y112.425 E82.48810
G0 F9000 X93.857 Y112.241
G1 F900 X98.181 Y116.565 E82.79318
G0 F9000 X98.488 Y116.307
G1 F900 X94.202 Y112.021 E83.09558
G0 F9000 X94.508 Y111.761
G1 F900 X98.796 Y116.049 E83.39812
G0 F9000 X99.103 Y115.790
G1 F900 X94.779 Y111.467 E83.70317
G0 F9000 X95.013 Y111.135
G1 F900 X99.410 Y115.532 E84.01340
G0 F9000 X99.718 Y115.274
G1 F900 X95.215 Y110.771 E84.33111
G0 F9000 X95.366 Y110.356
G1 F900 X100.025 Y115.016 E84.65986
G0 F9000 X100.333 Y114.758
G1 F900 X95.482 Y109.907 E85.00213
G0 F9000 X95.501 Y109.360
G1 F900 X100.641 Y114.500 E85.36478
G0 F9000 X100.948 Y114.242
G1 F900 X95.423 Y108.716 E85.75464
G0 F9000 X95.040 Y107.768
G1 F900 X101.256 Y113.984 E86.19321
G0 F9000 X101.563 Y113.726
G1 F900 X12.442 Y24.605 E92.48118
G0 F9000 X14.753 Y21.824
G1 F900 X8.850 Y15.921 E92.89767
G0 F9000 X8.543 Y16.180
G1 F900 X96.515 Y104.151 E99.10453
G0 F9000 X93.940 Y106.668
G1 F900 X15.393 Y28.121 E104.64645
G0 F9000 X18.343 Y31.637
G1 F900 X92.978 Y106.272 E109.91235
G0 F9000 X92.349 Y106.208
G1 F900 X21.294 Y35.153 E114.92566
G0 F9000 X24.244 Y38.669
G1 F900 X91.813 Y106.238 E119.69302
G0 F9000 X91.341 Y106.332
G1 F900 X27.194 Y42.185 E124.21894
G0 F9000 X30.145 Y45.701
G1 F900 X90.944 Y106.500 E128.50863
G0 F9000 X90.559 Y106.681
G1 F900 X33.095 Y49.217 E132.56303
G0 F9000 X36.046 Y52.733
G1 F900 X90.246 Y106.934 E136.38717
G0 F9000 X89.936 Y107.190
G1 F900 X38.996 Y56.249 E139.98130
G0 F9000 X41.946 Y59.766
G1 F900 X89.695 Y107.514 E143.35021
G0 F9000 X89.457 Y107.842
G1 F900 X44.897 Y63.281 E146.49419
G0 F9000 X47.847 Y66.798
G1 F900 X89.289 Y108.240 E149.41815
G0 F9000 X89.132 Y108.648
G1 F900 X50.797 Y70.313 E152.12289
G0 F9000 X53.747 Y73.829
G1 F900 X89.071 Y109.153 E154.61519
G0 F9000 X89.070 Y109.718
G1 F900 X56.698 Y77.346 E156.89921
G0 F9000 X59.648 Y80.861
G1 F900 X89.210 Y110.423 E158.98497
G0 F9000 X86.201 Y112.506
G1 F900 X93.874 Y120.179 E159.52634
G0 F9000 X93.567 Y120.437
G1 F900 X89.152 Y116.022 E159.83784
G0 F9000 X92.102 Y119.538
G1 F900 X93.259 Y120.695 E159.91948
G0 F9000 X94.182 Y119.921
G1 F900 X83.251 Y108.990 E160.69072
G0 F9000 X80.301 Y105.474
G1 F900 X94.489 Y119.662 E161.69176
G0 F9000 X94.797 Y119.404
G1 F900 X77.351 Y101.958 E162.92267
G0 F9000 X74.401 Y98.442
G1 F900 X95.105 Y119.146 E164.38345
G0 F9000 X95.412 Y118.888
G1 F900 X71.450 Y94.926 E166.07409
G0 F9000 X81.762 Y86.570
G1 F900 X18.795 Y23.603 E170.51676
G0 F9000 X18.371 Y23.745
G1 F900 X84.712 Y90.086 E175.19747
G0 F9000 X87.663 Y93.603
G1 F900 X17.848 Y23.788 E180.12330
G0 F9000 X17.251 Y23.756
G1 F900 X90.613 Y97.118 E185.29938
G0 F9000 X93.564 Y100.635
G1 F900 X16.464 Y23.536 E190.73917
G0 F9000 X14.976 Y22.004
G0 X14.531 Y21.037
G1 F900 X9.158 Y15.663 E191.11830
G0 F9000 X9.466 Y15.405
G1 F900 X14.491 Y20.431 E191.47287
G0 F9000 X9.492 Y21.089
G1 F900 X101.871 Y113.468 E197.99071
G0 F9000 X102.179 Y113.209
G1 F900 X6.697 Y17.728 E204.72745
G0 F9000 X7.005 Y17.470
G1 F900 X102.486 Y112.951 E211.46415
G0 F9000 X102.794 Y112.693
G1 F900 X7.312 Y17.212 E218.20088
G0 F9000 X7.620 Y16.954
G1 F900 X103.101 Y112.435 E224.93758
G0 F9000 X102.416 Y111.184
G1 F900 X7.928 Y16.696 E231.60422
G0 F9000 X8.235 Y16.438
G1 F900 X99.465 Y107.668 E238.04099
G0 F9000 X58.156 Y58.439
G1 F900 X20.885 Y21.167 E240.67070
G0 F9000 X20.938 Y20.655
G1 F900 X55.205 Y54.923 E243.08845
G0 F9000 X52.255 Y51.407
G1 F900 X20.914 Y20.065 E245.29977
G0 F9000 X28.650 Y23.276
G1 F900 X15.617 Y10.243 E246.21931
G0 F9000 X15.310 Y10.501
G1 F900 X31.601 Y26.792 E247.36873
G0 F9000 X34.552 Y30.309
G1 F900 X15.002 Y10.760 E248.74806
G0 F9000 X14.695 Y11.018
G1 F900 X37.502 Y33.825 E250.35721
G0 F9000 X40.452 Y37.341
G1 F900 X14.387 Y11.276 E252.19624
G0 F9000 X14.079 Y11.534
G1 F900 X43.403 Y40.858 E254.26521
G0 F9000 X46.354 Y44.374
G1 F900 X13.772 Y11.792 E256.56404
G0 F9000 X13.464 Y12.050
G1 F900 X19.016 Y17.602 E256.95577
G0 F9000 X18.224 Y17.375
G1 F900 X13.157 Y12.308 E257.31327
G0 F9000 X12.849 Y12.566
G1 F900 X17.622 Y17.339 E257.65003
G0 F9000 X17.120 Y17.403
G1 F900 X12.541 Y12.824 E257.97310
G0 F9000 X12.234 Y13.082
G1 F900 X16.659 Y17.507 E258.28531
G0 F9000 X16.275 Y17.689
G1 F900 X11.926 Y13.340 E258.59216
G0 F9000 X11.619 Y13.599
G1 F900 X15.907 Y17.886 E258.89466
G0 F9000 X15.598 Y18.143
G1 F900 X11.311 Y13.857 E259.19710
G0 F9000 X11.003 Y14.115
G1 F900 X15.303 Y18.414 E259.50045
G0 F9000 X15.065 Y18.742
G1 F900 X10.696 Y14.373 E259.80871
G0 F9000 X10.388 Y14.631
G1 F900 X14.842 Y19.085 E260.12296
G0 F9000 X14.682 Y19.490
G1 F900 X10.081 Y14.889 E260.44759
G0 F9000 X9.773 Y15.147
G1 F900 X14.552 Y19.926 E260.78477
G0 F9000 X19.798 Y12.727
G1 F900 X16.540 Y9.469 E261.01464
G0 F9000 X16.233 Y9.727
G1 F900 X22.749 Y16.243 E261.47438
G0 F9000 X20.666 Y19.252
G1 F900 X49.305 Y47.890 E263.49498
G0 F9000 X25.699 Y19.760
G1 F900 X15.925 Y9.985 E264.18463
;LAYER:1
M106 S63
G0 F9000 X16.866 Y9.014 Z0.500
;TYPE:WALL-INNER
G1 F960 X103.513 Y112.276 E268.66805
G1 X93.133 Y120.985 E269.11872
G1 X6.486 Y17.723 E273.60215
G1 X16.866 Y9.014 E274.05281
G0 F9000 X17.605 Y17.478
G1 F960 X17.507 Y17.470 E274.05608
G1 X16.738 Y17.623 E274.08215
G1 X16.037 Y17.959 E274.10801
G1 X15.516 Y18.394 E274.13058
G1 X15.438 Y18.461 E274.13400
G1 X15.004 Y19.069 E274.15885
G1 X14.748 Y19.709 E274.18178
G1 X14.706 Y19.810 E274.18541
G1 X14.613 Y20.590 E274.21154
G1 X14.703 Y21.270 E274.23435
G1 X14.719 Y21.370 E274.23772
G1 X14.971 Y21.993 E274.26008
G1 X15.010 Y22.087 E274.26346
G1 X15.404 Y22.621 E274.28553
G1 X15.465 Y22.707 E274.28904
G1 X15.996 Y23.140 E274.31183
G1 X16.075 Y23.203 E274.31519
G1 X16.688 Y23.486 E274.33764
G1 X16.775 Y23.528 E274.34086
G1 X17.445 Y23.650 E274.36351
G1 X17.539 Y23.669 E274.36670
G1 X18.223 Y23.621 E274.38950
G1 X18.323 Y23.613 E274.39284
G1 X18.963 Y23.401 E274.41526
G1 X19.060 Y23.369 E274.41866
G1 X19.625 Y23.004 E274.44103
G1 X19.713 Y22.948 E274.44450
G1 X20.168 Y22.455 E274.46682
G1 X20.241 Y22.379 E274.47032
G1 X20.600 Y21.717 E274.49537
G1 X20.771 Y21.052 E274.51821
G1 X20.800 Y20.946 E274.52186
G1 X20.797 Y20.251 E274.54498
G1 X20.793 Y20.149 E274.54837
G1 X20.605 Y19.434 E274.57296
G1 X20.265 Y18.811 E274.59657
G1 X20.212 Y18.721 E274.60004
G1 X19.751 Y18.239 E274.62223
G1 X19.681 Y18.164 E274.62564
G1 X19.106 Y17.804 E274.64820
G1 X19.022 Y17.751 E274.65151
G1 X18.374 Y17.546 E274.67411
G1 X18.282 Y17.515 E274.67734
G1 X17.605 Y17.478 E274.69989
G0 F9000 X19.679 Y18.166
G0 X20.791 Y20.150
G0 X90.600 Y106.821
G1 F960 X90.080 Y107.255 E274.72242
G1 X90.002 Y107.322 E274.72584
G1 X89.567 Y107.930 E274.75070
G1 X89.311 Y108.570 E274.77363
G1 X89.269 Y108.671 E274.77727
G1 X89.176 Y109.452 E274.80343
G1 X89.266 Y110.131 E274.82621
G1 X89.282 Y110.231 E274.82958
G1 X89.534 Y110.854 E274.85193
G1 X89.573 Y110.948 E274.85531
G1 X89.973 Y111.490 E274.87772
G1 X90.029 Y111.568 E274.88091
G1 X90.559 Y112.001 E274.90367
G1 X90.638 Y112.064 E274.90704
G1 X91.251 Y112.347 E274.92949
G1 X91.338 Y112.389 E274.93270
G1 X92.009 Y112.511 E274.95539
G1 X92.103 Y112.530 E274.95858
G1 X92.787 Y112.482 E274.98138
G1 X92.887 Y112.474 E274.98472
G1 X93.622 Y112.230 E275.01048
G1 X94.188 Y111.865 E275.03288
G1 X94.276 Y111.809 E275.03635
G1 X94.731 Y111.316 E275.05866
G1 X94.804 Y111.240 E275.06217
G1 X95.162 Y110.578 E275.08720
G1 X95.335 Y109.913 E275.11005
G1 X95.365 Y109.806 E275.11375
G1 X95.360 Y109.111 E275.13686
G1 X95.356 Y109.010 E275.14023
G1 X95.168 Y108.296 E275.16478
G1 X94.828 Y107.673 E275.18839
G1 X94.775 Y107.583 E275.19186
G1 X94.314 Y107.098 E275.21412
G1 X94.244 Y107.025 E275.21748
G1 X93.670 Y106.666 E275.24000
G1 X93.586 Y106.613 E275.24330
G1 X92.937 Y106.407 E275.26595
G1 X92.845 Y106.376 E275.26918
G1 X92.174 Y106.339 E275.29153
G1 X92.072 Y106.331 E275.29493
G1 X91.301 Y106.484 E275.32108
G1 X90.600 Y106.821 E275.34695
G0 F9000 X90.338 Y107.561
;TYPE:WALL-OUTER
G1 F840 X90.299 Y107.595 E275.34867
G1 X89.920 Y108.123 E275.37029
G1 X89.680 Y108.724 E275.39181
G1 X89.660 Y108.774 E275.39360
G1 X89.579 Y109.449 E275.41621
G1 X89.662 Y110.073 E275.43715
G1 X89.670 Y110.123 E275.43883
G1 X89.904 Y110.702 E275.45961
G1 X89.924 Y110.749 E275.46130
G1 X90.293 Y111.249 E275.48197
G1 X90.324 Y111.292 E275.48374
G1 X90.810 Y111.690 E275.50463
G1 X90.850 Y111.721 E275.50631
G1 X91.418 Y111.984 E275.52713
G1 X91.463 Y112.005 E275.52878
G1 X92.081 Y112.118 E275.54968
G1 X92.129 Y112.127 E275.55130
G1 X92.757 Y112.083 E275.57224
G1 X92.807 Y112.079 E275.57391
G1 X93.448 Y111.867 E275.59636
G1 X93.973 Y111.528 E275.61715
G1 X94.017 Y111.500 E275.61888
G1 X94.441 Y111.042 E275.63964
G1 X94.477 Y111.003 E275.64141
G1 X94.787 Y110.431 E275.66305
G1 X94.950 Y109.805 E275.68456
G1 X94.964 Y109.753 E275.68635
G1 X94.960 Y109.120 E275.70741
G1 X94.958 Y109.069 E275.70911
G1 X94.793 Y108.445 E275.73057
G1 X94.480 Y107.870 E275.75235
G1 X94.454 Y107.826 E275.75405
G1 X93.988 Y107.337 E275.77651
G1 X93.458 Y107.005 E275.79732
G1 X93.415 Y106.978 E275.79900
G1 X92.816 Y106.788 E275.81990
G1 X92.770 Y106.773 E275.82151
G1 X92.143 Y106.738 E275.84240
G1 X92.095 Y106.734 E275.84400
G1 X91.428 Y106.867 E275.86662
G1 X90.818 Y107.160 E275.88913
G1 X90.338 Y107.561 E275.90993
G0 F9000 X90.138 Y107.338
G0 X89.271 Y108.672
G0 X89.574 Y110.946
G0 X93.178 Y121.197
G0 X93.084 Y121.549
G1 F840 X5.922 Y17.674 E280.41999
G1 X16.915 Y8.450 E280.89728
G1 X104.077 Y112.325 E285.40734
G1 X93.084 Y121.549 E285.88463
G0 F9000 X93.178 Y121.197
G0 X19.672 Y22.843
G0 X19.454 Y22.639
G1 F840 X19.878 Y22.181 E285.90539
