;Generated with Cura_SteamEngine 15.05
; Default start code
G28 ; Home extruder
G1 Z15 F100
M107 ; Turn off fan
G90 ; Absolute positioning
M82 ; Extruder in absolute mode
M190 S50
; Activate all used extruder
M104 T0 S190
G92 E0 ; Reset extruder position
; Wait for all used extruders to reach temperature
M109 T0 S190
;Layer count: 50
;LAYER:0
M107
G0 F9000 X-2.082 Y13.424 Z0.300
;TYPE:SKIRT
G1 F1800 X14.121 Y-0.170 E1.05519
G1 X112.081 Y116.575 E8.65842
G1 X98.556 Y127.922 E9.53921
G1 X95.881 Y130.172 E9.71360
G1 X-2.082 Y13.424 E17.31704
G1 F2400 E13.31704
G0 F9000 X2.708 Y13.844
;TYPE:WALL-OUTER
G1 F2400 E17.31704
G1 F1800 X13.701 Y4.620 E18.03298
G1 X107.291 Y116.155 E25.29695
G1 X96.298 Y125.379 E26.01289
G1 X2.708 Y13.844 E33.27686
G0 F9000 X3.060 Y13.938
G0 X8.421 Y12.844
G0 X8.718 Y12.890
G1 F1800 X8.713 Y12.922 E33.27848
G1 X8.794 Y13.533 E33.30923
G1 X8.800 Y13.570 E33.31110
G1 X9.027 Y14.131 E33.34129
G1 X9.042 Y14.166 E33.34319
G1 X9.416 Y14.674 E33.37466
G1 X9.913 Y15.085 E33.40684
G1 X10.477 Y15.349 E33.43791
G1 X10.512 Y15.364 E33.43981
G1 X11.104 Y15.473 E33.46984
G1 X11.139 Y15.482 E33.47164
G1 X11.754 Y15.438 E33.50240
G1 X11.791 Y15.435 E33.50426
G1 X12.390 Y15.236 E33.53575
G1 X12.946 Y14.883 E33.56860
G1 X13.376 Y14.418 E33.60020
G1 X13.686 Y13.852 E33.63240
G1 X13.848 Y13.215 E33.66519
G1 X13.845 Y12.597 E33.69602
G1 X13.842 Y12.560 E33.69787
G1 X13.683 Y11.956 E33.72903
G1 X13.371 Y11.391 E33.76123
G1 X12.928 Y10.921 E33.79346
G1 X12.371 Y10.570 E33.82630
G1 X11.768 Y10.378 E33.85787
G1 X11.148 Y10.340 E33.88886
G1 X11.113 Y10.337 E33.89062
G1 X10.489 Y10.461 E33.92236
G1 X9.906 Y10.736 E33.95452
G1 X9.410 Y11.149 E33.98672
G1 X9.045 Y11.653 E34.01776
G1 X9.023 Y11.684 E34.01966
G1 X8.806 Y12.245 E34.04967
G1 X8.790 Y12.283 E34.05173
G1 X8.718 Y12.890 E34.08222
G0 F9000 X8.421 Y12.844
G0 X8.692 Y14.363
G0 X10.390 Y15.747
G0 X96.638 Y115.101
G0 X96.829 Y115.331
G1 F1800 X96.464 Y115.835 E34.11327
G1 X96.442 Y115.866 E34.11516
G1 X96.225 Y116.427 E34.14517
G1 X96.210 Y116.465 E34.14721
G1 X96.137 Y117.071 E34.17766
G1 X96.132 Y117.104 E34.17933
G1 X96.213 Y117.715 E34.21008
G1 X96.219 Y117.752 E34.21195
G1 X96.446 Y118.313 E34.24214
G1 X96.461 Y118.348 E34.24404
G1 X96.835 Y118.857 E34.27555
G1 X97.333 Y119.267 E34.30773
G1 X97.896 Y119.531 E34.33876
G1 X97.931 Y119.546 E34.34066
G1 X98.523 Y119.655 E34.37069
G1 X98.558 Y119.664 E34.37249
G1 X99.173 Y119.620 E34.40325
G1 X99.210 Y119.617 E34.40510
G1 X99.809 Y119.418 E34.43660
G1 X100.365 Y119.065 E34.46945
G1 X100.795 Y118.600 E34.50105
G1 X101.105 Y118.034 E34.53325
G1 X101.267 Y117.397 E34.56604
G1 X101.264 Y116.779 E34.59687
G1 X101.261 Y116.742 E34.59872
G1 X101.102 Y116.138 E34.62988
G1 X100.790 Y115.573 E34.66208
G1 X100.347 Y115.103 E34.69431
G1 X99.790 Y114.752 E34.72715
G1 X99.187 Y114.561 E34.75871
G1 X98.567 Y114.522 E34.78970
G1 X98.532 Y114.519 E34.79145
G1 X97.908 Y114.643 E34.82319
G1 X97.326 Y114.918 E34.85531
G1 X96.829 Y115.331 E34.88755
G0 F9000 X96.793 Y115.177
;TYPE:SKIN
G1 F1800 X41.651 Y60.036 E38.77808
G0 F9000 X41.773 Y59.934
G0 X44.723 Y63.450
G0 X44.602 Y63.552
G1 F1800 X96.540 Y115.491 E42.44262
G0 F9000 X96.307 Y115.824
G1 F1800 X47.552 Y67.068 E45.88258
G0 F9000 X47.674 Y66.967
G0 X50.624 Y70.483
G0 X50.502 Y70.584
G1 F1800 X96.150 Y116.232 E49.10330
G0 F9000 X96.042 Y116.690
G1 F1800 X53.453 Y74.100 E52.10822
G0 F9000 X53.575 Y73.999
G0 X56.525 Y77.515
G0 X56.403 Y77.616
G1 F1800 X96.006 Y117.219 E54.90242
G0 F9000 X96.133 Y117.912
G1 F1800 X59.353 Y81.132 E57.49745
G0 F9000 X59.475 Y81.030
G0 X62.426 Y84.547
G0 X62.304 Y84.649
G1 F1800 X99.861 Y122.205 E60.14726
G0 F9000 X99.553 Y122.463
G1 F1800 X65.254 Y88.164 E62.56724
G0 F9000 X65.376 Y88.063
G0 X68.327 Y91.580
G0 X68.205 Y91.681
G1 F1800 X99.245 Y122.721 E64.75728
G0 F9000 X98.938 Y122.980
G1 F1800 X71.155 Y95.197 E66.71752
G0 F9000 X71.277 Y95.096
G0 X74.227 Y98.612
G0 X74.106 Y98.713
G1 F1800 X98.630 Y123.238 E68.44786
G0 F9000 X98.323 Y123.496
G1 F1800 X77.056 Y102.229 E69.94836
G0 F9000 X77.178 Y102.128
G0 X80.128 Y105.644
G0 X80.007 Y105.745
G1 F1800 X98.015 Y123.754 E71.21896
G0 F9000 X97.708 Y124.012
G1 F1800 X82.957 Y109.261 E72.25972
G0 F9000 X83.079 Y109.160
G0 X86.028 Y112.676
G0 X85.907 Y112.777
G1 F1800 X97.400 Y124.270 E73.07061
G0 F9000 X97.092 Y124.528
G1 F1800 X88.857 Y116.293 E73.65164
G0 F9000 X88.979 Y116.192
G0 X91.930 Y119.709
G0 X91.808 Y119.810
G1 F1800 X96.785 Y124.786 E74.00276
G0 F9000 X96.477 Y125.044
G1 F1800 X94.758 Y123.325 E74.12404
G0 F9000 X94.880 Y123.224
G0 X97.876 Y119.841
G0 X97.905 Y119.684
G1 F1800 X100.168 Y121.947 E74.28371
G0 F9000 X100.476 Y121.689
G1 F1800 X98.588 Y119.801 E74.41692
G0 F9000 X99.115 Y119.763
G1 F1800 X100.783 Y121.431 E74.53460
G0 F9000 X101.091 Y121.173
G1 F1800 X99.564 Y119.646 E74.64234
G0 F9000 X99.967 Y119.483
G1 F1800 X101.399 Y120.915 E74.74338
G0 F9000 X101.706 Y120.657
G1 F1800 X100.312 Y119.263 E74.84173
G0 F9000 X100.614 Y118.999
G1 F1800 X102.014 Y120.399 E74.94051
G0 F9000 X102.321 Y120.140
G1 F1800 X100.886 Y118.705 E75.04176
G0 F9000 X101.092 Y118.345
G1 F1800 X102.629 Y119.882 E75.15020
G0 F9000 X102.937 Y119.624
G1 F1800 X101.269 Y117.956 E75.26789
G0 F9000 X101.383 Y117.505
G1 F1800 X103.244 Y119.366 E75.39919
G0 F9000 X103.552 Y119.108
G1 F1800 X101.404 Y116.961 E75.55071
G0 F9000 X101.281 Y116.272
G1 F1800 X103.859 Y118.850 E75.73260
G0 F9000 X104.167 Y118.592
G1 F1800 X20.998 Y35.423 E81.60062
G0 F9000 X21.120 Y35.321
G0 X24.070 Y38.837
G0 X23.948 Y38.939
G1 F1800 X99.531 Y114.522 E86.93341
G0 F9000 X98.842 Y114.398
G1 F1800 X26.899 Y42.456 E92.00934
G0 F9000 X27.021 Y42.354
G0 X29.971 Y45.869
G0 X29.849 Y45.971
G1 F1800 X98.299 Y114.421 E96.83886
G0 F9000 X97.834 Y114.522
G1 F1800 X32.800 Y49.488 E101.42736
G0 F9000 X32.922 Y49.386
G0 X35.872 Y52.902
G0 X35.750 Y53.004
G1 F1800 X97.449 Y114.703 E105.78056
G0 F9000 X97.101 Y114.920
G1 F1800 X38.701 Y56.520 E109.90099
G0 F9000 X38.823 Y56.418
G0 X49.478 Y47.721
G0 X49.600 Y47.620
G1 F1800 X13.724 Y11.744 E112.43224
G0 F9000 X13.981 Y12.567
G1 F1800 X52.550 Y51.136 E115.15349
G0 F9000 X52.428 Y51.238
G0 X55.379 Y54.754
G0 X55.501 Y54.652
G1 F1800 X13.986 Y13.138 E118.08256
G0 F9000 X13.891 Y13.608
G1 F1800 X58.452 Y58.169 E121.22658
G0 F9000 X58.330 Y58.271
G0 X46.527 Y44.204
G0 X46.649 Y44.103
G1 F1800 X10.246 Y7.701 E123.79497
G0 F9000 X9.939 Y7.959
G1 F1800 X12.417 Y10.437 E123.96981
G0 F9000 X11.644 Y10.230
G1 F1800 X9.631 Y8.217 E124.11184
G0 F9000 X9.323 Y8.475
G1 F1800 X11.054 Y10.205 E124.23393
G0 F9000 X10.582 Y10.299
G1 F1800 X9.016 Y8.733 E124.34442
G0 F9000 X8.708 Y8.991
G1 F1800 X10.172 Y10.455 E124.44772
G0 F9000 X9.795 Y10.644
G1 F1800 X8.401 Y9.249 E124.54611
G0 F9000 X8.093 Y9.507
G1 F1800 X9.486 Y10.900 E124.64439
G0 F9000 X9.208 Y11.188
G1 F1800 X7.785 Y9.765 E124.74479
G0 F9000 X7.478 Y10.023
G1 F1800 X8.971 Y11.516 E124.85013
G0 F9000 X8.789 Y11.900
G1 F1800 X7.170 Y10.282 E124.96432
G0 F9000 X6.863 Y10.540
G1 F1800 X8.645 Y12.322 E125.09005
G0 F9000 X8.583 Y12.826
G1 F1800 X6.555 Y10.798 E125.23314
G0 F9000 X6.247 Y11.056
G1 F1800 X8.641 Y13.449 E125.40201
G0 F9000 X9.083 Y14.457
G1 F1800 X5.940 Y11.314 E125.62377
G0 F9000 X5.633 Y11.573
G1 F1800 X90.909 Y96.849 E131.64045
G0 F9000 X90.787 Y96.951
G0 X87.836 Y93.435
G0 X87.959 Y93.333
G1 F1800 X9.796 Y15.170 E137.15527
G0 F9000 X10.740 Y15.548
G1 F1800 X85.008 Y89.816 E142.39528
G0 F9000 X84.885 Y89.918
G0 X81.935 Y86.402
G0 X82.057 Y86.300
G1 F1800 X11.363 Y15.605 E147.38316
G0 F9000 X11.876 Y15.553
G1 F1800 X79.106 Y82.783 E152.12660
G0 F9000 X78.984 Y82.885
G0 X76.034 Y79.370
G0 X76.156 Y79.268
G1 F1800 X12.300 Y15.412 E156.63199
G0 F9000 X12.674 Y15.220
G1 F1800 X73.206 Y75.751 E160.90281
G0 F9000 X73.084 Y75.854
G0 X70.133 Y72.337
G0 X70.255 Y72.235
G1 F1800 X13.020 Y15.000 E164.94105
G0 F9000 X13.295 Y14.709
G1 F1800 X67.304 Y68.718 E168.75168
G0 F9000 X67.181 Y68.820
G0 X64.231 Y65.304
G0 X64.353 Y65.202
G1 F1800 X13.546 Y14.395 E172.33638
G0 F9000 X13.746 Y14.029
G1 F1800 X61.403 Y61.685 E175.69881
G0 F9000 X61.280 Y61.787
G0 X43.576 Y40.688
G0 X43.698 Y40.587
G1 F1800 X10.554 Y7.443 E178.03730
G0 F9000 X10.861 Y7.184
G1 F1800 X40.748 Y37.071 E180.14598
G0 F9000 X40.626 Y37.172
G0 X37.676 Y33.656
G0 X37.797 Y33.555
G1 F1800 X11.169 Y6.926 E182.02477
G0 F9000 X11.477 Y6.668
G1 F1800 X34.846 Y30.038 E183.67361
G0 F9000 X34.724 Y30.139
G0 X31.774 Y26.623
G0 X31.896 Y26.522
G1 F1800 X11.784 Y6.410 E185.09262
G0 F9000 X12.092 Y6.152
G1 F1800 X28.945 Y23.005 E186.28169
G0 F9000 X28.823 Y23.106
G0 X25.873 Y19.590
G0 X25.994 Y19.489
G1 F1800 X12.399 Y5.894 E187.24089
G0 F9000 X12.707 Y5.636
G1 F1800 X23.043 Y15.972 E187.97016
G0 F9000 X22.922 Y16.073
G0 X19.971 Y12.557
G0 X20.093 Y12.456
G1 F1800 X13.015 Y5.378 E188.46955
G0 F9000 X13.322 Y5.120
G1 F1800 X17.142 Y8.939 E188.73903
G0 F9000 X17.020 Y9.040
G0 X14.070 Y5.524
G0 X14.191 Y5.423
G1 F1800 X13.629 Y4.861 E188.77868
G0 F9000 X13.732 Y4.985
G0 X5.426 Y11.953
G0 X5.325 Y11.831
G1 F1800 X93.860 Y100.366 E195.02531
G0 F9000 X93.738 Y100.468
G0 X96.688 Y103.984
G0 X96.811 Y103.882
G1 F1800 X5.018 Y12.089 E201.50180
G0 F9000 X4.710 Y12.347
G1 F1800 X99.762 Y107.398 E208.20820
G0 F9000 X99.639 Y107.501
G0 X102.590 Y111.018
G0 X102.712 Y110.915
G1 F1800 X4.403 Y12.605 E215.14446
G0 F9000 X4.095 Y12.863
G1 F1800 X105.663 Y114.431 E222.31063
G0 F9000 X105.540 Y114.534
G0 X106.835 Y116.148
G0 X106.935 Y116.268
G1 F1800 X3.787 Y13.121 E229.58825
G0 F9000 X3.480 Y13.379
G1 F1800 X106.627 Y116.526 E236.86582
G0 F9000 X106.320 Y116.785
G1 F1800 X3.172 Y13.637 E244.14347
G0 F9000 X3.295 Y14.326
G1 F1800 X106.012 Y117.043 E251.39071
G0 F9000 X105.705 Y117.301
G1 F1800 X6.246 Y17.843 E258.40805
G0 F9000 X6.368 Y17.740
G0 X9.318 Y21.256
G0 X9.196 Y21.358
G1 F1800 X105.397 Y117.560 E265.19558
G0 F9000 X105.090 Y117.818
G1 F1800 X12.147 Y24.875 E271.75321
G0 F9000 X12.269 Y24.773
G0 X15.219 Y28.289
G0 X15.097 Y28.391
G1 F1800 X104.782 Y118.076 E278.08097
G0 F9000 X104.475 Y118.334
G1 F1800 X18.048 Y31.907 E284.17887
G0 F9000 X18.706 Y31.355
;LAYER:1
M106 S63
G0 X12.464 Y15.528 Z0.500
G0 X12.357 Y15.247
;TYPE:WALL-OUTER
G1 F2220 X12.404 Y15.231 E284.18052
G1 X12.901 Y14.911 E284.20018
G1 X12.945 Y14.884 E284.20189
G1 X13.351 Y14.445 E284.22178
G1 X13.385 Y14.409 E284.22343
G1 X13.666 Y13.887 E284.24315
G1 X13.691 Y13.842 E284.24486
G1 X13.848 Y13.214 E284.26639
G1 X13.845 Y12.613 E284.28638
G1 X13.843 Y12.564 E284.28801
G1 X13.691 Y11.987 E284.30786
G1 X13.677 Y11.940 E284.30949
G1 X13.388 Y11.422 E284.32922
G1 X13.364 Y11.379 E284.33085
G1 X12.953 Y10.948 E284.35066
G1 X12.919 Y10.912 E284.35231
G1 X12.371 Y10.570 E284.37379
G1 X11.803 Y10.389 E284.39362
G1 X11.758 Y10.374 E284.39520
G1 X11.159 Y10.341 E284.41515
G1 X11.113 Y10.337 E284.41669
G1 X10.524 Y10.454 E284.43666
G1 X10.476 Y10.464 E284.43829
G1 X9.937 Y10.721 E284.45815
G1 X9.892 Y10.744 E284.45983
G1 X9.419 Y11.141 E284.48037
G1 X9.052 Y11.643 E284.50105
G1 X9.023 Y11.684 E284.50272
G1 X8.789 Y12.285 E284.52418
G1 X8.719 Y12.878 E284.54404
G1 X8.713 Y12.926 E284.54564
G1 X8.792 Y13.521 E284.56561
G1 X8.800 Y13.570 E284.56726
G1 X9.022 Y14.117 E284.58689
G1 X9.040 Y14.164 E284.58857
G1 X9.394 Y14.645 E284.60843
G1 X9.425 Y14.685 E284.61012
G1 X9.883 Y15.060 E284.62980
G1 X9.923 Y15.093 E284.63153
G1 X10.511 Y15.364 E284.65306
G1 X11.092 Y15.471 E284.67271
G1 X11.143 Y15.481 E284.67444
G1 X11.742 Y15.439 E284.69441
G1 X11.791 Y15.435 E284.69605
G1 X12.357 Y15.247 E284.71588
G0 F9000 X12.464 Y15.528
G0 X10.898 Y15.794
G0 X9.627 Y15.367
G0 X3.060 Y13.939
G0 X2.708 Y13.844
G1 F2220 X13.701 Y4.620 E285.19317
G1 X107.291 Y116.155 E290.03582
G1 X96.298 Y125.379 E290.51311
G1 X2.708 Y13.844 E295.35576
G0 F9000 X3.060 Y13.939
G0 X96.598 Y115.145
G0 X96.838 Y115.323
G1 F2220 X96.471 Y115.825 E295.37645
G1 X96.442 Y115.866 E295.37812
G1 X96.209 Y116.467 E295.39956
G1 X96.132 Y117.108 E295.42103
G1 X96.211 Y117.703 E295.44099
G1 X96.219 Y117.752 E295.44264
G1 X96.441 Y118.299 E295.46228
G1 X96.459 Y118.346 E295.46395
G1 X96.813 Y118.827 E295.48382
G1 X96.844 Y118.868 E295.48553
G1 X97.303 Y119.242 E295.50522
G1 X97.343 Y119.275 E295.50694
G1 X97.886 Y119.526 E295.52684
G1 X97.931 Y119.546 E295.52848
G1 X98.511 Y119.653 E295.54809
G1 X98.562 Y119.663 E295.54982
G1 X99.161 Y119.621 E295.56979
G1 X99.210 Y119.617 E295.57143
G1 X99.776 Y119.429 E295.59127
G1 X99.823 Y119.413 E295.59292
G1 X100.320 Y119.093 E295.61258
G1 X100.364 Y119.066 E295.61429
G1 X100.770 Y118.627 E295.63418
G1 X100.804 Y118.591 E295.63583
G1 X101.085 Y118.069 E295.65555
G1 X101.110 Y118.024 E295.65726
G1 X101.267 Y117.396 E295.67879
G1 X101.264 Y116.795 E295.69878
G1 X101.262 Y116.746 E295.70041
G1 X101.110 Y116.169 E295.72026
G1 X101.096 Y116.122 E295.72189
G1 X100.807 Y115.604 E295.74162
G1 X100.783 Y115.561 E295.74325
G1 X100.372 Y115.130 E295.76306
G1 X100.338 Y115.094 E295.76471
G1 X99.789 Y114.752 E295.78622
G1 X99.221 Y114.572 E295.80604
G1 X99.177 Y114.557 E295.80759
G1 X98.578 Y114.523 E295.82754
G1 X98.532 Y114.519 E295.82908
G1 X97.943 Y114.636 E295.84905
G1 X97.895 Y114.646 E295.85068
G1 X97.357 Y114.903 E295.87051
G1 X97.313 Y114.926 E295.87216
G1 X96.838 Y115.323 E295.89275
G0 F9000 X96.128 Y116.286
;TYPE:SKIN
G1 F2220 X92.172 Y120.242 E296.07883
G0 F9000 X92.430 Y120.550
G1 F2220 X96.006 Y116.974 E296.24703
G0 F9000 X96.042 Y117.503
G1 F2220 X92.688 Y120.857 E296.40480
G0 F9000 X92.946 Y121.165
G1 F2220 X96.152 Y117.959 E296.55560
G0 F9000 X96.315 Y118.361
G1 F2220 X93.204 Y121.473 E296.70195
G0 F9000 X93.462 Y121.780
G1 F2220 X96.544 Y118.698 E296.84692
G0 F9000 X96.798 Y119.010
G1 F2220 X93.720 Y122.088 E296.99170
G0 F9000 X93.978 Y122.395
G1 F2220 X97.109 Y119.264 E297.13897
G0 F9000 X97.458 Y119.481
G1 F2220 X94.236 Y122.703 E297.29053
G0 F9000 X94.494 Y123.011
G1 F2220 X97.845 Y119.660 E297.44815
G0 F9000 X98.314 Y119.757
G1 F2220 X94.753 Y123.318 E297.61564
G0 F9000 X95.011 Y123.626
G1 F2220 X98.857 Y119.780 E297.79655
G0 F9000 X99.553 Y119.649
G1 F2220 X95.269 Y123.933 E297.99805
G0 F9000 X95.527 Y124.241
G1 F2220 X105.514 Y114.254 E298.46781
G0 F9000 X105.772 Y114.561
G1 F2220 X95.785 Y124.549 E298.93759
G0 F9000 X96.043 Y124.856
G1 F2220 X106.030 Y114.869 E299.40735
G0 F9000 X106.288 Y115.177
G1 F2220 X96.301 Y125.164 E299.87711
G0 F9000 X96.392 Y125.027
G0 X99.537 Y122.271
G0 X99.638 Y122.393
G1 F2220 X106.546 Y115.484 E300.20206
G0 F9000 X106.804 Y115.792
G1 F2220 X103.154 Y119.442 E300.37375
G0 F9000 X103.053 Y119.321
G0 X101.435 Y117.961
G0 X101.280 Y117.922
G1 F2220 X105.256 Y113.946 E300.56077
G0 F9000 X104.998 Y113.639
G1 F2220 X101.406 Y117.230 E300.72970
G0 F9000 X101.390 Y116.681
G1 F2220 X104.740 Y113.331 E300.88727
G0 F9000 X104.482 Y113.023
G1 F2220 X101.272 Y116.233 E301.03826
G0 F9000 X101.100 Y115.840
G1 F2220 X104.224 Y112.716 E301.18521
G0 F9000 X103.965 Y112.408
G1 F2220 X100.897 Y115.476 E301.32952
G0 F9000 X100.621 Y115.187
G1 F2220 X103.707 Y112.101 E301.47467
G0 F9000 X103.449 Y111.793
G1 F2220 X100.322 Y114.921 E301.62178
G0 F9000 X99.974 Y114.702
G1 F2220 X103.191 Y111.485 E301.77310
G0 F9000 X102.933 Y111.178
G1 F2220 X99.574 Y114.537 E301.93110
G0 F9000 X99.131 Y114.414
G1 F2220 X102.675 Y110.870 E302.09779
G0 F9000 X102.416 Y110.563
G1 F2220 X98.597 Y114.383 E302.27745
G0 F9000 X97.915 Y114.498
G1 F2220 X102.158 Y110.256 E302.47701
G0 F9000 X101.900 Y109.948
G1 F2220 X91.913 Y119.935 E302.94676
G0 F9000 X91.655 Y119.627
G1 F2220 X101.642 Y109.641 E303.41650
G0 F9000 X101.384 Y109.333
G1 F2220 X91.397 Y119.320 E303.88626
G0 F9000 X91.139 Y119.012
G1 F2220 X101.126 Y109.025 E304.35601
G0 F9000 X100.868 Y108.718
G1 F2220 X90.881 Y118.704 E304.82575
G0 F9000 X90.623 Y118.397
G1 F2220 X100.609 Y108.410 E305.29548
G0 F9000 X100.351 Y108.103
G1 F2220 X90.365 Y118.089 E305.76519
G0 F9000 X90.107 Y117.782
G1 F2220 X100.093 Y107.795 E306.23493
G0 F9000 X99.971 Y107.897
G0 X106.927 Y116.187
G0 X107.063 Y116.099
G1 F2220 X106.672 Y116.490 E306.25332
G0 F9000 X106.572 Y116.369
G0 X99.714 Y107.590
G0 X99.835 Y107.488
