;Generated with Cura_SteamEngine 15.05
; Default start code
G28 ; Home extruder
G1 Z15 F100
M107 ; Turn off fan
G90 ; Absolute positioning
M82 ; Extruder in absolute mode
M190 S50
; Activate all used extruder
M104 T0 S190
G92 E0 ; Reset extruder position
; Wait for all used extruders to reach temperature
M109 T0 S190
;Layer count: 10
;LAYER:0
M107
G0 F9000 X39.995 Y46.781 Z0.300
;TYPE:SKIRT
G1 F900 X41.023 Y45.982 E0.06496
G1 X42.092 Y45.241 E0.12985
G1 X43.199 Y44.560 E0.19469
G1 X44.343 Y43.941 E0.25959
G1 X45.520 Y43.386 E0.32451
G1 X46.723 Y42.897 E0.38929
G1 X47.954 Y42.474 E0.45423
G1 X49.206 Y42.120 E0.51914
G1 X50.475 Y41.835 E0.58403
G1 X51.758 Y41.622 E0.64892
G1 X53.051 Y41.479 E0.71382
G1 X54.348 Y41.407 E0.77863
G1 X55.651 Y41.407 E0.84363
G1 X56.948 Y41.479 E0.90844
G1 X58.241 Y41.622 E0.97334
G1 X59.524 Y41.835 E1.03823
G1 X60.793 Y42.120 E1.10311
G1 X62.045 Y42.474 E1.16803
G1 X63.276 Y42.897 E1.23297
G1 X64.479 Y43.386 E1.29775
G1 X65.656 Y43.940 E1.36265
G1 X66.801 Y44.560 E1.42761
G1 X67.908 Y45.241 E1.49246
G1 X68.976 Y45.982 E1.55731
G1 X70.004 Y46.781 E1.62226
G1 X70.985 Y47.636 E1.68719
G1 X71.916 Y48.542 E1.75200
G1 X72.798 Y49.498 E1.81689
G1 X73.624 Y50.504 E1.88183
G1 X74.394 Y51.551 E1.94667
G1 X75.106 Y52.641 E2.01162
G1 X75.756 Y53.767 E2.07649
G1 X76.344 Y54.927 E2.14137
G1 X76.866 Y56.118 E2.20625
G1 X77.322 Y57.336 E2.27113
G1 X77.711 Y58.578 E2.33606
G1 X78.029 Y59.839 E2.40095
G1 X78.279 Y61.115 E2.46582
G1 X78.458 Y62.403 E2.53069
G1 X78.565 Y63.699 E2.59557
G1 X78.601 Y65.000 E2.66050
G1 X78.565 Y66.300 E2.72538
G1 X78.458 Y67.596 E2.79026
G1 X78.279 Y68.884 E2.85514
G1 X78.029 Y70.160 E2.92001
G1 X77.711 Y71.421 E2.98489
G1 X77.322 Y72.663 E3.04982
G1 X76.866 Y73.881 E3.11471
G1 X76.344 Y75.072 E3.17958
G1 X75.756 Y76.232 E3.24447
G1 X75.106 Y77.358 E3.30933
G1 X74.394 Y78.448 E3.37428
G1 X73.624 Y79.495 E3.43912
G1 X72.798 Y80.501 E3.50406
G1 X71.916 Y81.457 E3.56896
G1 X70.985 Y82.363 E3.63377
G1 X70.004 Y83.218 E3.69869
G1 X68.976 Y84.017 E3.76365
G1 X67.908 Y84.758 E3.82850
G1 X66.801 Y85.439 E3.89334
G1 X65.656 Y86.059 E3.95830
G1 X64.479 Y86.613 E4.02320
G1 X63.276 Y87.102 E4.08799
G1 X62.045 Y87.525 E4.15293
G1 X60.793 Y87.879 E4.21784
G1 X59.524 Y88.164 E4.28273
G1 X58.241 Y88.377 E4.34761
G1 X56.948 Y88.520 E4.41251
G1 X55.651 Y88.592 E4.47732
G1 X54.348 Y88.592 E4.54233
G1 X53.051 Y88.520 E4.60714
G1 X51.758 Y88.377 E4.67204
G1 X50.475 Y88.164 E4.73692
G1 X49.206 Y87.879 E4.80181
G1 X47.954 Y87.525 E4.86672
G1 X46.723 Y87.102 E4.93166
G1 X45.520 Y86.613 E4.99645
G1 X44.343 Y86.058 E5.06137
G1 X43.199 Y85.439 E5.12626
G1 X42.092 Y84.758 E5.19110
G1 X41.023 Y84.017 E5.25600
G1 X39.995 Y83.218 E5.32095
G1 X39.014 Y82.363 E5.38588
G1 X38.083 Y81.457 E5.45069
G1 X37.201 Y80.501 E5.51558
G1 X36.375 Y79.495 E5.58052
G1 X35.605 Y78.448 E5.64536
G1 X34.893 Y77.358 E5.71031
G1 X34.243 Y76.232 E5.77518
G1 X33.655 Y75.072 E5.84006
G1 X33.133 Y73.881 E5.90494
G1 X32.677 Y72.663 E5.96982
G1 X32.288 Y71.421 E6.03475
G1 X31.970 Y70.160 E6.09964
G1 X31.720 Y68.884 E6.16451
G1 X31.541 Y67.596 E6.22938
G1 X31.434 Y66.299 E6.29431
G1 X31.399 Y65.000 E6.35914
G1 X31.434 Y63.700 E6.42402
G1 X31.541 Y62.403 E6.48895
G1 X31.720 Y61.115 E6.55382
G1 X31.970 Y59.839 E6.61869
G1 X32.288 Y58.578 E6.68358
G1 X32.677 Y57.336 E6.74851
G1 X33.133 Y56.118 E6.81339
G1 X33.655 Y54.927 E6.87827
G1 X34.243 Y53.767 E6.94315
G1 X34.893 Y52.641 E7.00802
G1 X35.605 Y51.551 E7.07297
G1 X36.375 Y50.504 E7.13781
G1 X37.201 Y49.498 E7.20275
G1 X38.083 Y48.542 E7.26764
G1 X39.014 Y47.636 E7.33245
G1 X39.995 Y46.781 E7.39738
G0 F9000 X40.250 Y47.090
G1 F900 X41.259 Y46.304 E7.46119
G1 X42.311 Y45.576 E7.52501
G1 X43.399 Y44.907 E7.58873
G1 X44.523 Y44.298 E7.65251
G1 X45.680 Y43.752 E7.71634
G1 X46.864 Y43.271 E7.78010
G1 X48.073 Y42.856 E7.84387
G1 X49.304 Y42.508 E7.90769
G1 X50.552 Y42.228 E7.97150
G1 X51.813 Y42.018 E8.03528
G1 X53.084 Y41.878 E8.09908
G1 X54.359 Y41.807 E8.16278
G1 X55.640 Y41.807 E8.22669
G1 X56.915 Y41.878 E8.29040
G1 X58.186 Y42.018 E8.35420
G1 X59.447 Y42.228 E8.41797
G1 X60.695 Y42.508 E8.48178
G1 X61.926 Y42.856 E8.54561
G1 X63.135 Y43.271 E8.60938
G1 X64.319 Y43.752 E8.67314
G1 X65.475 Y44.297 E8.73690
G1 X66.601 Y44.907 E8.80079
G1 X67.689 Y45.576 E8.86451
G1 X68.740 Y46.304 E8.92829
G1 X69.749 Y47.090 E8.99210
G1 X70.714 Y47.930 E9.05593
G1 X71.629 Y48.821 E9.11965
G1 X72.496 Y49.761 E9.18345
G1 X73.309 Y50.749 E9.24728
G1 X74.066 Y51.779 E9.31106
G1 X74.765 Y52.850 E9.37486
G1 X75.404 Y53.957 E9.43863
G1 X75.982 Y55.098 E9.50244
G1 X76.495 Y56.269 E9.56622
G1 X76.944 Y57.466 E9.63001
G1 X77.326 Y58.687 E9.69383
G1 X77.639 Y59.926 E9.75759
G1 X77.885 Y61.181 E9.82139
G1 X78.060 Y62.447 E9.88515
G1 X78.165 Y63.721 E9.94893
G1 X78.201 Y65.000 E10.01277
G1 X78.165 Y66.278 E10.07655
G1 X78.060 Y67.552 E10.14033
G1 X77.885 Y68.818 E10.20409
G1 X77.639 Y70.073 E10.26789
G1 X77.326 Y71.312 E10.33165
G1 X76.944 Y72.533 E10.39547
G1 X76.495 Y73.730 E10.45926
G1 X75.982 Y74.901 E10.52304
G1 X75.404 Y76.042 E10.58685
G1 X74.765 Y77.149 E10.65062
G1 X74.066 Y78.220 E10.71442
G1 X73.309 Y79.250 E10.77820
G1 X72.496 Y80.238 E10.84203
G1 X71.629 Y81.178 E10.90583
G1 X70.714 Y82.069 E10.96955
G1 X69.749 Y82.909 E11.03338
G1 X68.740 Y83.695 E11.09719
G1 X67.689 Y84.423 E11.16097
G1 X66.601 Y85.092 E11.22469
G1 X65.475 Y85.702 E11.28858
G1 X64.319 Y86.247 E11.35234
G1 X63.135 Y86.728 E11.41610
G1 X61.926 Y87.143 E11.47987
G1 X60.695 Y87.491 E11.54370
G1 X59.447 Y87.771 E11.60751
G1 X58.186 Y87.981 E11.67128
G1 X56.915 Y88.121 E11.73508
G1 X55.640 Y88.192 E11.79879
G1 X54.359 Y88.192 E11.86270
G1 X53.084 Y88.121 E11.92641
G1 X51.813 Y87.981 E11.99020
G1 X50.552 Y87.771 E12.05398
G1 X49.304 Y87.491 E12.11779
G1 X48.073 Y87.143 E12.18161
G1 X46.864 Y86.728 E12.24538
G1 X45.680 Y86.247 E12.30914
G1 X44.523 Y85.701 E12.37297
G1 X43.399 Y85.092 E12.43675
G1 X42.311 Y84.423 E12.50047
G1 X41.259 Y83.695 E12.56429
G1 X40.250 Y82.909 E12.62810
G1 X39.285 Y82.069 E12.69193
G1 X38.370 Y81.178 E12.75565
G1 X37.503 Y80.238 E12.81945
G1 X36.690 Y79.250 E12.88328
G1 X35.933 Y78.220 E12.94706
G1 X35.234 Y77.149 E13.01086
G1 X34.595 Y76.042 E13.07463
G1 X34.017 Y74.901 E13.13844
G1 X33.504 Y73.730 E13.20222
G1 X33.055 Y72.533 E13.26601
G1 X32.673 Y71.312 E13.32983
G1 X32.360 Y70.073 E13.39359
G1 X32.114 Y68.818 E13.45739
G1 X31.939 Y67.552 E13.52115
G1 X31.834 Y66.277 E13.58498
G1 X31.799 Y65.000 E13.64871
G1 X31.834 Y63.722 E13.71250
G1 X31.939 Y62.447 E13.77632
G1 X32.114 Y61.181 E13.84008
G1 X32.360 Y59.926 E13.90389
G1 X32.673 Y58.687 E13.96764
G1 X33.055 Y57.466 E14.03147
G1 X33.504 Y56.269 E14.09525
G1 X34.017 Y55.098 E14.15903
G1 X34.595 Y53.957 E14.22285
G1 X35.234 Y52.850 E14.28662
G1 X35.933 Y51.779 E14.35042
G1 X36.690 Y50.749 E14.41419
G1 X37.503 Y49.761 E14.47803
G1 X38.370 Y48.821 E14.54183
G1 X39.285 Y47.930 E14.60554
G1 X40.250 Y47.090 E14.66937
G1 F2400 E10.66937
G0 F9000 X42.660 Y50.030
;TYPE:WALL-INNER
G1 F2400 E14.66937
G1 F900 X43.511 Y49.367 E14.72319
G1 X44.393 Y48.756 E14.77672
G1 X45.286 Y48.207 E14.82902
G1 X46.243 Y47.689 E14.88331
G1 X47.210 Y47.233 E14.93665
G1 X48.207 Y46.827 E14.99036
G1 X49.208 Y46.483 E15.04316
G1 X50.239 Y46.192 E15.09661
G1 X51.267 Y45.961 E15.14918
G1 X52.345 Y45.782 E15.20369
G1 X53.393 Y45.666 E15.25630
G1 X54.463 Y45.607 E15.30976
G1 X55.536 Y45.607 E15.36329
G1 X56.606 Y45.666 E15.41676
G1 X57.654 Y45.782 E15.46936
G1 X58.732 Y45.961 E15.52388
G1 X59.760 Y46.192 E15.57645
G1 X60.791 Y46.483 E15.62989
G1 X61.792 Y46.827 E15.68270
G1 X62.789 Y47.233 E15.73641
G1 X63.756 Y47.689 E15.78975
G1 X64.714 Y48.207 E15.84408
G1 X65.606 Y48.756 E15.89633
G1 X66.488 Y49.367 E15.94987
G1 X67.339 Y50.030 E16.00369
G1 X68.126 Y50.715 E16.05574
G1 X68.908 Y51.476 E16.11018
G1 X69.635 Y52.265 E16.16370
G1 X70.311 Y53.086 E16.21676
G1 X70.940 Y53.941 E16.26972
G1 X71.518 Y54.826 E16.32245
G1 X72.069 Y55.781 E16.37746
G1 X72.537 Y56.705 E16.42913
G1 X72.979 Y57.714 E16.48409
G1 X73.343 Y58.686 E16.53587
G1 X73.667 Y59.721 E16.58998
G1 X73.930 Y60.760 E16.64345
G1 X74.138 Y61.823 E16.69749
G1 X74.280 Y62.849 E16.74917
G1 X74.369 Y63.928 E16.80318
G1 X74.400 Y65.000 E16.85668
G1 X74.369 Y66.071 E16.91014
G1 X74.281 Y67.142 E16.96375
G1 X74.138 Y68.176 E17.01583
G1 X73.930 Y69.239 E17.06987
G1 X73.668 Y70.276 E17.12323
G1 X73.346 Y71.304 E17.17697
G1 X72.979 Y72.285 E17.22923
G1 X72.538 Y73.291 E17.28403
G1 X72.069 Y74.218 E17.33586
G1 X71.520 Y75.169 E17.39064
G1 X70.940 Y76.058 E17.44360
G1 X70.311 Y76.913 E17.49656
G1 X69.635 Y77.734 E17.54961
G1 X68.908 Y78.523 E17.60314
G1 X68.128 Y79.282 E17.65744
G1 X67.339 Y79.969 E17.70963
G1 X66.488 Y80.632 E17.76345
G1 X65.606 Y81.243 E17.81698
G1 X64.714 Y81.792 E17.86924
G1 X63.756 Y82.310 E17.92357
G1 X62.789 Y82.766 E17.97691
G1 X61.792 Y83.172 E18.03062
G1 X60.791 Y83.516 E18.08342
G1 X59.760 Y83.807 E18.13687
G1 X58.732 Y84.038 E18.18944
G1 X57.654 Y84.217 E18.24395
G1 X56.606 Y84.333 E18.29656
G1 X55.536 Y84.392 E18.35002
G1 X54.463 Y84.392 E18.40355
G1 X53.393 Y84.333 E18.45702
G1 X52.345 Y84.217 E18.50962
G1 X51.267 Y84.038 E18.56414
G1 X50.239 Y83.807 E18.61671
G1 X49.208 Y83.516 E18.67015
G1 X48.207 Y83.172 E18.72296
G1 X47.210 Y82.766 E18.77667
G1 X46.243 Y82.310 E18.83000
G1 X45.286 Y81.792 E18.88430
G1 X44.393 Y81.243 E18.93659
G1 X43.511 Y80.632 E18.99012
G1 X42.660 Y79.969 E19.04394
G1 X41.871 Y79.282 E19.09614
G1 X41.091 Y78.523 E19.15044
G1 X40.364 Y77.734 E19.20396
G1 X39.688 Y76.913 E19.25702
G1 X39.059 Y76.058 E19.30997
G1 X38.479 Y75.169 E19.36293
G1 X37.930 Y74.218 E19.41772
G1 X37.461 Y73.291 E19.46955
G1 X37.020 Y72.285 E19.52435
G1 X36.653 Y71.304 E19.57660
G1 X36.331 Y70.276 E19.63035
G1 X36.069 Y69.239 E19.68371
G1 X35.861 Y68.176 E19.73775
G1 X35.718 Y67.142 E19.78982
G1 X35.630 Y66.070 E19.84349
G1 X35.600 Y65.000 E19.89689
G1 X35.630 Y63.929 E19.95034
G1 X35.719 Y62.849 E20.00441
G1 X35.861 Y61.823 E20.05608
G1 X36.069 Y60.760 E20.11012
G1 X36.332 Y59.721 E20.16359
G1 X36.656 Y58.686 E20.21770
G1 X37.020 Y57.714 E20.26948
G1 X37.462 Y56.705 E20.32444
G1 X37.930 Y55.781 E20.37611
G1 X38.481 Y54.826 E20.43112
G1 X39.059 Y53.941 E20.48386
G1 X39.688 Y53.086 E20.53681
G1 X40.364 Y52.265 E20.58987
G1 X41.091 Y51.476 E20.64339
G1 X41.873 Y50.715 E20.69783
G1 X42.660 Y50.030 E20.74989
G0 F9000 X42.576 Y50.495
G1 F900 X41.768 Y51.228 E20.80431
G1 X41.015 Y51.994 E20.85790
G1 X40.928 Y52.084 E20.86415
G1 X40.284 Y52.828 E20.91324
G1 X39.615 Y53.685 E20.96748
G1 X38.993 Y54.583 E21.02198
G1 X38.425 Y55.513 E21.07635
G1 X37.911 Y56.475 E21.13076
G1 X37.452 Y57.464 E21.18516
G1 X37.050 Y58.479 E21.23962
G1 X36.707 Y59.513 E21.29397
G1 X36.423 Y60.567 E21.34843
G1 X36.203 Y61.620 E21.40210
G1 X36.024 Y62.823 E21.46278
G1 X35.940 Y63.801 E21.51175
G1 X35.903 Y64.875 E21.56537
G1 X35.900 Y65.000 E21.57161
G1 X35.931 Y66.090 E21.62601
G1 X36.014 Y67.069 E21.67503
G1 X36.161 Y68.132 E21.72856
G1 X36.178 Y68.256 E21.73481
G1 X36.395 Y69.326 E21.78928
G1 X36.646 Y70.276 E21.83830
G1 X36.975 Y71.313 E21.89258
G1 X37.366 Y72.333 E21.94708
G1 X37.814 Y73.327 E22.00147
G1 X38.317 Y74.295 E22.05590
G1 X38.874 Y75.232 E22.11028
G1 X39.485 Y76.136 E22.16471
G1 X40.146 Y77.003 E22.21911
G1 X40.855 Y77.832 E22.27353
G1 X41.601 Y78.607 E22.32720
G1 X41.688 Y78.697 E22.33344
G1 X42.413 Y79.361 E22.38249
G1 X43.252 Y80.056 E22.43684
G1 X44.129 Y80.702 E22.49119
G1 X45.044 Y81.296 E22.54561
G1 X45.991 Y81.839 E22.60007
G1 X46.967 Y82.326 E22.65449
G1 X47.969 Y82.755 E22.70887
G1 X48.994 Y83.128 E22.76329
G1 X50.038 Y83.442 E22.81768
G1 X51.101 Y83.695 E22.87219
G1 X52.173 Y83.887 E22.92653
G1 X53.256 Y84.017 E22.98094
G1 X54.344 Y84.086 E23.03533
G1 X55.420 Y84.092 E23.08902
G1 X55.545 Y84.092 E23.09525
G1 X56.526 Y84.036 E23.14427
G1 X57.609 Y83.919 E23.19862
G1 X58.684 Y83.738 E23.25301
G1 X59.749 Y83.497 E23.30748
G1 X60.796 Y83.196 E23.36183
G1 X61.825 Y82.836 E23.41622
G1 X62.833 Y82.418 E23.47066
G1 X63.815 Y81.941 E23.52513
G1 X64.768 Y81.410 E23.57956
G1 X65.689 Y80.826 E23.63397
G1 X66.574 Y80.190 E23.68834
G1 X67.423 Y79.504 E23.74279
G1 X68.231 Y78.771 E23.79722
G1 X68.984 Y78.005 E23.85081
G1 X69.071 Y77.915 E23.85705
G1 X69.715 Y77.171 E23.90615
G1 X70.384 Y76.314 E23.96039
G1 X71.006 Y75.416 E24.01489
G1 X71.574 Y74.486 E24.06925
G1 X72.088 Y73.524 E24.12367
G1 X72.547 Y72.535 E24.17807
G1 X72.949 Y71.520 E24.23253
G1 X73.292 Y70.486 E24.28688
G1 X73.576 Y69.432 E24.34134
G1 X73.796 Y68.379 E24.39501
G1 X73.975 Y67.176 E24.45569
G1 X74.059 Y66.198 E24.50466
G1 X74.096 Y65.129 E24.55803
G1 X74.100 Y65.003 E24.56432
G1 X74.072 Y64.016 E24.61358
G1 X73.985 Y62.932 E24.66783
G1 X73.838 Y61.867 E24.72147
G1 X73.821 Y61.743 E24.72771
G1 X73.604 Y60.673 E24.78218
G1 X73.353 Y59.723 E24.83120
G1 X73.024 Y58.686 E24.88548
G1 X72.633 Y57.666 E24.93998
G1 X72.185 Y56.672 E24.99437
G1 X71.682 Y55.704 E25.04880
G1 X71.125 Y54.767 E25.10318
G1 X70.514 Y53.863 E25.15762
G1 X69.853 Y52.996 E25.21201
G1 X69.144 Y52.167 E25.26643
G1 X68.398 Y51.392 E25.32010
G1 X68.311 Y51.302 E25.32634
G1 X67.586 Y50.638 E25.37539
G1 X66.747 Y49.943 E25.42975
G1 X65.870 Y49.297 E25.48409
G1 X64.955 Y48.703 E25.53851
G1 X64.008 Y48.160 E25.59298
G1 X63.032 Y47.673 E25.64739
G1 X62.030 Y47.244 E25.70177
G1 X61.005 Y46.871 E25.75619
G1 X59.961 Y46.557 E25.81058
G1 X58.898 Y46.304 E25.86510
G1 X57.826 Y46.112 E25.91943
G1 X56.743 Y45.982 E25.97385
G1 X55.655 Y45.913 E26.02824
G1 X54.579 Y45.907 E26.08192
G1 X54.454 Y45.907 E26.08816
G1 X53.473 Y45.963 E26.13718
G1 X52.390 Y46.080 E26.19152
G1 X51.315 Y46.261 E26.24591
G1 X50.250 Y46.502 E26.30039
G1 X49.203 Y46.803 E26.35474
G1 X48.174 Y47.163 E26.40913
G1 X47.166 Y47.581 E26.46357
G1 X46.184 Y48.058 E26.51803
G1 X45.231 Y48.589 E26.57246
G1 X44.310 Y49.173 E26.62687
G1 X43.425 Y49.809 E26.68124
G1 X42.576 Y50.495 E26.73570
G0 F9000 X42.837 Y50.799
;TYPE:WALL-OUTER
G1 F900 X42.045 Y51.517 E26.78903
G1 X41.223 Y52.354 E26.84756
G1 X40.593 Y53.082 E26.89559
G1 X39.937 Y53.922 E26.94876
G1 X39.328 Y54.801 E27.00211
G1 X38.772 Y55.712 E27.05536
G1 X38.269 Y56.654 E27.10864
G1 X37.819 Y57.622 E27.16189
G1 X37.426 Y58.616 E27.21522
G1 X37.090 Y59.628 E27.26842
G1 X36.812 Y60.660 E27.32174
G1 X36.595 Y61.701 E27.37479
G1 X36.421 Y62.868 E27.43366
G1 X36.339 Y63.825 E27.48158
G1 X36.303 Y64.888 E27.53464
G1 X36.300 Y65.000 E27.54023
G1 X36.330 Y66.067 E27.59349
G1 X36.412 Y67.024 E27.64141
G1 X36.557 Y68.077 E27.69444
G1 X36.573 Y68.188 E27.70003
G1 X36.785 Y69.235 E27.75333
G1 X37.030 Y70.165 E27.80131
G1 X37.353 Y71.181 E27.85450
G1 X37.735 Y72.179 E27.90781
G1 X38.174 Y73.152 E27.96106
G1 X38.666 Y74.100 E28.01435
G1 X39.212 Y75.017 E28.06759
G1 X39.810 Y75.903 E28.12092
G1 X40.457 Y76.752 E28.17418
G1 X41.152 Y77.563 E28.22746
G1 X41.888 Y78.329 E28.28046
G1 X42.676 Y79.060 E28.33409
G1 X43.498 Y79.741 E28.38734
G1 X44.357 Y80.373 E28.44055
G1 X45.253 Y80.955 E28.49385
G1 X46.180 Y81.486 E28.54715
G1 X47.135 Y81.963 E28.60041
G1 X48.116 Y82.383 E28.65365
G1 X49.120 Y82.748 E28.70694
G1 X50.142 Y83.055 E28.76018
G1 X51.182 Y83.303 E28.81352
G1 X52.232 Y83.491 E28.86674
G1 X53.293 Y83.618 E28.92005
G1 X54.358 Y83.686 E28.97329
G1 X55.421 Y83.692 E29.02633
G1 X55.534 Y83.692 E29.03196
G1 X56.493 Y83.637 E29.07989
G1 X57.554 Y83.522 E29.13313
G1 X58.607 Y83.345 E29.18640
G1 X59.650 Y83.110 E29.23974
G1 X60.675 Y82.815 E29.29296
G1 X61.682 Y82.462 E29.34619
G1 X62.669 Y82.053 E29.39949
G1 X63.630 Y81.586 E29.45280
G1 X64.563 Y81.066 E29.50609
G1 X65.465 Y80.495 E29.55935
G1 X66.331 Y79.872 E29.61257
G1 X67.162 Y79.200 E29.66589
G1 X67.954 Y78.482 E29.71922
G1 X68.776 Y77.645 E29.77775
G1 X69.406 Y76.917 E29.82578
G1 X70.062 Y76.077 E29.87896
G1 X70.671 Y75.198 E29.93231
G1 X71.227 Y74.287 E29.98555
G1 X71.730 Y73.345 E30.03883
G1 X72.180 Y72.377 E30.09209
G1 X72.573 Y71.383 E30.14541
G1 X72.909 Y70.371 E30.19861
G1 X73.187 Y69.339 E30.25193
G1 X73.404 Y68.298 E30.30499
G1 X73.578 Y67.131 E30.36385
G1 X73.660 Y66.174 E30.41177
G1 X73.700 Y65.001 E30.47033
G1 X73.673 Y64.038 E30.51839
