;Generated with Cura_SteamEngine 15.05
; Default start code
G28 ; Home extruder
G1 Z15 F100
M107 ; Turn off fan
G90 ; Absolute positioning
M82 ; Extruder in absolute mode
M190 S50
; Activate all used extruder
M104 T0 S190
G92 E0 ; Reset extruder position
; Wait for all used extruders to reach temperature
M109 T0 S190
;Layer count: 5
;LAYER:0
M107
G0 F9000 X38.684 Y45.793 Z0.300
;TYPE:SKIRT
G1 F900 X39.748 Y44.937 E0.06813
G1 X40.857 Y44.140 E0.13626
G1 X42.007 Y43.406 E0.20433
G1 X43.196 Y42.734 E0.27247
G1 X44.418 Y42.128 E0.34052
G1 X45.671 Y41.588 E0.40859
G1 X46.953 Y41.117 E0.47673
G1 X48.258 Y40.716 E0.54484
G1 X49.582 Y40.388 E0.61289
G1 X50.921 Y40.130 E0.68092
G1 X52.276 Y39.945 E0.74915
G1 X53.636 Y39.835 E0.81722
G1 X55.000 Y39.799 E0.88530
G1 X56.363 Y39.835 E0.95332
G1 X57.723 Y39.945 E1.02139
G1 X59.078 Y40.130 E1.08962
G1 X60.417 Y40.388 E1.15765
G1 X61.741 Y40.716 E1.22570
G1 X63.046 Y41.117 E1.29381
G1 X64.328 Y41.588 E1.36195
G1 X65.581 Y42.128 E1.43002
G1 X66.803 Y42.734 E1.49807
G1 X67.992 Y43.406 E1.56621
G1 X69.142 Y44.140 E1.63428
G1 X70.251 Y44.937 E1.70241
G1 X71.315 Y45.793 E1.77054
G1 X72.331 Y46.704 E1.83862
G1 X73.295 Y47.668 E1.90664
G1 X74.206 Y48.684 E1.97472
G1 X75.062 Y49.748 E2.04285
G1 X75.859 Y50.857 E2.11098
G1 X76.593 Y52.007 E2.17905
G1 X77.265 Y53.196 E2.24718
G1 X77.871 Y54.418 E2.31523
G1 X78.411 Y55.671 E2.38331
G1 X78.882 Y56.953 E2.45144
G1 X79.283 Y58.258 E2.51956
G1 X79.611 Y59.582 E2.58761
G1 X79.869 Y60.921 E2.65564
G1 X80.054 Y62.276 E2.72387
G1 X80.163 Y63.635 E2.79189
G1 X80.201 Y65.000 E2.86001
G1 X80.163 Y66.364 E2.92809
G1 X80.054 Y67.723 E2.99611
G1 X79.869 Y69.078 E3.06434
G1 X79.611 Y70.417 E3.13237
G1 X79.283 Y71.741 E3.20042
G1 X78.882 Y73.046 E3.26853
G1 X78.411 Y74.328 E3.33667
G1 X77.871 Y75.581 E3.40474
G1 X77.265 Y76.803 E3.47279
G1 X76.593 Y77.992 E3.54093
G1 X75.859 Y79.142 E3.60899
G1 X75.062 Y80.251 E3.67713
G1 X74.206 Y81.315 E3.74526
G1 X73.295 Y82.331 E3.81334
G1 X72.331 Y83.295 E3.88135
G1 X71.315 Y84.206 E3.94943
G1 X70.251 Y85.062 E4.01756
G1 X69.142 Y85.859 E4.08570
G1 X67.992 Y86.593 E4.15376
G1 X66.803 Y87.265 E4.22190
G1 X65.581 Y87.871 E4.28995
G1 X64.328 Y88.411 E4.35802
G1 X63.046 Y88.882 E4.42616
G1 X61.741 Y89.283 E4.49427
G1 X60.417 Y89.611 E4.56232
G1 X59.078 Y89.869 E4.63035
G1 X57.723 Y90.054 E4.69858
G1 X56.364 Y90.163 E4.76660
G1 X55.000 Y90.201 E4.83468
G1 X53.635 Y90.163 E4.90280
G1 X52.276 Y90.054 E4.97082
G1 X50.921 Y89.869 E5.03905
G1 X49.582 Y89.611 E5.10708
G1 X48.258 Y89.283 E5.17513
G1 X46.953 Y88.882 E5.24325
G1 X45.671 Y88.411 E5.31138
G1 X44.418 Y87.871 E5.37946
G1 X43.196 Y87.265 E5.44751
G1 X42.007 Y86.593 E5.51564
G1 X40.857 Y85.859 E5.58371
G1 X39.748 Y85.062 E5.65184
G1 X38.684 Y84.206 E5.71997
G1 X37.668 Y83.295 E5.78805
G1 X36.704 Y82.331 E5.85607
G1 X35.793 Y81.315 E5.92415
G1 X34.937 Y80.251 E5.99228
G1 X34.140 Y79.142 E6.06041
G1 X33.406 Y77.992 E6.12848
G1 X32.734 Y76.803 E6.19662
G1 X32.128 Y75.581 E6.26467
G1 X31.588 Y74.328 E6.33274
G1 X31.117 Y73.046 E6.40088
G1 X30.716 Y71.741 E6.46899
G1 X30.388 Y70.417 E6.53704
G1 X30.130 Y69.078 E6.60507
G1 X29.945 Y67.723 E6.67330
G1 X29.835 Y66.363 E6.74137
G1 X29.799 Y65.000 E6.80939
G1 X29.835 Y63.636 E6.87747
G1 X29.945 Y62.276 E6.94554
G1 X30.130 Y60.921 E7.01377
G1 X30.388 Y59.582 E7.08180
G1 X30.716 Y58.258 E7.14985
G1 X31.117 Y56.953 E7.21796
G1 X31.588 Y55.671 E7.28610
G1 X32.128 Y54.418 E7.35417
G1 X32.734 Y53.196 E7.42222
G1 X33.406 Y52.007 E7.49036
G1 X34.140 Y50.857 E7.55843
G1 X34.937 Y49.748 E7.62656
G1 X35.793 Y48.684 E7.69469
G1 X36.704 Y47.668 E7.76277
G1 X37.668 Y46.704 E7.83079
G1 X38.684 Y45.793 E7.89887
G1 F2400 E3.89887
G0 F9000 X41.148 Y48.688
;TYPE:WALL-INNER
G1 F2400 E7.89887
G1 F900 X42.062 Y47.953 E7.95738
G1 X42.981 Y47.293 E8.01383
G1 X43.980 Y46.655 E8.07297
G1 X44.962 Y46.100 E8.12924
G1 X46.029 Y45.571 E8.18866
G1 X47.077 Y45.120 E8.24558
G1 X48.157 Y44.723 E8.30299
G1 X49.285 Y44.377 E8.36185
G1 X50.400 Y44.100 E8.41917
G1 X51.524 Y43.884 E8.47627
G1 X52.696 Y43.724 E8.53528
G1 X53.835 Y43.632 E8.59229
G1 X55.000 Y43.600 E8.65044
G1 X56.164 Y43.632 E8.70853
G1 X57.303 Y43.724 E8.76554
G1 X58.475 Y43.884 E8.82456
G1 X59.599 Y44.100 E8.88166
G1 X60.714 Y44.377 E8.93898
G1 X61.842 Y44.723 E8.99784
G1 X62.922 Y45.120 E9.05525
G1 X63.970 Y45.571 E9.11217
G1 X65.037 Y46.100 E9.17159
G1 X66.019 Y46.655 E9.22786
G1 X67.018 Y47.293 E9.28700
G1 X67.937 Y47.953 E9.34345
G1 X68.851 Y48.688 E9.40196
G1 X69.728 Y49.475 E9.46075
G1 X70.524 Y50.271 E9.51691
G1 X71.311 Y51.148 E9.57570
G1 X72.046 Y52.062 E9.63421
G1 X72.703 Y52.976 E9.69037
G1 X73.344 Y53.980 E9.74980
G1 X73.899 Y54.962 E9.80607
G1 X74.428 Y56.029 E9.86549
G1 X74.879 Y57.077 E9.92241
G1 X75.274 Y58.151 E9.97950
G1 X75.624 Y59.290 E10.03895
G1 X75.899 Y60.400 E10.09600
G1 X76.115 Y61.521 E10.15296
G1 X76.276 Y62.702 E10.21242
G1 X76.367 Y63.835 E10.26913
G1 X76.400 Y65.000 E10.32728
G1 X76.367 Y66.164 E10.38537
G1 X76.276 Y67.297 E10.44208
G1 X76.115 Y68.475 E10.50140
G1 X75.899 Y69.599 E10.55850
G1 X75.624 Y70.709 E10.61555
G1 X75.276 Y71.842 E10.67468
G1 X74.879 Y72.922 E10.73209
G1 X74.428 Y73.970 E10.78901
G1 X73.899 Y75.037 E10.84843
G1 X73.344 Y76.019 E10.90470
G1 X72.706 Y77.018 E10.96384
G1 X72.046 Y77.937 E11.02029
G1 X71.311 Y78.851 E11.07880
G1 X70.524 Y79.728 E11.13759
G1 X69.728 Y80.524 E11.19375
G1 X68.851 Y81.311 E11.25254
G1 X67.941 Y82.043 E11.31080
G1 X67.018 Y82.706 E11.36750
G1 X66.021 Y83.343 E11.42653
G1 X65.037 Y83.899 E11.48291
G1 X63.971 Y84.427 E11.54226
G1 X62.922 Y84.879 E11.59925
G1 X61.842 Y85.276 E11.65666
G1 X60.714 Y85.622 E11.71552
G1 X59.599 Y85.899 E11.77284
G1 X58.475 Y86.115 E11.82994
G1 X57.303 Y86.275 E11.88896
G1 X56.164 Y86.367 E11.94597
G1 X55.000 Y86.400 E12.00406
G1 X53.835 Y86.367 E12.06221
G1 X52.696 Y86.275 E12.11922
G1 X51.524 Y86.115 E12.17823
G1 X50.400 Y85.899 E12.23533
G1 X49.285 Y85.622 E12.29265
G1 X48.157 Y85.276 E12.35152
G1 X47.077 Y84.879 E12.40892
G1 X46.028 Y84.427 E12.46591
G1 X44.962 Y83.899 E12.52526
G1 X43.978 Y83.343 E12.58164
G1 X42.981 Y82.706 E12.64067
G1 X42.058 Y82.043 E12.69737
G1 X41.148 Y81.311 E12.75563
G1 X40.271 Y80.524 E12.81442
G1 X39.475 Y79.728 E12.87058
G1 X38.688 Y78.851 E12.92937
G1 X37.953 Y77.937 E12.98789
G1 X37.293 Y77.018 E13.04433
G1 X36.655 Y76.019 E13.10347
G1 X36.100 Y75.037 E13.15975
G1 X35.571 Y73.970 E13.21916
G1 X35.120 Y72.922 E13.27608
G1 X34.723 Y71.842 E13.33349
G1 X34.375 Y70.709 E13.39262
G1 X34.100 Y69.599 E13.44967
G1 X33.884 Y68.475 E13.50678
G1 X33.723 Y67.297 E13.56609
G1 X33.632 Y66.164 E13.62280
G1 X33.600 Y65.000 E13.68090
G1 X33.632 Y63.835 E13.73904
G1 X33.723 Y62.702 E13.79575
G1 X33.884 Y61.521 E13.85521
G1 X34.100 Y60.400 E13.91217
G1 X34.375 Y59.290 E13.96922
G1 X34.725 Y58.151 E14.02867
G1 X35.120 Y57.077 E14.08576
G1 X35.571 Y56.029 E14.14268
G1 X36.100 Y54.962 E14.20210
G1 X36.655 Y53.980 E14.25837
G1 X37.296 Y52.976 E14.31780
G1 X37.953 Y52.062 E14.37396
G1 X38.688 Y51.148 E14.43247
G1 X39.475 Y50.271 E14.49126
G1 X40.271 Y49.475 E14.54742
G1 X41.148 Y48.688 E14.60621
G0 F9000 X41.835 Y49.161
G1 F900 X41.000 Y49.895 E14.66167
G1 X40.203 Y50.674 E14.71728
G1 X39.448 Y51.496 E14.77296
G1 X38.740 Y52.359 E14.82865
G1 X38.088 Y53.247 E14.88361
G1 X37.348 Y54.378 E14.95104
G1 X36.907 Y55.158 E14.99575
G1 X36.403 Y56.149 E15.05121
G1 X35.951 Y57.170 E15.10692
G1 X35.554 Y58.211 E15.16250
G1 X35.216 Y59.274 E15.21815
G1 X34.935 Y60.353 E15.27378
G1 X34.713 Y61.448 E15.32952
G1 X34.553 Y62.537 E15.38444
G1 X34.448 Y63.665 E15.44095
G1 X34.406 Y64.763 E15.49577
G1 X34.400 Y65.000 E15.50760
G1 X34.430 Y66.114 E15.56320
G1 X34.502 Y67.007 E15.60790
G1 X34.638 Y68.099 E15.66280
G1 X34.839 Y69.212 E15.71922
G1 X35.096 Y70.293 E15.77466
G1 X35.411 Y71.363 E15.83031
G1 X35.785 Y72.414 E15.88596
G1 X36.214 Y73.444 E15.94163
G1 X36.699 Y74.448 E15.99725
G1 X37.237 Y75.426 E16.05294
G1 X37.822 Y76.361 E16.10797
G1 X37.949 Y76.560 E16.11975
G1 X38.464 Y77.277 E16.16379
G1 X39.161 Y78.164 E16.22007
G1 X39.895 Y78.999 E16.27553
G1 X40.674 Y79.796 E16.33114
G1 X41.496 Y80.551 E16.38682
G1 X42.359 Y81.259 E16.44251
G1 X43.247 Y81.911 E16.49747
G1 X44.378 Y82.651 E16.56490
G1 X45.158 Y83.092 E16.60960
G1 X46.149 Y83.596 E16.66507
G1 X47.170 Y84.048 E16.72078
G1 X48.211 Y84.445 E16.77636
G1 X49.274 Y84.784 E16.83203
G1 X50.354 Y85.064 E16.88769
G1 X51.448 Y85.286 E16.94338
G1 X52.537 Y85.446 E16.99830
G1 X53.665 Y85.551 E17.05482
G1 X54.763 Y85.594 E17.10964
G1 X55.000 Y85.600 E17.12147
G1 X56.115 Y85.569 E17.17711
G1 X57.007 Y85.497 E17.22176
G1 X58.099 Y85.361 E17.27666
G1 X59.212 Y85.160 E17.33309
G1 X60.293 Y84.904 E17.38851
G1 X61.364 Y84.588 E17.44422
G1 X62.414 Y84.214 E17.49983
G1 X63.444 Y83.785 E17.55550
G1 X64.448 Y83.300 E17.61112
G1 X65.426 Y82.762 E17.66681
G1 X66.361 Y82.177 E17.72184
G1 X66.560 Y82.050 E17.73361
G1 X67.277 Y81.535 E17.77766
G1 X68.164 Y80.838 E17.83394
G1 X68.999 Y80.104 E17.88940
G1 X69.796 Y79.325 E17.94500
G1 X70.551 Y78.503 E18.00069
G1 X71.259 Y77.640 E18.05638
G1 X71.911 Y76.752 E18.11134
G1 X72.651 Y75.621 E18.17877
G1 X73.092 Y74.841 E18.22347
G1 X73.596 Y73.850 E18.27894
G1 X74.048 Y72.829 E18.33465
G1 X74.445 Y71.788 E18.39023
G1 X74.784 Y70.725 E18.44590
G1 X75.064 Y69.645 E18.50156
G1 X75.286 Y68.551 E18.55725
G1 X75.446 Y67.462 E18.61217
G1 X75.551 Y66.334 E18.66868
G1 X75.594 Y65.237 E18.72346
G1 X75.600 Y65.000 E18.73528
G1 X75.569 Y63.884 E18.79098
G1 X75.497 Y62.992 E18.83563
G1 X75.361 Y61.900 E18.89053
G1 X75.160 Y60.787 E18.94696
G1 X74.904 Y59.706 E19.00238
G1 X74.588 Y58.635 E19.05809
G1 X74.214 Y57.585 E19.11370
G1 X73.785 Y56.555 E19.16936
G1 X73.300 Y55.551 E19.22499
G1 X72.762 Y54.573 E19.28068
G1 X72.177 Y53.638 E19.33570
G1 X72.050 Y53.439 E19.34748
G1 X71.535 Y52.722 E19.39153
G1 X70.838 Y51.835 E19.44781
G1 X70.104 Y51.000 E19.50327
G1 X69.325 Y50.203 E19.55887
G1 X68.503 Y49.448 E19.61456
G1 X67.640 Y48.740 E19.67025
G1 X66.752 Y48.088 E19.72521
G1 X65.621 Y47.348 E19.79264
G1 X64.841 Y46.907 E19.83734
G1 X63.850 Y46.403 E19.89281
G1 X62.829 Y45.951 E19.94852
G1 X61.788 Y45.554 E20.00410
G1 X60.725 Y45.216 E20.05975
G1 X59.646 Y44.935 E20.11538
G1 X58.551 Y44.713 E20.17112
G1 X57.462 Y44.553 E20.22603
G1 X56.334 Y44.448 E20.28255
G1 X55.237 Y44.406 E20.33732
G1 X55.000 Y44.400 E20.34915
G1 X53.885 Y44.430 E20.40480
G1 X52.992 Y44.502 E20.44949
G1 X51.900 Y44.638 E20.50439
G1 X50.787 Y44.839 E20.56082
G1 X49.706 Y45.096 E20.61625
G1 X48.636 Y45.411 E20.67190
G1 X47.585 Y45.785 E20.72756
G1 X46.555 Y46.214 E20.78322
G1 X45.551 Y46.699 E20.83885
G1 X44.573 Y47.237 E20.89454
G1 X43.638 Y47.822 E20.94956
G1 X43.439 Y47.949 E20.96134
G1 X42.722 Y48.464 E21.00538
G1 X41.835 Y49.161 E21.06167
G0 F9000 X42.092 Y49.467
;TYPE:WALL-OUTER
G1 F900 X41.272 Y50.188 E21.11614
G1 X40.490 Y50.953 E21.17072
G1 X39.750 Y51.759 E21.22531
G1 X39.056 Y52.604 E21.27986
G1 X38.411 Y53.482 E21.33421
G1 X37.691 Y54.585 E21.39993
G1 X37.260 Y55.347 E21.44360
G1 X36.764 Y56.321 E21.49814
G1 X36.321 Y57.322 E21.55275
G1 X35.932 Y58.343 E21.60726
G1 X35.601 Y59.385 E21.66180
G1 X35.325 Y60.444 E21.71640
G1 X35.107 Y61.517 E21.77103
G1 X34.949 Y62.594 E21.82533
G1 X34.847 Y63.689 E21.88020
G1 X34.806 Y64.776 E21.93447
G1 X34.800 Y65.000 E21.94565
G1 X34.829 Y66.093 E22.00020
G1 X34.900 Y66.966 E22.04390
G1 X35.035 Y68.046 E22.09820
G1 X35.230 Y69.128 E22.15305
G1 X35.483 Y70.190 E22.20751
G1 X35.792 Y71.240 E22.26212
G1 X36.158 Y72.270 E22.31665
G1 X36.579 Y73.280 E22.37125
G1 X37.054 Y74.265 E22.42580
G1 X37.582 Y75.223 E22.48038
G1 X38.160 Y76.147 E22.53475
G1 X38.280 Y76.335 E22.54588
G1 X38.919 Y77.224 E22.60050
G1 X39.467 Y77.907 E22.64419
G1 X40.188 Y78.727 E22.69866
G1 X40.953 Y79.509 E22.75324
G1 X41.759 Y80.249 E22.80783
G1 X42.604 Y80.943 E22.86238
G1 X43.482 Y81.588 E22.91674
G1 X44.585 Y82.308 E22.98245
G1 X45.347 Y82.739 E23.02613
G1 X46.321 Y83.235 E23.08066
G1 X47.322 Y83.678 E23.13527
G1 X48.343 Y84.067 E23.18978
G1 X49.385 Y84.399 E23.24434
G1 X50.444 Y84.674 E23.29893
G1 X51.517 Y84.892 E23.35355
G1 X52.594 Y85.050 E23.40786
G1 X53.689 Y85.152 E23.46272
G1 X54.776 Y85.194 E23.51700
G1 X55.000 Y85.200 E23.52818
G1 X56.093 Y85.170 E23.58273
G1 X56.966 Y85.099 E23.62642
G1 X58.046 Y84.964 E23.68072
G1 X59.128 Y84.769 E23.73558
G1 X60.190 Y84.517 E23.79003
G1 X61.240 Y84.207 E23.84465
G1 X62.270 Y83.841 E23.89918
G1 X63.280 Y83.420 E23.95378
G1 X64.265 Y82.945 E24.00833
G1 X65.223 Y82.417 E24.06291
G1 X66.147 Y81.839 E24.11728
G1 X66.335 Y81.719 E24.12841
G1 X67.224 Y81.080 E24.18303
G1 X67.907 Y80.532 E24.22672
G1 X68.727 Y79.811 E24.28119
G1 X69.509 Y79.046 E24.33577
G1 X70.249 Y78.240 E24.39036
G1 X70.943 Y77.395 E24.44491
G1 X71.588 Y76.517 E24.49927
G1 X72.308 Y75.414 E24.56498
G1 X72.739 Y74.652 E24.60866
G1 X73.235 Y73.678 E24.66319
G1 X73.678 Y72.677 E24.71780
G1 X74.067 Y71.656 E24.77231
G1 X74.399 Y70.614 E24.82687
G1 X74.674 Y69.555 E24.88146
G1 X74.892 Y68.482 E24.93608
G1 X75.050 Y67.405 E24.99039
G1 X75.152 Y66.310 E25.04526
G1 X75.194 Y65.224 E25.09948
G1 X75.200 Y65.000 E25.11066
G1 X75.170 Y63.906 E25.16526
G1 X75.099 Y63.033 E25.20895
G1 X74.964 Y61.953 E25.26325
G1 X74.769 Y60.871 E25.31811
G1 X74.517 Y59.809 E25.37256
G1 X74.207 Y58.759 E25.42718
G1 X73.841 Y57.729 E25.48172
G1 X73.420 Y56.719 E25.53631
G1 X72.945 Y55.734 E25.59086
G1 X72.417 Y54.776 E25.64544
G1 X71.839 Y53.852 E25.69981
G1 X71.719 Y53.664 E25.71094
G1 X71.080 Y52.775 E25.76556
G1 X70.532 Y52.092 E25.80925
G1 X69.811 Y51.272 E25.86372
G1 X69.046 Y50.490 E25.91830
G1 X68.240 Y49.750 E25.97289
G1 X67.395 Y49.056 E26.02744
G1 X66.517 Y48.411 E26.08180
G1 X65.414 Y47.691 E26.14751
G1 X64.652 Y47.260 E26.19119
G1 X63.678 Y46.764 E26.24572
G1 X62.677 Y46.321 E26.30033
G1 X61.656 Y45.932 E26.35484
G1 X60.614 Y45.601 E26.40939
G1 X59.555 Y45.325 E26.46398
G1 X58.482 Y45.107 E26.51861
G1 X57.405 Y44.949 E26.57292
G1 X56.310 Y44.847 E26.62778
G1 X55.224 Y44.806 E26.68200
G1 X55.000 Y44.800 E26.69318
G1 X53.906 Y44.829 E26.74778
G1 X53.033 Y44.900 E26.79148
G1 X51.953 Y45.035 E26.84578
G1 X50.871 Y45.230 E26.90063
G1 X49.809 Y45.483 E26.95510
G1 X48.759 Y45.792 E27.00970
G1 X47.729 Y46.158 E27.06424
G1 X46.719 Y46.579 E27.11883
G1 X45.734 Y47.054 E27.17339
G1 X44.776 Y47.582 E27.22796
G1 X43.852 Y48.160 E27.28233
G1 X43.664 Y48.280 E27.29346
G1 X42.775 Y48.919 E27.34808
G1 X42.092 Y49.467 E27.39177
G0 F9000 X41.891 Y49.245
G0 X41.077 Y48.615
G0 X40.891 Y48.381
G1 F900 X41.811 Y47.641 E27.45067
G1 X42.761 Y46.959 E27.50902
G1 X43.765 Y46.318 E27.56845
G1 X44.784 Y45.741 E27.62687
G1 X45.841 Y45.217 E27.68573
G1 X46.930 Y44.748 E27.74488
G1 X48.044 Y44.339 E27.80409
G1 X49.168 Y43.993 E27.86276
G1 X50.318 Y43.708 E27.92187
G1 X51.469 Y43.487 E27.98034
G1 X52.646 Y43.326 E28.03961
G1 X53.813 Y43.232 E28.09802
G1 X55.000 Y43.200 E28.15726
G1 X56.186 Y43.232 E28.21645
G1 X57.353 Y43.326 E28.27486
G1 X58.530 Y43.487 E28.33413
G1 X59.681 Y43.708 E28.39260
G1 X60.831 Y43.993 E28.45171
G1 X61.955 Y44.339 E28.51039
G1 X63.069 Y44.748 E28.56959
G1 X64.158 Y45.217 E28.62875
G1 X65.215 Y45.741 E28.68760
G1 X66.234 Y46.318 E28.74603
G1 X67.238 Y46.959 E28.80545
G1 X68.188 Y47.641 E28.86380
G1 X69.108 Y48.381 E28.92270
G1 X69.995 Y49.177 E28.98216
G1 X70.823 Y50.004 E29.04055
G1 X71.618 Y50.891 E29.09997
G1 X72.352 Y51.803 E29.15838
G1 X73.040 Y52.761 E29.21722
G1 X73.681 Y53.765 E29.27665
G1 X74.258 Y54.784 E29.33507
G1 X74.782 Y55.841 E29.39393
G1 X75.249 Y56.925 E29.45282
G1 X75.660 Y58.044 E29.51229
G1 X76.004 Y59.162 E29.57065
G1 X76.289 Y60.308 E29.62956
G1 X76.512 Y61.467 E29.68845
G1 X76.672 Y62.637 E29.74736
G1 X76.767 Y63.814 E29.80627
G1 X76.800 Y64.994 E29.86517
G1 X76.767 Y66.185 E29.92461
G1 X76.673 Y67.351 E29.98297
G1 X76.512 Y68.530 E30.04234
G1 X76.291 Y69.681 E30.10081
G1 X76.007 Y70.826 E30.15966
G1 X75.660 Y71.955 E30.21859
G1 X75.253 Y73.064 E30.27753
G1 X74.782 Y74.158 E30.33695
G1 X74.259 Y75.214 E30.39574
G1 X73.681 Y76.234 E30.45423
G1 X73.040 Y77.238 E30.51366
G1 X72.358 Y78.188 E30.57200
G1 X71.618 Y79.108 E30.63091
