;Generated with Cura_SteamEngine 15.05
; Default start code
G28 ; Home extruder
G1 Z15 F100
M107 ; Turn off fan
G90 ; Absolute positioning
M82 ; Extruder in absolute mode
M190 S50
; Activate all used extruder
M104 T0 S190
G92 E0 ; Reset extruder position
; Wait for all used extruders to reach temperature
M109 T0 S190
;Layer count: 30
;LAYER:0
M107
G0 F9000 X38.254 Y42.766 Z0.300
;TYPE:SKIRT
G1 F900 X39.335 Y41.859 E0.07040
G1 X40.464 Y41.012 E0.14082
G1 X41.642 Y40.229 E0.21138
G1 X42.859 Y39.516 E0.28175
G1 X44.115 Y38.870 E0.35222
G1 X45.405 Y38.296 E0.42266
G1 X46.725 Y37.795 E0.49310
G1 X48.073 Y37.369 E0.56363
G1 X49.439 Y37.020 E0.63397
G1 X50.824 Y36.746 E0.70441
G1 X52.224 Y36.551 E0.77493
G1 X53.632 Y36.435 E0.84541
G1 X55.042 Y36.399 E0.91578
G1 X56.453 Y36.440 E0.98620
G1 X57.861 Y36.561 E1.05671
G1 X59.258 Y36.761 E1.12711
G1 X60.643 Y37.038 E1.19758
G1 X62.010 Y37.393 E1.26804
G1 X63.354 Y37.824 E1.33846
G1 X64.673 Y38.329 E1.40892
G1 X65.961 Y38.907 E1.47935
G1 X67.215 Y39.557 E1.54982
G1 X68.431 Y40.275 E1.62027
G1 X69.601 Y41.059 E1.69054
G1 X69.705 Y41.137 E1.69702
G1 X70.732 Y41.913 E1.76124
G1 X71.809 Y42.823 E1.83159
G1 X72.835 Y43.794 E1.90206
G1 X73.804 Y44.822 E1.97254
G1 X74.714 Y45.901 E2.04296
G1 X75.562 Y47.030 E2.11341
G1 X76.346 Y48.204 E2.18384
G1 X77.063 Y49.422 E2.25435
G1 X77.710 Y50.677 E2.32480
G1 X78.286 Y51.964 E2.39514
G1 X78.790 Y53.285 E2.46568
G1 X79.218 Y54.631 E2.53615
G1 X79.570 Y55.997 E2.60652
G1 X79.845 Y57.383 E2.67702
G1 X80.042 Y58.781 E2.74745
G1 X80.161 Y60.188 E2.81790
G1 X80.200 Y61.599 E2.88832
G1 X80.161 Y63.007 E2.95859
G1 X80.043 Y64.411 E3.02889
G1 X79.847 Y65.805 E3.09912
G1 X79.574 Y67.188 E3.16945
G1 X79.223 Y68.551 E3.23967
G1 X78.797 Y69.893 E3.30991
G1 X78.296 Y71.211 E3.38026
G1 X77.722 Y72.498 E3.45056
G1 X77.079 Y73.750 E3.52078
G1 X76.365 Y74.964 E3.59105
G1 X75.585 Y76.137 E3.66133
G1 X74.741 Y77.264 E3.73157
G1 X73.835 Y78.342 E3.80182
G1 X72.870 Y79.369 E3.87213
G1 X71.849 Y80.340 E3.94243
G1 X70.776 Y81.251 E4.01265
G1 X69.653 Y82.103 E4.08298
G1 X68.485 Y82.888 E4.15319
G1 X67.276 Y83.609 E4.22342
G1 X67.199 Y83.649 E4.22774
G1 X67.199 Y93.599 E4.72415
G1 X56.799 Y93.599 E5.24301
G1 X56.799 Y77.566 E6.04290
G1 X60.113 Y76.547 E6.21587
G1 X61.064 Y76.186 E6.26662
G1 X62.009 Y75.757 E6.31840
G1 X62.918 Y75.269 E6.36987
G1 X63.789 Y74.725 E6.42111
G1 X64.631 Y74.121 E6.47280
G1 X65.419 Y73.474 E6.52367
G1 X66.180 Y72.759 E6.57577
G1 X66.880 Y72.011 E6.62688
G1 X67.535 Y71.212 E6.67842
G1 X68.128 Y70.386 E6.72915
G1 X68.680 Y69.498 E6.78132
G1 X69.183 Y68.555 E6.83464
G1 X69.589 Y67.657 E6.88380
G1 X69.951 Y66.698 E6.93494
G1 X70.254 Y65.702 E6.98688
G1 X70.488 Y64.704 E7.03802
G1 X70.657 Y63.694 E7.08911
G1 X70.760 Y62.666 E7.14066
G1 X70.797 Y61.592 E7.19427
G1 X70.770 Y60.672 E7.24019
G1 X70.688 Y59.743 E7.28672
G1 X70.548 Y58.800 E7.33428
G1 X70.350 Y57.870 E7.38172
G1 X70.097 Y56.944 E7.42961
G1 X69.795 Y56.059 E7.47626
G1 X69.426 Y55.160 E7.52474
G1 X69.022 Y54.326 E7.57098
G1 X68.557 Y53.491 E7.61866
G1 X68.047 Y52.693 E7.66591
G1 X67.495 Y51.933 E7.71277
G1 X66.864 Y51.168 E7.76225
G1 X66.240 Y50.500 E7.80785
G1 X65.557 Y49.848 E7.85496
G1 X64.827 Y49.231 E7.90265
G1 X64.068 Y48.663 E7.94994
G1 X63.283 Y48.148 E7.99678
G1 X62.451 Y47.670 E8.04465
G1 X61.603 Y47.248 E8.09191
G1 X60.703 Y46.866 E8.14069
G1 X59.828 Y46.558 E8.18697
G1 X58.923 Y46.297 E8.23396
G1 X57.961 Y46.081 E8.28315
G1 X57.067 Y45.938 E8.32831
G1 X56.107 Y45.841 E8.37645
G1 X55.117 Y45.802 E8.42588
G1 X54.195 Y45.822 E8.47189
G1 X53.267 Y45.896 E8.51834
G1 X52.348 Y46.026 E8.56464
G1 X51.398 Y46.218 E8.61300
G1 X50.482 Y46.461 E8.66028
G1 X49.592 Y46.756 E8.70706
G1 X48.677 Y47.121 E8.75620
G1 X47.847 Y47.514 E8.80202
G1 X47.006 Y47.973 E8.84982
G1 X46.218 Y48.467 E8.89622
G1 X45.434 Y49.027 E8.94429
G1 X44.700 Y49.622 E8.99143
G1 X43.997 Y50.264 E9.03892
G1 X43.339 Y50.942 E9.08606
G1 X42.712 Y51.670 E9.13399
G1 X42.147 Y52.413 E9.18056
G1 X41.613 Y53.211 E9.22847
G1 X41.138 Y54.022 E9.27536
G1 X40.707 Y54.871 E9.32286
G1 X40.326 Y55.749 E9.37061
G1 X40.002 Y56.633 E9.41758
G1 X39.734 Y57.536 E9.46457
G1 X39.509 Y58.498 E9.51386
G1 X39.357 Y59.402 E9.55960
G1 X39.252 Y60.351 E9.60723
G1 X39.203 Y61.331 E9.65618
G1 X39.215 Y62.243 E9.70169
G1 X39.282 Y63.191 E9.74910
G1 X39.404 Y64.124 E9.79605
G1 X39.589 Y65.075 E9.84438
G1 X39.818 Y65.969 E9.89042
G1 X40.115 Y66.893 E9.93884
G1 X40.455 Y67.764 E9.98549
G1 X40.858 Y68.639 E10.03355
G1 X41.301 Y69.469 E10.08049
G1 X41.793 Y70.269 E10.12735
G1 X42.345 Y71.055 E10.17527
G1 X42.942 Y71.806 E10.22313
G1 X43.556 Y72.490 E10.26899
G1 X44.245 Y73.170 E10.31728
G1 X44.962 Y73.798 E10.36483
G1 X45.703 Y74.371 E10.41157
G1 X46.502 Y74.916 E10.45982
G1 X47.302 Y75.395 E10.50634
G1 X48.138 Y75.828 E10.55331
G1 X49.024 Y76.222 E10.60169
G1 X49.900 Y76.550 E10.64835
G1 X50.927 Y76.867 E10.70198
G1 X53.199 Y77.604 E10.82114
G1 X53.199 Y93.599 E11.61913
G1 X42.799 Y93.599 E12.13799
G1 X42.799 Y83.648 E12.63445
G1 X42.708 Y83.601 E12.63956
G1 X41.495 Y82.877 E12.71004
G1 X40.325 Y82.088 E12.78044
G1 X39.200 Y81.233 E12.85094
G1 X38.125 Y80.318 E12.92137
G1 X37.104 Y79.343 E12.99180
G1 X36.139 Y78.314 E13.06218
G1 X35.231 Y77.231 E13.13269
G1 X34.386 Y76.098 E13.20320
G1 X33.607 Y74.921 E13.27362
G1 X32.896 Y73.703 E13.34398
G1 X32.251 Y72.446 E13.41447
G1 X31.679 Y71.153 E13.48501
G1 X31.181 Y69.833 E13.55539
G1 X30.758 Y68.486 E13.62583
G1 X30.410 Y67.118 E13.69625
G1 X30.139 Y65.732 E13.76671
G1 X29.947 Y64.332 E13.83721
G1 X29.833 Y62.925 E13.90764
G1 X29.799 Y61.514 E13.97805
G1 X29.842 Y60.102 E14.04853
G1 X29.966 Y58.695 E14.11900
G1 X30.168 Y57.297 E14.18947
G1 X30.448 Y55.914 E14.25987
G1 X30.804 Y54.548 E14.33029
G1 X31.238 Y53.203 E14.40080
G1 X31.745 Y51.886 E14.47121
G1 X32.326 Y50.598 E14.54170
G1 X32.978 Y49.346 E14.61213
G1 X33.698 Y48.132 E14.68254
G1 X34.487 Y46.960 E14.75303
G1 X35.339 Y45.834 E14.82348
G1 X36.252 Y44.758 E14.89388
G1 X37.225 Y43.733 E14.96439
G1 X38.254 Y42.766 E15.03484
G1 F2400 E11.03484
G0 F9000 X40.782 Y45.605
;TYPE:WALL-INNER
G1 F2400 E15.03484
G1 F900 X41.694 Y44.839 E15.09425
G1 X42.655 Y44.119 E15.15416
G1 X43.657 Y43.452 E15.21422
G1 X44.689 Y42.848 E15.27387
G1 X45.763 Y42.296 E15.33412
G1 X46.849 Y41.812 E15.39344
G1 X47.975 Y41.385 E15.45352
G1 X49.124 Y41.022 E15.51363
G1 X50.265 Y40.730 E15.57239
G1 X51.464 Y40.493 E15.63337
G1 X52.638 Y40.330 E15.69250
G1 X53.834 Y40.232 E15.75237
G1 X55.035 Y40.200 E15.81231
G1 X56.235 Y40.236 E15.87220
G1 X57.432 Y40.339 E15.93214
G1 X58.622 Y40.508 E15.99211
G1 X59.782 Y40.741 E16.05114
G1 X60.964 Y41.048 E16.11206
G1 X62.090 Y41.409 E16.17106
G1 X63.215 Y41.840 E16.23116
G1 X64.301 Y42.327 E16.29054
G1 X65.372 Y42.882 E16.35072
G1 X66.415 Y43.498 E16.41115
G1 X67.396 Y44.155 E16.47006
G1 X68.371 Y44.892 E16.53103
G1 X69.270 Y45.653 E16.58980
G1 X70.144 Y46.480 E16.64983
G1 X70.961 Y47.346 E16.70922
G1 X71.744 Y48.274 E16.76980
G1 X72.461 Y49.229 E16.82938
G1 X73.128 Y50.227 E16.88927
G1 X73.735 Y51.258 E16.94896
G1 X74.277 Y52.309 E17.00795
G1 X74.772 Y53.416 E17.06845
G1 X75.202 Y54.542 E17.12858
G1 X75.565 Y55.686 E17.18846
G1 X75.862 Y56.835 E17.24767
G1 X76.100 Y58.035 E17.30871
G1 X76.264 Y59.202 E17.36750
G1 X76.365 Y60.399 E17.42743
G1 X76.399 Y61.599 E17.48732
G1 X76.365 Y62.798 E17.54716
G1 X76.266 Y63.985 E17.60659
G1 X76.102 Y65.154 E17.66548
G1 X75.864 Y66.357 E17.72666
G1 X75.571 Y67.495 E17.78529
G1 X75.206 Y68.646 E17.84553
G1 X74.781 Y69.764 E17.90520
G1 X74.297 Y70.848 E17.96443
G1 X73.744 Y71.923 E18.02474
G1 X73.146 Y72.941 E18.08365
G1 X72.478 Y73.946 E18.14385
G1 X71.760 Y74.905 E18.20362
G1 X70.996 Y75.815 E18.26290
G1 X70.173 Y76.690 E18.32283
G1 X69.304 Y77.517 E18.38268
G1 X68.403 Y78.282 E18.44165
G1 X67.452 Y79.004 E18.50122
G1 X66.441 Y79.683 E18.56197
G1 X65.427 Y80.287 E18.62086
G1 X64.369 Y80.839 E18.68039
G1 X63.399 Y81.278 E18.73351
G1 X63.399 Y89.799 E19.15863
G1 X60.599 Y89.799 E19.29832
G1 X60.599 Y80.374 E19.76853
G1 X61.339 Y80.146 E19.80717
G1 X62.533 Y79.693 E19.87088
G1 X63.696 Y79.164 E19.93462
G1 X64.823 Y78.559 E19.99844
G1 X65.907 Y77.883 E20.06217
G1 X66.945 Y77.138 E20.12592
G1 X67.933 Y76.326 E20.18972
G1 X68.865 Y75.451 E20.25350
G1 X69.738 Y74.519 E20.31721
G1 X70.548 Y73.530 E20.38098
G1 X71.294 Y72.491 E20.44480
G1 X71.969 Y71.406 E20.50855
G1 X72.561 Y70.298 E20.57122
G1 X73.101 Y69.115 E20.63610
G1 X73.551 Y67.919 E20.69985
G1 X73.924 Y66.697 E20.76360
G1 X74.216 Y65.453 E20.82735
G1 X74.426 Y64.191 E20.89117
G1 X74.553 Y62.920 E20.95490
G1 X74.597 Y61.662 E21.01770
G1 X74.599 Y61.605 E21.02055
G1 X74.566 Y60.462 E21.07759
G1 X74.462 Y59.289 E21.13635
G1 X74.289 Y58.124 E21.19510
G1 X74.044 Y56.973 E21.25381
G1 X73.734 Y55.838 E21.31251
G1 X73.353 Y54.722 E21.37135
G1 X72.914 Y53.649 E21.42919
G1 X72.397 Y52.573 E21.48874
G1 X71.823 Y51.545 E21.54748
G1 X71.189 Y50.553 E21.60622
G1 X70.497 Y49.600 E21.66498
G1 X69.758 Y48.704 E21.72292
G1 X68.945 Y47.829 E21.78251
G1 X68.094 Y47.018 E21.84116
G1 X67.196 Y46.257 E21.89988
G1 X66.252 Y45.551 E21.95869
G1 X65.267 Y44.906 E22.01743
G1 X64.247 Y44.319 E22.07615
G1 X63.193 Y43.795 E22.13487
G1 X62.124 Y43.341 E22.19281
G1 X60.998 Y42.941 E22.25243
G1 X59.867 Y42.615 E22.31115
G1 X58.743 Y42.363 E22.36862
G1 X57.556 Y42.168 E22.42864
G1 X56.384 Y42.049 E22.48741
G1 X55.226 Y42.002 E22.54523
G1 X55.173 Y42.000 E22.54787
G1 X54.048 Y42.024 E22.60401
G1 X52.857 Y42.116 E22.66361
G1 X51.691 Y42.281 E22.72236
G1 X50.538 Y42.514 E22.78105
G1 X49.400 Y42.817 E22.83980
G1 X48.283 Y43.186 E22.89849
G1 X47.201 Y43.618 E22.95661
G1 X46.124 Y44.125 E23.01600
G1 X45.090 Y44.689 E23.07476
G1 X44.093 Y45.315 E23.13350
G1 X43.134 Y45.999 E23.19226
G1 X42.219 Y46.741 E23.25104
G1 X41.351 Y47.534 E23.30969
G1 X40.531 Y48.379 E23.36844
G1 X39.762 Y49.272 E23.42723
G1 X39.049 Y50.209 E23.48597
G1 X38.395 Y51.187 E23.54467
G1 X37.800 Y52.203 E23.60341
G1 X37.267 Y53.253 E23.66216
G1 X36.798 Y54.333 E23.72090
G1 X36.393 Y55.439 E23.77966
G1 X36.058 Y56.567 E23.83837
G1 X35.794 Y57.694 E23.89612
G1 X35.591 Y58.875 E23.95590
G1 X35.463 Y60.045 E24.01462
G1 X35.405 Y61.201 E24.07237
G1 X35.402 Y61.259 E24.07526
G1 X35.416 Y62.398 E24.13209
G1 X35.500 Y63.572 E24.19081
G1 X35.652 Y64.740 E24.24958
G1 X35.876 Y65.896 E24.30832
G1 X36.169 Y67.037 E24.36709
G1 X36.529 Y68.157 E24.42579
G1 X36.958 Y69.255 E24.48460
G1 X37.449 Y70.323 E24.54324
G1 X38.004 Y71.362 E24.60201
G1 X38.622 Y72.365 E24.66079
G1 X39.298 Y73.328 E24.71949
G1 X40.030 Y74.250 E24.77822
G1 X40.817 Y75.126 E24.83697
G1 X41.654 Y75.954 E24.89571
G1 X42.540 Y76.729 E24.95444
G1 X43.471 Y77.450 E25.01318
G1 X44.444 Y78.113 E25.07192
G1 X45.455 Y78.717 E25.13068
G1 X46.500 Y79.259 E25.18941
G1 X47.576 Y79.738 E25.24817
G1 X48.678 Y80.150 E25.30687
G1 X49.399 Y80.372 E25.34450
G1 X49.399 Y89.799 E25.81482
G1 X46.599 Y89.799 E25.95451
G1 X46.599 Y81.278 E26.37963
G1 X45.634 Y80.841 E26.43248
G1 X44.552 Y80.276 E26.49337
G1 X43.542 Y79.673 E26.55206
G1 X42.539 Y78.997 E26.61240
G1 X41.582 Y78.270 E26.67236
G1 X40.666 Y77.490 E26.73239
G1 X39.805 Y76.669 E26.79174
G1 X38.982 Y75.791 E26.85178
G1 X38.217 Y74.877 E26.91124
G1 X37.486 Y73.898 E26.97220
G1 X36.839 Y72.919 E27.03074
G1 X36.230 Y71.878 E27.09091
G1 X35.684 Y70.812 E27.15067
G1 X35.191 Y69.697 E27.21149
G1 X34.774 Y68.590 E27.27051
G1 X34.413 Y67.445 E27.33040
G1 X34.121 Y66.294 E27.38965
G1 X33.886 Y65.092 E27.45075
G1 X33.726 Y63.925 E27.50952
G1 X33.630 Y62.730 E27.56933
G1 X33.600 Y61.527 E27.62936
G1 X33.637 Y60.329 E27.68916
G1 X33.743 Y59.131 E27.74916
G1 X33.914 Y57.942 E27.80909
G1 X34.150 Y56.778 E27.86835
G1 X34.456 Y55.604 E27.92887
G1 X34.820 Y54.475 E27.98806
G1 X35.253 Y53.351 E28.04815
G1 X35.749 Y52.252 E28.10830
G1 X36.298 Y51.197 E28.16764
G1 X36.909 Y50.168 E28.22734
G1 X37.590 Y49.155 E28.28824
G1 X38.305 Y48.211 E28.34732
G1 X39.076 Y47.302 E28.40679
G1 X39.905 Y46.429 E28.46685
G1 X40.782 Y45.605 E28.52689
G0 F9000 X40.518 Y45.305
;TYPE:WALL-OUTER
G1 F900 X41.454 Y44.519 E28.58786
G1 X42.422 Y43.794 E28.64820
G1 X43.449 Y43.111 E28.70974
G1 X44.502 Y42.494 E28.77062
G1 X45.579 Y41.940 E28.83105
G1 X46.702 Y41.440 E28.89238
G1 X47.836 Y41.010 E28.95288
G1 X49.009 Y40.639 E29.01426
G1 X50.195 Y40.336 E29.07533
G1 X51.386 Y40.101 E29.13590
G1 X52.604 Y39.931 E29.19725
G1 X53.810 Y39.832 E29.25762
G1 X55.036 Y39.800 E29.31881
G1 X56.263 Y39.836 E29.38005
G1 X57.470 Y39.940 E29.44049
G1 X58.686 Y40.113 E29.50177
G1 X59.876 Y40.352 E29.56232
G1 X61.069 Y40.662 E29.62382
G1 X62.221 Y41.031 E29.68417
G1 X63.372 Y41.472 E29.74566
G1 X64.477 Y41.968 E29.80609
G1 X65.572 Y42.535 E29.86761
G1 X66.623 Y43.156 E29.92851
G1 X67.629 Y43.830 E29.98893
G1 X68.604 Y44.566 E30.04987
G1 X69.545 Y45.362 E30.11136
G1 X70.424 Y46.193 E30.17171
G1 X71.262 Y47.082 E30.23266
G1 X72.057 Y48.024 E30.29416
G1 X72.790 Y49.001 E30.35509
G1 X73.469 Y50.017 E30.41606
G1 X74.083 Y51.060 E30.47644
G1 X74.642 Y52.146 E30.53738
G1 X75.145 Y53.271 E30.59886
G1 X75.577 Y54.402 E30.65926
G1 X75.947 Y55.566 E30.72020
G1 X76.255 Y56.759 E30.78167
G1 X76.491 Y57.946 E30.84205
G1 X76.663 Y59.167 E30.90357
G1 X76.765 Y60.373 E30.96395
G1 X76.799 Y61.593 E31.02484
G1 X76.765 Y62.823 E31.08623
G1 X76.664 Y64.026 E31.14645
G1 X76.495 Y65.232 E31.20721
G1 X76.258 Y66.428 E31.26804
G1 X75.955 Y67.607 E31.32877
G1 X75.583 Y68.779 E31.39012
G1 X75.154 Y69.909 E31.45042
G1 X74.654 Y71.030 E31.51166
G1 X74.096 Y72.115 E31.57253
G1 X73.485 Y73.155 E31.63270
G1 X72.803 Y74.179 E31.69409
G1 X72.080 Y75.145 E31.75428
G1 X71.296 Y76.079 E31.81512
G1 X70.462 Y76.967 E31.87590
G1 X69.571 Y77.814 E31.93723
G1 X68.651 Y78.596 E31.99747
G1 X67.680 Y79.332 E32.05826
G1 X66.661 Y80.018 E32.11954
G1 X65.614 Y80.641 E32.18033
G1 X64.543 Y81.200 E32.24060
G1 X63.799 Y81.536 E32.28133
G1 X63.799 Y90.199 E32.71353
G1 X60.199 Y90.199 E32.89313
G1 X60.199 Y80.078 E33.39807
G1 X61.209 Y79.767 E33.45079
G1 X62.379 Y79.324 E33.51321
G1 X63.519 Y78.805 E33.57570
G1 X64.622 Y78.213 E33.63815
G1 X65.684 Y77.550 E33.70061
G1 X66.701 Y76.821 E33.76304
G1 X67.669 Y76.025 E33.82557
G1 X68.582 Y75.168 E33.88804
G1 X69.437 Y74.255 E33.95044
G1 X70.231 Y73.286 E34.01294
G1 X70.961 Y72.268 E34.07544
G1 X71.622 Y71.206 E34.13785
G1 X72.233 Y70.064 E34.20247
G1 X72.731 Y68.962 E34.26280
G1 X73.172 Y67.790 E34.32527
G1 X73.537 Y66.593 E34.38770
G1 X73.823 Y65.374 E34.45017
G1 X74.029 Y64.138 E34.51269
G1 X74.154 Y62.893 E34.57511
G1 X74.197 Y61.651 E34.63711
G1 X74.199 Y61.601 E34.63961
G1 X74.167 Y60.485 E34.69531
G1 X74.065 Y59.336 E34.75286
G1 X73.895 Y58.195 E34.81041
G1 X73.655 Y57.068 E34.86790
G1 X73.351 Y55.955 E34.92546
G1 X72.978 Y54.863 E34.98303
G1 X72.544 Y53.802 E35.04022
G1 X72.042 Y52.758 E35.09802
G1 X71.480 Y51.750 E35.15559
G1 X70.858 Y50.778 E35.21317
G1 X70.180 Y49.845 E35.27071
G1 X69.450 Y48.959 E35.32798
G1 X68.660 Y48.110 E35.38584
G1 X67.827 Y47.315 E35.44329
G1 X66.947 Y46.570 E35.50081
G1 X66.022 Y45.879 E35.55841
G1 X65.058 Y45.247 E35.61592
G1 X64.058 Y44.672 E35.67347
G1 X63.026 Y44.158 E35.73099
G1 X61.969 Y43.710 E35.78827
G1 X60.876 Y43.322 E35.84613
G1 X59.768 Y43.002 E35.90367
G1 X58.651 Y42.751 E35.96078
G1 X57.504 Y42.565 E36.01876
G1 X56.356 Y42.448 E36.07633
G1 X55.213 Y42.402 E36.13340
G1 X55.167 Y42.400 E36.13569
G1 X54.013 Y42.425 E36.19328
G1 X52.901 Y42.514 E36.24894
G1 X51.759 Y42.676 E36.30648
G1 X50.629 Y42.904 E36.36399
G1 X49.514 Y43.200 E36.42155
G1 X48.420 Y43.562 E36.47904
G1 X47.352 Y43.989 E36.53642
G1 X46.305 Y44.482 E36.59416
G1 X45.293 Y45.034 E36.65167
G1 X44.316 Y45.648 E36.70924
G1 X43.377 Y46.318 E36.76679
G1 X42.480 Y47.044 E36.82436
G1 X41.630 Y47.821 E36.88181
G1 X40.826 Y48.649 E36.93939
G1 X40.073 Y49.524 E36.99699
G1 X39.375 Y50.442 E37.05452
G1 X38.734 Y51.400 E37.11203
G1 X38.151 Y52.395 E37.16956
G1 X37.629 Y53.424 E37.22713
G1 X37.169 Y54.482 E37.28468
G1 X36.773 Y55.565 E37.34221
G1 X36.445 Y56.670 E37.39972
G1 X36.173 Y57.831 E37.45921
G1 X35.988 Y58.930 E37.51481
G1 X35.862 Y60.077 E37.57238
G1 X35.802 Y61.267 E37.63183
