;Generated with Cura_SteamEngine 15.05
; Default start code
G28 ; Home extruder
G1 Z15 F100
M107 ; Turn off fan
G90 ; Absolute positioning
M82 ; Extruder in absolute mode
M190 S50
; Activate all used extruder
M104 T0 S190
G92 E0 ; Reset extruder position
; Wait for all used extruders to reach temperature
M109 T0 S190
;Layer count: 10
;LAYER:0
M107
G0 F9000 X48.525 Y55.922 Z0.300
G0 X49.642 Y55.903
;TYPE:SKIRT
G1 F900 X51.030 Y54.678 E0.09236
G1 X53.207 Y54.095 E0.20480
G1 X55.000 Y54.394 E0.29549
G1 X56.792 Y54.095 E0.38613
G1 X58.969 Y54.678 E0.49856
G1 X60.212 Y55.774 E0.58124
G1 X62.012 Y56.461 E0.67736
G1 X63.582 Y58.030 E0.78810
G1 X64.171 Y59.721 E0.87743
G1 X65.323 Y61.038 E0.96473
G1 X65.938 Y63.333 E1.08327
G1 X65.584 Y64.868 E1.16186
G1 X65.904 Y66.792 E1.25917
G1 X65.321 Y68.969 E1.37160
G1 X64.096 Y70.358 E1.46400
G1 X64.077 Y71.471 E1.51954
G1 X61.914 Y73.641 E1.67240
G1 X60.230 Y74.153 E1.76021
G1 X59.101 Y75.282 E1.83986
G1 X56.039 Y76.109 E1.99810
G1 X55.072 Y75.554 E2.05373
G1 X53.281 Y75.928 E2.14501
G1 X51.031 Y75.316 E2.26134
G1 X49.838 Y74.272 E2.34043
G1 X48.975 Y74.444 E2.38433
G1 X45.923 Y71.527 E2.59496
G1 X45.903 Y70.357 E2.65334
G1 X44.678 Y68.969 E2.74570
G1 X44.095 Y66.792 E2.85814
G1 X44.364 Y65.182 E2.93957
G1 X43.789 Y64.559 E2.98187
G1 X44.929 Y59.926 E3.21991
G1 X45.875 Y59.589 E3.27001
G1 X46.417 Y58.030 E3.35235
G1 X48.525 Y55.922 E3.50108
G1 X49.642 Y55.903 E3.55682
G0 F9000 X49.796 Y56.300
G1 F900 X51.224 Y55.040 E3.65183
G1 X53.227 Y54.504 E3.75528
G1 X55.001 Y54.799 E3.84500
G1 X56.772 Y54.504 E3.93457
G1 X58.775 Y55.040 E4.03802
G1 X60.058 Y56.172 E4.12338
G1 X60.107 Y56.163 E4.12586
G1 X61.790 Y56.804 E4.21571
G1 X63.234 Y58.248 E4.31760
G1 X63.817 Y59.924 E4.40613
G1 X64.961 Y61.232 E4.49282
G1 X65.526 Y63.340 E4.60170
G1 X65.167 Y64.894 E4.68127
G1 X65.186 Y64.915 E4.68268
G1 X65.495 Y66.772 E4.77660
G1 X64.959 Y68.775 E4.88005
G1 X63.706 Y70.195 E4.97453
G1 X63.698 Y70.197 E4.97494
G1 X63.679 Y71.302 E5.03008
G1 X61.701 Y73.287 E5.16989
G1 X60.017 Y73.800 E5.25771
G1 X58.893 Y74.924 E5.33702
G1 X56.094 Y75.680 E5.48166
G1 X55.139 Y75.131 E5.53662
G1 X55.138 Y75.132 E5.53669
G1 X53.294 Y75.516 E5.63066
G1 X51.225 Y74.954 E5.73763
G1 X49.952 Y73.841 E5.82199
G1 X49.101 Y74.011 E5.86528
G1 X46.320 Y71.353 E6.05721
G1 X46.300 Y70.204 E6.11454
G1 X45.040 Y68.775 E6.20959
G1 X44.504 Y66.772 E6.31303
G1 X44.790 Y65.054 E6.39993
G1 X44.229 Y64.446 E6.44120
G1 X45.266 Y60.231 E6.65776
G1 X46.190 Y59.902 E6.70669
G1 X46.765 Y58.248 E6.79405
G1 X48.694 Y56.319 E6.93015
G1 X49.796 Y56.300 E6.98514
G0 F9000 X50.096 Y56.695
G1 F900 X50.146 Y56.525 E6.99398
G1 X51.418 Y55.402 E7.07863
G1 X53.247 Y54.913 E7.17309
G1 X54.959 Y55.198 E7.25968
G1 X55.007 Y55.245 E7.26303
G1 X55.059 Y55.195 E7.26663
G1 X56.752 Y54.913 E7.35225
G1 X58.581 Y55.402 E7.44671
G1 X59.841 Y56.514 E7.53055
G1 X59.871 Y56.613 E7.53571
G1 X60.070 Y56.577 E7.54580
G1 X61.568 Y57.147 E7.62576
G1 X62.886 Y58.466 E7.71879
G1 X63.427 Y60.020 E7.80088
G1 X63.404 Y60.127 E7.80634
G1 X63.484 Y60.151 E7.81051
G1 X64.598 Y61.425 E7.89494
G1 X65.113 Y63.347 E7.99421
G1 X64.729 Y65.011 E8.07941
G1 X64.811 Y65.099 E8.08541
G1 X65.086 Y66.752 E8.16902
G1 X64.597 Y68.581 E8.26347
G1 X63.481 Y69.845 E8.34759
G1 X63.304 Y69.898 E8.35681
G1 X63.282 Y71.134 E8.41849
G1 X61.489 Y72.934 E8.54524
G1 X59.928 Y73.409 E8.62664
G1 X59.856 Y73.395 E8.63030
G1 X58.686 Y74.565 E8.71285
G1 X56.150 Y75.251 E8.84392
G1 X55.083 Y74.638 E8.90531
G1 X54.948 Y74.763 E8.91449
G1 X53.306 Y75.105 E8.99817
G1 X51.419 Y74.592 E9.09573
G1 X50.216 Y73.539 E9.17549
G1 X50.164 Y73.390 E9.18337
G1 X49.227 Y73.578 E9.23104
G1 X46.717 Y71.180 E9.40423
G1 X46.695 Y69.905 E9.46785
G1 X46.528 Y69.856 E9.47654
G1 X45.402 Y68.581 E9.56140
G1 X44.913 Y66.752 E9.65585
G1 X45.193 Y65.069 E9.74097
G1 X45.272 Y64.987 E9.74665
G1 X44.669 Y64.333 E9.79103
G1 X45.603 Y60.535 E9.98616
G1 X46.615 Y60.175 E10.03975
G1 X46.580 Y59.997 E10.04880
G1 X47.113 Y58.466 E10.12968
G1 X48.862 Y56.716 E10.25312
G1 X50.096 Y56.695 E10.31469
G1 F2400 E6.31469
G0 F9000 X50.679 Y60.780
;TYPE:WALL-INNER
G1 F2400 E10.31469
G1 F900 X50.610 Y60.612 E10.32375
G1 X51.004 Y60.802 E10.34557
G1 X51.135 Y60.906 E10.35392
G1 X51.860 Y61.860 E10.41370
G1 X50.895 Y61.126 E10.47419
G1 X50.679 Y60.780 E10.49454
G0 F9000 X52.055 Y62.071
G0 X51.799 Y62.617
G1 F900 X52.097 Y62.099 E10.52435
G1 X53.935 Y61.037 E10.63026
G1 X56.064 Y61.037 E10.73647
G1 X57.382 Y61.799 E10.81243
G1 X57.899 Y62.095 E10.84215
G1 X58.664 Y63.418 E10.91839
G1 X58.939 Y63.898 E10.94599
G1 X58.463 Y63.961 E10.96995
G1 X59.247 Y65.000 E11.03488
G1 X58.458 Y66.044 E11.10017
G1 X58.938 Y66.105 E11.12431
G1 X57.898 Y67.905 E11.22802
G1 X56.059 Y68.963 E11.33387
G1 X53.939 Y68.963 E11.43964
G1 X52.101 Y67.904 E11.54547
G1 X51.334 Y66.579 E11.62185
G1 X51.037 Y66.062 E11.65160
G1 X51.037 Y63.934 E11.75776
G1 X51.799 Y62.617 E11.83367
G0 F9000 X50.989 Y63.916
G0 X50.425 Y63.730
G1 F900 X50.698 Y63.848 E11.84851
G1 X49.521 Y63.701 E11.90769
G1 X49.352 Y63.631 E11.91681
G1 X49.125 Y63.489 E11.93017
G1 X49.013 Y63.391 E11.93760
G1 X49.353 Y63.359 E11.95464
G1 X49.586 Y63.379 E11.96630
G1 X50.425 Y63.730 E12.01168
G0 F9000 X50.986 Y63.935
G0 X50.987 Y66.063
G0 X49.510 Y66.301
G1 F900 X50.704 Y66.150 E12.07172
G1 X49.603 Y66.613 E12.13131
G1 X49.370 Y66.639 E12.14300
G1 X49.350 Y66.639 E12.14400
G1 X49.014 Y66.609 E12.16083
G1 X49.202 Y66.458 E12.17286
G1 X49.510 Y66.301 E12.19011
G0 F9000 X50.992 Y66.084
G0 X52.056 Y67.926
G0 X51.617 Y68.323
G1 F900 X51.862 Y68.137 E12.20546
G1 X51.129 Y69.102 E12.26591
G1 X51.116 Y69.113 E12.26676
G1 X51.108 Y69.122 E12.26736
G1 X50.972 Y69.220 E12.27573
G1 X50.824 Y69.299 E12.28410
G1 X50.618 Y69.378 E12.29510
G1 X50.793 Y69.012 E12.31534
G1 X50.893 Y68.874 E12.32385
G1 X51.617 Y68.323 E12.36924
G0 F9000 X52.071 Y67.945
G0 X53.916 Y69.009
G0 X53.730 Y69.573
G1 F900 X53.851 Y69.291 E12.38455
G1 X53.699 Y70.482 E12.44445
G1 X53.662 Y70.583 E12.44982
G1 X53.480 Y70.884 E12.46736
G1 X53.390 Y70.988 E12.47423
G1 X53.364 Y70.779 E12.48473
G1 X53.359 Y70.613 E12.49302
G1 X53.381 Y70.406 E12.50340
G1 X53.730 Y69.573 E12.54846
G0 F9000 X53.937 Y69.013
G0 X56.059 Y69.013
G0 X56.337 Y70.584
G1 F900 X56.310 Y70.519 E12.55197
G1 X56.147 Y69.285 E12.61407
G1 X56.588 Y70.338 E12.67103
G1 X56.623 Y70.426 E12.67575
G1 X56.641 Y70.652 E12.68706
G1 X56.609 Y70.987 E12.70385
G1 X56.423 Y70.740 E12.71928
G1 X56.337 Y70.584 E12.72817
G0 F9000 X56.085 Y69.006
G0 X57.927 Y67.945
G0 X58.866 Y69.097
G1 F900 X58.134 Y68.133 E12.78856
G1 X59.063 Y68.840 E12.84680
G1 X59.126 Y68.903 E12.85124
G1 X59.310 Y69.198 E12.86859
G1 X59.391 Y69.390 E12.87899
G1 X59.102 Y69.262 E12.89475
G1 X58.866 Y69.097 E12.90912
G0 F9000 X57.943 Y67.926
G0 X59.009 Y66.085
G0 X60.627 Y66.638
G1 F900 X60.408 Y66.618 E12.92009
G1 X59.294 Y66.150 E12.98038
G1 X60.431 Y66.294 E13.03755
G1 X60.541 Y66.320 E13.04319
G1 X60.620 Y66.354 E13.04748
G1 X60.908 Y66.537 E13.06451
G1 X60.988 Y66.609 E13.06988
G1 X60.627 Y66.638 E13.08795
G0 F9000 X58.642 Y65.966
G0 X58.646 Y64.037
G0 X60.775 Y63.555
G1 F900 X60.527 Y63.686 E13.10194
G1 X59.288 Y63.851 E13.16430
G1 X60.337 Y63.412 E13.22103
G1 X60.417 Y63.378 E13.22537
G1 X60.638 Y63.359 E13.23643
G1 X60.995 Y63.392 E13.25432
G1 X60.775 Y63.555 E13.26798
G0 F9000 X59.007 Y63.914
G0 X57.944 Y62.072
G0 X59.208 Y60.987
G1 F900 X59.109 Y61.120 E13.27625
G1 X58.140 Y61.859 E13.33705
G1 X58.861 Y60.909 E13.39655
G1 X58.917 Y60.855 E13.40043
G1 X59.214 Y60.681 E13.41761
G1 X59.389 Y60.609 E13.42705
G1 X59.328 Y60.762 E13.43526
G1 X59.208 Y60.987 E13.44799
G0 F9000 X57.928 Y62.055
G0 X56.085 Y60.990
G0 X56.433 Y60.033
G1 F900 X56.149 Y60.709 E13.48457
G1 X56.299 Y59.520 E13.54436
G1 X56.368 Y59.353 E13.55337
G1 X56.474 Y59.177 E13.56362
G1 X56.608 Y59.008 E13.57438
G1 X56.640 Y59.373 E13.59266
G1 X56.634 Y59.494 E13.59871
G1 X56.615 Y59.598 E13.60398
G1 X56.433 Y60.033 E13.62751
G0 F9000 X56.062 Y60.987
G0 X53.940 Y60.987
G0 X53.812 Y60.412
G1 F900 X53.852 Y60.713 E13.64265
G1 X53.377 Y59.581 E13.70390
G1 X53.359 Y59.342 E13.71586
G1 X53.393 Y59.004 E13.73281
G1 X53.526 Y59.179 E13.74377
G1 X53.689 Y59.485 E13.76107
G1 X53.812 Y60.412 E13.80772
G0 F9000 X54.246 Y60.637
;TYPE:WALL-OUTER
G1 F900 X55.754 Y60.637 E13.88296
G1 X55.905 Y59.448 E13.94275
G1 X55.974 Y59.245 E13.95345
G1 X56.146 Y58.946 E13.97066
G1 X56.391 Y58.639 E13.99025
G1 X56.636 Y58.401 E14.00730
G1 X56.882 Y58.467 E14.02000
G1 X56.963 Y58.742 E14.03431
G1 X57.027 Y59.121 E14.05348
G1 X57.040 Y59.373 E14.06607
G1 X57.029 Y59.563 E14.07557
G1 X56.990 Y59.740 E14.08461
G1 X56.742 Y60.329 E14.11649
G1 X56.706 Y60.414 E14.12110
G1 X56.526 Y60.842 E14.14426
G1 X57.836 Y61.598 E14.21972
G1 X58.546 Y60.662 E14.27833
G1 X58.691 Y60.524 E14.28832
G1 X59.036 Y60.322 E14.30826
G1 X59.516 Y60.149 E14.33372
G1 X59.612 Y60.124 E14.33867
G1 X59.714 Y60.101 E14.34389
G1 X59.898 Y60.285 E14.35687
G1 X59.852 Y60.479 E14.36681
G1 X59.688 Y60.937 E14.39108
G1 X59.557 Y61.184 E14.40503
G1 X59.487 Y61.290 E14.41137
G1 X59.377 Y61.419 E14.41983
G1 X58.401 Y62.164 E14.48109
G1 X59.157 Y63.472 E14.55646
G1 X60.182 Y63.043 E14.61189
G1 X60.319 Y62.989 E14.61924
G1 X60.431 Y62.971 E14.62490
G1 X60.649 Y62.959 E14.63579
G1 X61.010 Y62.989 E14.65387
G1 X61.241 Y63.033 E14.66560
G1 X61.533 Y63.119 E14.68078
G1 X61.597 Y63.361 E14.69327
G1 X61.310 Y63.651 E14.71363
G1 X60.982 Y63.898 E14.73411
G1 X60.664 Y64.063 E14.75199
G1 X60.615 Y64.079 E14.75456
G1 X59.196 Y64.267 E14.82597
G1 X59.749 Y65.000 E14.87178
G1 X59.194 Y65.734 E14.91769
G1 X60.477 Y65.896 E14.98221
G1 X60.587 Y65.914 E14.98777
G1 X60.805 Y65.998 E14.99942
G1 X61.155 Y66.221 E15.02013
G1 X61.505 Y66.533 E15.04352
G1 X61.598 Y66.634 E15.05037
G1 X61.532 Y66.882 E15.06317
G1 X61.256 Y66.962 E15.07751
G1 X61.083 Y66.998 E15.08633
G1 X60.622 Y67.039 E15.10942
G1 X60.281 Y66.999 E15.12655
G1 X59.157 Y66.526 E15.18738
G1 X58.401 Y67.834 E15.26276
G1 X59.332 Y68.543 E15.32114
G1 X59.439 Y68.649 E15.32865
G1 X59.666 Y69.015 E15.35014
G1 X59.842 Y69.488 E15.37532
G1 X59.860 Y69.553 E15.37868
G1 X59.898 Y69.713 E15.38689
G1 X59.713 Y69.899 E15.39998
G1 X59.255 Y69.767 E15.42376
G1 X58.761 Y69.522 E15.45127
G1 X58.565 Y69.362 E15.46389
G1 X57.836 Y68.402 E15.52403
G1 X56.526 Y69.156 E15.59944
G1 X56.992 Y70.265 E15.65945
G1 X57.014 Y70.341 E15.66340
G1 X57.037 Y70.527 E15.67275
G1 X57.041 Y70.639 E15.67834
G1 X56.992 Y71.111 E15.70202
G1 X56.882 Y71.531 E15.72368
G1 X56.634 Y71.598 E15.73649
G1 X56.371 Y71.336 E15.75501
G1 X56.085 Y70.956 E15.77874
G1 X55.939 Y70.672 E15.79467
G1 X55.917 Y70.600 E15.79843
G1 X55.753 Y69.363 E15.86068
G1 X54.245 Y69.363 E15.93592
G1 X54.093 Y70.559 E15.99607
G1 X54.081 Y70.605 E15.99844
G1 X54.019 Y70.767 E16.00709
G1 X53.808 Y71.116 E16.02744
G1 X53.492 Y71.480 E16.05149
G1 X53.365 Y71.598 E16.06014
G1 X53.114 Y71.530 E16.07311
G1 X53.012 Y71.140 E16.09322
G1 X52.997 Y71.067 E16.09694
G1 X52.964 Y70.799 E16.11041
G1 X52.958 Y70.617 E16.11950
G1 X53.003 Y70.273 E16.13680
G1 X53.362 Y69.416 E16.18316
G1 X53.474 Y69.156 E16.19728
G1 X52.163 Y68.402 E16.27274
G1 X51.437 Y69.358 E16.33262
G1 X51.365 Y69.429 E16.33767
G1 X51.164 Y69.571 E16.34995
G1 X50.993 Y69.661 E16.35959
G1 X50.558 Y69.829 E16.38285
G1 X50.296 Y69.896 E16.39634
G1 X50.102 Y69.711 E16.40972
G1 X50.206 Y69.329 E16.42947
G1 X50.448 Y68.807 E16.45818
G1 X50.614 Y68.586 E16.47197
G1 X51.598 Y67.834 E16.53375
G1 X50.842 Y66.526 E16.60912
G1 X49.728 Y66.995 E16.66943
G1 X49.589 Y67.025 E16.67652
G1 X49.338 Y67.040 E16.68907
G1 X48.956 Y67.006 E16.70820
G1 X48.754 Y66.964 E16.71849
G1 X48.467 Y66.880 E16.73341
G1 X48.401 Y66.635 E16.74607
G1 X48.598 Y66.430 E16.76025
G1 X48.974 Y66.128 E16.78432
G1 X49.219 Y65.988 E16.79839
G1 X49.360 Y65.928 E16.80604
G1 X49.430 Y65.908 E16.80967
G1 X50.637 Y65.755 E16.87037
G1 X50.637 Y64.243 E16.94580
G1 X49.442 Y64.094 E17.00588
G1 X49.164 Y63.985 E17.02078
G1 X48.885 Y63.811 E17.03719
G1 X48.520 Y63.493 E17.06134
G1 X48.407 Y63.370 E17.06967
G1 X48.467 Y63.124 E17.08230
G1 X48.858 Y63.012 E17.10259
G1 X49.123 Y62.972 E17.11597
G1 X49.355 Y62.959 E17.12756
G1 X49.595 Y62.975 E17.13956
G1 X49.730 Y63.006 E17.14647
G1 X50.582 Y63.362 E17.19254
G1 X50.841 Y63.474 E17.20661
G1 X51.598 Y62.164 E17.28210
G1 X50.632 Y61.429 E17.34266
G1 X50.568 Y61.362 E17.34728
G1 X50.324 Y60.967 E17.37044
G1 X50.239 Y60.767 E17.38128
G1 X50.131 Y60.418 E17.39951
G1 X50.101 Y60.285 E17.40631
G1 X50.285 Y60.101 E17.41929
G1 X50.670 Y60.206 E17.43920
G1 X51.197 Y60.450 E17.46818
G1 X51.431 Y60.634 E17.48303
G1 X52.163 Y61.598 E17.54342
G1 X53.473 Y60.842 E17.61888
G1 X53.001 Y59.719 E17.67965
G1 X52.984 Y59.657 E17.68286
G1 X52.970 Y59.563 E17.68760
G1 X52.958 Y59.335 E17.69899
G1 X53.024 Y58.793 E17.72623
G1 X53.119 Y58.467 E17.74317
G1 X53.361 Y58.402 E17.75567
G1 X53.754 Y58.811 E17.78397
G1 X53.864 Y58.963 E17.79333
G1 X54.053 Y59.315 E17.81326
G1 X54.082 Y59.401 E17.81779
G1 X54.246 Y60.637 E17.88000
G0 F9000 X54.104 Y61.176
;TYPE:SKIN
G1 F900 X58.579 Y65.650 E18.19570
G0 F9000 X58.822 Y65.328
G1 F900 X54.670 Y61.176 E18.48864
G0 F9000 X55.236 Y61.176
G1 F900 X59.066 Y65.005 E18.75883
G0 F9000 X58.335 Y65.972
G1 F900 X53.698 Y61.335 E19.08600
G0 F9000 X53.339 Y61.542
G1 F900 X58.457 Y66.659 E19.44707
G0 F9000 X58.664 Y66.301
G1 F900 X58.560 Y66.197 E19.45440
G0 F9000 X58.249 Y67.017
G1 F900 X52.981 Y61.749 E19.82609
G0 F9000 X52.622 Y61.956
G1 F900 X58.042 Y67.375 E20.20847
G0 F9000 X57.834 Y67.734
G1 F900 X52.264 Y62.163 E20.60149
G0 F9000 X52.028 Y62.494
G1 F900 X57.504 Y67.969 E20.98782
G0 F9000 X57.144 Y68.175
G1 F900 X51.821 Y62.852 E21.36339
G0 F9000 X51.614 Y63.211
G1 F900 X56.785 Y68.382 E21.72823
G0 F9000 X56.426 Y68.588
G1 F900 X51.407 Y63.569 E22.08235
G0 F9000 X51.200 Y63.928
G1 F900 X56.067 Y68.795 E22.42574
G0 F9000 X55.528 Y68.821
G1 F900 X51.176 Y64.470 E22.73276
G0 F9000 X51.176 Y65.036
G1 F900 X54.962 Y68.821 E22.99985
G0 F9000 X54.397 Y68.821
G1 F900 X51.176 Y65.601 E23.22707
G0 F9000 X51.371 Y66.361
G1 F900 X53.636 Y68.626 E23.38688
G0 F9000 X52.302 Y67.858
G1 F900 X52.144 Y67.701 E23.39799
G0 F9000 X58.447 Y63.821
G1 F900 X55.802 Y61.176 E23.58461
G0 F9000 X56.832 Y61.640
G1 F900 X58.353 Y63.162 E23.69196
;LAYER:1
M106 S63
G0 F9000 X58.460 Y63.957 Z0.500
;TYPE:WALL-INNER
G1 F960 X59.247 Y65.000 E23.73542
G1 X58.457 Y66.043 E23.77894
G1 X58.939 Y66.104 E23.79510
G1 X57.898 Y67.905 E23.86429
G1 X56.059 Y68.963 E23.93485
G1 X53.939 Y68.963 E24.00536
G1 X52.100 Y67.903 E24.07596
G1 X51.037 Y66.064 E24.14661
G1 X51.037 Y63.936 E24.21739
G1 X52.098 Y62.098 E24.28797
G1 X53.935 Y61.037 E24.35853
G1 X56.064 Y61.037 E24.42934
G1 X57.900 Y62.097 E24.49985
G1 X58.939 Y63.895 E24.56892
G1 X58.460 Y63.957 E24.58499
G0 F9000 X59.692 Y63.798
G1 F960 X59.293 Y63.850 E24.59837
G1 X60.241 Y63.452 E24.63257
G1 X60.424 Y63.377 E24.63914
G1 X60.632 Y63.360 E24.64609
G1 X60.987 Y63.397 E24.65796
G1 X60.753 Y63.568 E24.66760
G1 X60.521 Y63.687 E24.67627
G1 X59.692 Y63.798 E24.70409
G0 F9000 X58.644 Y64.034
G0 X58.643 Y65.966
G0 X60.321 Y66.280
G1 F960 X60.513 Y66.310 E24.71055
G1 X60.802 Y66.462 E24.72141
G1 X60.985 Y66.609 E24.72922
G1 X60.627 Y66.638 E24.74117
G1 X60.430 Y66.622 E24.74774
G1 X59.287 Y66.149 E24.78888
G1 X60.321 Y66.280 E24.82355
G0 F9000 X59.007 Y66.086
G0 X57.943 Y67.926
G0 X58.942 Y68.749
G1 F960 X59.152 Y68.935 E24.83288
G1 X59.225 Y69.041 E24.83716
G1 X59.385 Y69.382 E24.84969
G1 X59.311 Y69.358 E24.85227
G1 X58.924 Y69.148 E24.86692
G1 X58.873 Y69.105 E24.86914
G1 X58.134 Y68.134 E24.90972
G1 X58.942 Y68.749 E24.94350
G0 F9000 X57.927 Y67.945
G0 X56.085 Y69.006
G0 X56.637 Y70.542
G1 F960 X56.640 Y70.623 E24.94619
G1 X56.602 Y70.985 E24.95830
G1 X56.338 Y70.587 E24.97418
G1 X56.305 Y70.500 E24.97728
G1 X56.147 Y69.285 E25.01803
G1 X56.620 Y70.412 E25.05868
G1 X56.637 Y70.542 E25.06304
G0 F9000 X56.061 Y69.013
G0 X53.937 Y69.013
G0 X53.692 Y69.666
G1 F960 X53.852 Y69.288 E25.07669
G1 X53.700 Y70.480 E25.11666
G1 X53.570 Y70.754 E25.12675
G1 X53.391 Y70.985 E25.13647
G1 X53.364 Y70.780 E25.14335
