;Generated with Cura_SteamEngine 15.05
; Default start code
G28 ; Home extruder
G1 Z15 F100
M107 ; Turn off fan
G90 ; Absolute positioning
M82 ; Extruder in absolute mode
M190 S50
; Activate all used extruder
M104 T0 S190
G92 E0 ; Reset extruder position
; Wait for all used extruders to reach temperature
M109 T0 S190
;Layer count: 10
;LAYER:0
M107
G0 F9000 X48.527 Y55.920 Z0.300
G0 X49.591 Y55.903
;TYPE:SKIRT
G1 F900 X51.100 Y54.660 E0.09754
G1 X53.352 Y54.056 E0.21386
G1 X54.876 Y54.422 E0.29205
G1 X56.781 Y54.091 E0.38852
G1 X58.904 Y54.663 E0.49821
G1 X60.244 Y55.767 E0.58483
G1 X62.037 Y56.484 E0.68117
G1 X63.562 Y58.009 E0.78877
G1 X64.169 Y59.678 E0.87737
G1 X65.339 Y61.099 E0.96921
G1 X65.943 Y63.351 E1.08553
G1 X65.582 Y64.855 E1.16270
G1 X65.905 Y66.795 E1.26081
G1 X65.320 Y68.964 E1.37289
G1 X64.097 Y70.362 E1.46556
G1 X64.078 Y71.474 E1.52105
G1 X61.929 Y73.623 E1.67267
G1 X60.388 Y74.113 E1.75335
G1 X58.872 Y75.361 E1.85131
G1 X55.448 Y76.215 E2.02737
G1 X54.790 Y75.609 E2.07200
G1 X53.300 Y75.932 E2.14806
G1 X51.093 Y75.332 E2.26216
G1 X49.590 Y74.095 E2.35928
G1 X48.523 Y74.075 E2.41252
G1 X45.921 Y71.473 E2.59611
G1 X45.903 Y70.362 E2.65154
G1 X44.680 Y68.964 E2.74421
G1 X44.060 Y66.671 E2.86272
G1 X44.456 Y64.952 E2.95072
G1 X43.892 Y63.974 E3.00705
G1 X44.662 Y61.098 E3.15559
G1 X45.831 Y59.679 E3.24731
G1 X46.438 Y58.009 E3.33596
G1 X48.527 Y55.920 E3.48335
G1 X49.591 Y55.903 E3.53644
G0 F9000 X49.802 Y56.299
G1 F900 X49.823 Y56.229 E3.54009
G1 X51.287 Y55.024 E3.63468
G1 X53.357 Y54.469 E3.74160
G1 X54.876 Y54.834 E3.81954
G1 X54.884 Y54.826 E3.82011
G1 X56.762 Y54.500 E3.91520
G1 X58.716 Y55.027 E4.01617
G1 X60.097 Y56.164 E4.10542
G1 X60.140 Y56.156 E4.10760
G1 X61.812 Y56.825 E4.19745
G1 X63.216 Y58.229 E4.29651
G1 X63.816 Y59.878 E4.38405
G1 X64.975 Y61.286 E4.47503
G1 X65.530 Y63.356 E4.58195
G1 X65.167 Y64.868 E4.65953
G1 X65.180 Y64.882 E4.66049
G1 X65.496 Y66.775 E4.75623
G1 X64.958 Y68.771 E4.85937
G1 X63.714 Y70.192 E4.95359
G1 X63.700 Y70.196 E4.95432
G1 X63.680 Y71.306 E5.00970
G1 X61.715 Y73.271 E5.14835
G1 X60.186 Y73.757 E5.22839
G1 X60.185 Y73.762 E5.22864
G1 X58.688 Y74.995 E5.32540
G1 X55.561 Y75.775 E5.48619
G1 X54.909 Y75.174 E5.53043
G1 X53.311 Y75.521 E5.61201
G1 X51.281 Y74.969 E5.71696
G1 X49.825 Y73.770 E5.81106
G1 X49.804 Y73.699 E5.81476
G1 X48.692 Y73.678 E5.87025
G1 X46.318 Y71.305 E6.03771
G1 X46.300 Y70.203 E6.09270
G1 X46.293 Y70.201 E6.09306
G1 X45.042 Y68.771 E6.18785
G1 X44.472 Y66.663 E6.29679
G1 X44.882 Y64.889 E6.38763
G1 X44.321 Y63.918 E6.44358
G1 X45.025 Y61.285 E6.57956
G1 X46.183 Y59.880 E6.67039
G1 X46.784 Y58.229 E6.75805
G1 X48.695 Y56.317 E6.89291
G1 X49.802 Y56.299 E6.94815
G0 F9000 X50.101 Y56.694
G1 F900 X50.171 Y56.461 E6.96029
G1 X51.475 Y55.388 E7.04454
G1 X53.363 Y54.882 E7.14205
G1 X54.994 Y55.273 E7.22573
G1 X55.071 Y55.200 E7.23102
G1 X56.743 Y54.909 E7.31570
G1 X58.529 Y55.390 E7.40797
G1 X59.829 Y56.461 E7.49201
G1 X59.874 Y56.611 E7.49982
G1 X60.099 Y56.570 E7.51123
G1 X61.587 Y57.166 E7.59120
G1 X62.871 Y58.449 E7.68176
G1 X63.428 Y59.981 E7.76308
G1 X63.399 Y60.128 E7.77056
G1 X63.538 Y60.170 E7.77780
G1 X64.611 Y61.474 E7.86205
G1 X65.117 Y63.362 E7.95957
G1 X64.727 Y64.987 E8.04294
G1 X64.806 Y65.069 E8.04863
G1 X65.087 Y66.755 E8.13390
G1 X64.596 Y68.577 E8.22804
G1 X63.488 Y69.843 E8.31198
G1 X63.305 Y69.898 E8.32151
G1 X63.283 Y71.137 E8.38333
G1 X61.501 Y72.919 E8.50906
G1 X59.950 Y73.413 E8.59027
G1 X59.875 Y73.398 E8.59409
G1 X59.836 Y73.531 E8.60101
G1 X58.503 Y74.629 E8.68717
G1 X55.673 Y75.335 E8.83268
G1 X54.999 Y74.712 E8.87847
G1 X54.952 Y74.755 E8.88165
G1 X53.321 Y75.109 E8.96492
G1 X51.469 Y74.605 E9.06067
G1 X50.173 Y73.538 E9.14442
G1 X50.102 Y73.304 E9.15662
G1 X48.861 Y73.281 E9.21855
G1 X46.716 Y71.136 E9.36989
G1 X46.695 Y69.902 E9.43146
G1 X46.518 Y69.850 E9.44067
G1 X45.404 Y68.577 E9.52506
G1 X44.885 Y66.655 E9.62438
G1 X45.276 Y64.961 E9.71112
G1 X45.345 Y64.891 E9.71602
G1 X44.750 Y63.861 E9.77537
G1 X45.389 Y61.473 E9.89870
G1 X46.462 Y60.170 E9.98291
G1 X46.601 Y60.128 E9.99015
G1 X46.572 Y59.981 E9.99763
G1 X47.129 Y58.449 E10.07896
G1 X48.864 Y56.715 E10.20134
G1 X50.101 Y56.694 E10.26306
G1 F2400 E6.26306
G0 F9000 X50.682 Y60.786
;TYPE:WALL-INNER
G1 F2400 E10.26306
G1 F900 X50.610 Y60.612 E10.27245
G1 X50.964 Y60.776 E10.29192
G1 X51.128 Y60.895 E10.30203
G1 X51.864 Y61.863 E10.36269
G1 X50.897 Y61.128 E10.42329
G1 X50.829 Y61.042 E10.42876
G1 X50.682 Y60.786 E10.44349
G0 F9000 X52.098 Y62.098
G1 F900 X53.936 Y61.036 E10.54939
G1 X56.063 Y61.036 E10.65551
G1 X57.902 Y62.098 E10.76146
G1 X58.941 Y63.897 E10.86510
G1 X58.463 Y63.961 E10.88916
G1 X59.247 Y65.000 E10.95410
G1 X58.458 Y66.043 E11.01935
G1 X58.939 Y66.104 E11.04354
G1 X57.899 Y67.904 E11.14725
G1 X56.062 Y68.962 E11.25301
G1 X53.937 Y68.962 E11.35903
G1 X52.101 Y67.904 E11.46475
G1 X51.037 Y66.063 E11.57083
G1 X51.037 Y63.936 E11.67695
G1 X52.098 Y62.098 E11.78283
G0 F9000 X53.590 Y63.510
G1 F900 X52.065 Y63.510 E11.85891
G1 X52.065 Y66.559 E12.01103
G1 X53.590 Y66.559 E12.08711
G1 X53.590 Y68.085 E12.16324
G1 X56.640 Y68.085 E12.31541
G1 X56.640 Y66.559 E12.39154
G1 X58.115 Y66.559 E12.46513
G1 X58.115 Y63.510 E12.61724
G1 X56.640 Y63.510 E12.69083
G1 X56.640 Y62.034 E12.76447
G1 X53.590 Y62.034 E12.91663
G1 X53.590 Y63.510 E12.99027
G0 F9000 X53.914 Y60.990
G0 X53.381 Y59.590
G1 F900 X53.366 Y59.493 E12.99517
G1 X53.360 Y59.351 E13.00226
G1 X53.392 Y59.003 E13.01970
G1 X53.486 Y59.119 E13.02714
G1 X53.628 Y59.344 E13.04042
G1 X53.653 Y59.393 E13.04316
G1 X53.694 Y59.494 E13.04860
G1 X53.852 Y60.712 E13.10988
G1 X53.381 Y59.590 E13.17058
G0 F9000 X53.938 Y60.986
G0 X56.063 Y60.986
G0 X56.369 Y59.352
G1 F900 X56.481 Y59.168 E13.18133
G1 X56.609 Y59.013 E13.19136
G1 X56.640 Y59.352 E13.20834
G1 X56.621 Y59.575 E13.21951
G1 X56.149 Y60.709 E13.28079
G1 X56.302 Y59.507 E13.34124
G1 X56.369 Y59.352 E13.34967
G0 F9000 X56.087 Y60.992
G0 X57.927 Y62.054
G0 X58.868 Y60.901
G1 F900 X59.011 Y60.791 E13.35867
G1 X59.370 Y60.615 E13.37861
G1 X59.387 Y60.609 E13.37951
G1 X59.207 Y60.986 E13.40036
G1 X59.096 Y61.128 E13.40935
G1 X58.133 Y61.866 E13.46988
G1 X58.868 Y60.901 E13.53040
G0 F9000 X57.945 Y62.073
G0 X59.008 Y63.913
G0 X60.410 Y63.380
G1 F900 X60.655 Y63.360 E13.54266
G1 X60.989 Y63.390 E13.55939
G1 X60.667 Y63.621 E13.57916
G1 X60.524 Y63.687 E13.58702
G1 X59.282 Y63.852 E13.64953
G1 X60.410 Y63.380 E13.71053
G0 F9000 X58.646 Y64.037
G0 X58.642 Y65.966
G0 X60.640 Y66.364
G1 F900 X60.835 Y66.483 E13.72193
G1 X60.987 Y66.608 E13.73175
G1 X60.759 Y66.636 E13.74321
G1 X60.644 Y66.639 E13.74895
G1 X60.421 Y66.619 E13.76012
G1 X59.291 Y66.149 E13.82118
G1 X60.499 Y66.303 E13.88193
G1 X60.640 Y66.364 E13.88959
G0 F9000 X59.007 Y66.086
G0 X57.945 Y67.926
G0 X59.103 Y68.872
G1 F900 X59.220 Y69.029 E13.89936
G1 X59.391 Y69.391 E13.91934
G1 X59.204 Y69.312 E13.92946
G1 X58.974 Y69.182 E13.94265
G1 X58.863 Y69.092 E13.94978
G1 X58.133 Y68.133 E14.00990
G1 X59.103 Y68.872 E14.07074
G0 F9000 X57.927 Y67.945
G0 X56.086 Y69.008
G0 X56.633 Y70.497
G1 F900 X56.640 Y70.634 E14.07759
G1 X56.607 Y70.993 E14.09557
G1 X56.371 Y70.653 E14.11622
G1 X56.304 Y70.501 E14.12451
G1 X56.149 Y69.287 E14.18557
G1 X56.616 Y70.400 E14.24578
G1 X56.633 Y70.497 E14.25070
G0 F9000 X56.063 Y69.012
G0 X53.937 Y69.012
G0 X53.681 Y70.539
G1 F900 X53.633 Y70.646 E14.25655
G1 X53.625 Y70.661 E14.25740
G1 X53.462 Y70.909 E14.27220
G1 X53.391 Y70.988 E14.27750
G1 X53.360 Y70.627 E14.29558
G1 X53.380 Y70.414 E14.30625
G1 X53.851 Y69.287 E14.36719
G1 X53.699 Y70.486 E14.42749
G1 X53.681 Y70.539 E14.43028
G0 F9000 X53.914 Y69.006
G0 X52.073 Y67.945
G0 X51.135 Y69.095
G1 F900 X50.956 Y69.228 E14.44141
G1 X50.611 Y69.390 E14.46042
G1 X50.795 Y69.005 E14.48171
G1 X50.905 Y68.864 E14.49063
G1 X51.867 Y68.132 E14.55094
G1 X51.135 Y69.095 E14.61129
G0 F9000 X52.055 Y67.926
G0 X50.992 Y66.085
G0 X49.600 Y66.615
G1 F900 X49.577 Y66.622 E14.61249
G1 X49.351 Y66.638 E14.62379
G1 X49.003 Y66.608 E14.64122
G1 X49.359 Y66.365 E14.66272
G1 X49.504 Y66.302 E14.67061
G1 X50.706 Y66.150 E14.73105
G1 X49.600 Y66.615 E14.79091
G0 F9000 X50.987 Y66.063
G0 X50.987 Y63.935
G0 X49.520 Y63.700
G1 F900 X49.360 Y63.634 E14.79955
G1 X49.088 Y63.458 E14.81571
G1 X49.011 Y63.391 E14.82080
G1 X49.101 Y63.377 E14.82535
G1 X49.376 Y63.360 E14.83909
G1 X49.574 Y63.378 E14.84901
G1 X50.717 Y63.851 E14.91073
G1 X49.520 Y63.700 E14.97092
G0 F9000 X49.449 Y64.094
;TYPE:WALL-OUTER
G1 F900 X49.349 Y64.067 E14.97609
G1 X49.171 Y63.988 E14.98580
G1 X48.844 Y63.776 E15.00524
G1 X48.402 Y63.366 E15.03532
G1 X48.469 Y63.116 E15.04823
G1 X48.906 Y63.002 E15.07077
G1 X49.388 Y62.959 E15.09491
G1 X49.684 Y62.991 E15.10976
G1 X50.844 Y63.471 E15.17239
G1 X51.598 Y62.163 E15.24772
G1 X50.637 Y61.433 E15.30792
G1 X50.610 Y61.409 E15.30973
G1 X50.496 Y61.267 E15.31881
G1 X50.324 Y60.967 E15.33606
G1 X50.216 Y60.698 E15.35053
G1 X50.101 Y60.285 E15.37191
G1 X50.286 Y60.100 E15.38497
G1 X50.735 Y60.229 E15.40827
G1 X51.246 Y60.480 E15.43668
G1 X51.352 Y60.559 E15.44327
G1 X51.434 Y60.637 E15.44892
G1 X52.165 Y61.597 E15.50912
G1 X53.473 Y60.842 E15.58447
G1 X53.005 Y59.730 E15.64466
G1 X52.969 Y59.544 E15.65411
G1 X52.959 Y59.336 E15.66450
G1 X52.988 Y58.992 E15.68172
G1 X53.041 Y58.727 E15.69520
G1 X53.119 Y58.467 E15.70875
G1 X53.362 Y58.402 E15.72130
G1 X53.653 Y58.690 E15.74172
G1 X53.810 Y58.885 E15.75421
G1 X54.020 Y59.233 E15.77449
G1 X54.075 Y59.371 E15.78190
G1 X54.245 Y60.636 E15.84558
G1 X55.755 Y60.636 E15.92091
G1 X55.907 Y59.441 E15.98101
G1 X55.935 Y59.340 E15.98624
G1 X56.015 Y59.165 E15.99584
G1 X56.157 Y58.931 E16.00950
G1 X56.449 Y58.578 E16.03235
G1 X56.636 Y58.401 E16.04520
G1 X56.883 Y58.468 E16.05797
G1 X56.987 Y58.858 E16.07810
G1 X57.002 Y58.931 E16.08182
G1 X57.041 Y59.365 E16.10356
G1 X57.017 Y59.638 E16.11723
G1 X57.007 Y59.687 E16.11973
G1 X56.528 Y60.842 E16.18211
G1 X57.835 Y61.597 E16.25742
G1 X58.569 Y60.634 E16.31782
G1 X58.794 Y60.454 E16.33220
G1 X59.324 Y60.207 E16.36137
G1 X59.714 Y60.100 E16.38155
G1 X59.899 Y60.285 E16.39460
G1 X59.771 Y60.732 E16.41780
G1 X59.549 Y61.198 E16.44355
G1 X59.381 Y61.413 E16.45716
G1 X58.402 Y62.164 E16.51872
G1 X59.157 Y63.471 E16.59402
G1 X60.279 Y63.001 E16.65471
G1 X60.398 Y62.975 E16.66079
G1 X60.665 Y62.959 E16.67414
G1 X61.187 Y63.020 E16.70036
G1 X61.532 Y63.118 E16.71825
G1 X61.597 Y63.361 E16.73080
G1 X61.314 Y63.647 E16.75087
G1 X60.852 Y63.976 E16.77917
G1 X60.658 Y64.064 E16.78980
G1 X60.613 Y64.079 E16.79216
G1 X59.196 Y64.267 E16.86348
G1 X59.749 Y65.000 E16.90929
G1 X59.194 Y65.734 E16.95520
G1 X60.572 Y65.909 E17.02450
G1 X60.767 Y65.980 E17.03485
G1 X61.063 Y66.154 E17.05198
G1 X61.406 Y66.434 E17.07407
G1 X61.598 Y66.635 E17.08794
G1 X61.531 Y66.882 E17.10071
G1 X61.141 Y66.987 E17.12086
G1 X60.784 Y67.035 E17.13883
G1 X60.630 Y67.040 E17.14651
G1 X60.359 Y67.016 E17.16009
G1 X60.303 Y67.004 E17.16294
G1 X59.157 Y66.527 E17.22487
G1 X58.402 Y67.834 E17.30018
G1 X59.355 Y68.560 E17.35995
G1 X59.438 Y68.644 E17.36584
G1 X59.511 Y68.743 E17.37198
G1 X59.569 Y68.833 E17.37732
G1 X59.792 Y69.324 E17.40422
G1 X59.867 Y69.579 E17.41748
G1 X59.899 Y69.714 E17.42440
G1 X59.715 Y69.898 E17.43739
G1 X59.244 Y69.763 E17.46183
G1 X59.030 Y69.673 E17.47341
G1 X58.746 Y69.513 E17.48968
G1 X58.566 Y69.362 E17.50140
G1 X57.836 Y68.402 E17.56157
G1 X56.527 Y69.156 E17.63693
G1 X56.993 Y70.263 E17.69685
G1 X57.031 Y70.457 E17.70672
G1 X57.041 Y70.648 E17.71626
G1 X57.010 Y71.017 E17.73473
G1 X56.978 Y71.193 E17.74366
G1 X56.881 Y71.529 E17.76111
G1 X56.631 Y71.592 E17.77397
G1 X56.365 Y71.330 E17.79260
G1 X56.190 Y71.114 E17.80646
G1 X55.963 Y70.727 E17.82885
G1 X55.909 Y70.568 E17.83723
G1 X55.755 Y69.362 E17.89788
G1 X54.245 Y69.362 E17.97322
G1 X54.095 Y70.547 E18.03281
G1 X54.055 Y70.682 E18.03983
G1 X54.042 Y70.718 E18.04174
G1 X54.017 Y70.770 E18.04462
G1 X53.779 Y71.154 E18.06716
G1 X53.467 Y71.505 E18.09059
G1 X53.365 Y71.598 E18.09748
G1 X53.117 Y71.530 E18.11031
G1 X53.030 Y71.224 E18.12618
G1 X52.975 Y70.904 E18.14238
G1 X52.960 Y70.612 E18.15696
G1 X53.001 Y70.285 E18.17340
G1 X53.472 Y69.156 E18.23444
G1 X52.164 Y68.402 E18.30976
G1 X51.434 Y69.362 E18.36993
G1 X51.243 Y69.519 E18.38226
G1 X50.988 Y69.664 E18.39690
G1 X50.678 Y69.791 E18.41361
G1 X50.285 Y69.898 E18.43393
G1 X50.101 Y69.714 E18.44691
G1 X50.200 Y69.350 E18.46573
G1 X50.206 Y69.329 E18.46682
G1 X50.423 Y68.845 E18.49329
G1 X50.635 Y68.567 E18.51073
G1 X51.598 Y67.834 E18.57111
G1 X50.843 Y66.526 E18.64645
G1 X49.734 Y66.993 E18.70649
G1 X49.624 Y67.020 E18.71214
G1 X49.346 Y67.039 E18.72604
G1 X48.985 Y67.010 E18.74411
G1 X48.751 Y66.963 E18.75602
G1 X48.467 Y66.879 E18.77079
G1 X48.402 Y66.638 E18.78324
G1 X48.801 Y66.256 E18.81080
G1 X49.161 Y66.016 E18.83239
G1 X49.396 Y65.917 E18.84511
G1 X49.432 Y65.908 E18.84696
G1 X50.637 Y65.755 E18.90756
G1 X50.637 Y64.244 E18.98295
G1 X49.449 Y64.094 E19.04269
G0 F9000 X49.508 Y63.797
G0 X50.993 Y63.912
G0 X52.465 Y63.610
G0 X52.465 Y63.910
G1 F900 X52.465 Y66.159 E19.15489
G1 X53.990 Y66.159 E19.23097
G1 X53.990 Y67.685 E19.30710
G1 X56.240 Y67.685 E19.41936
G1 X56.240 Y66.159 E19.49549
G1 X57.715 Y66.159 E19.56908
G1 X57.715 Y63.910 E19.68128
G1 X56.240 Y63.910 E19.75487
G1 X56.240 Y62.434 E19.82851
G1 X53.990 Y62.434 E19.94076
G1 X53.990 Y63.910 E20.01440
G1 X52.465 Y63.910 E20.09048
G0 F9000 X52.465 Y63.610
G0 X52.124 Y63.569
G0 X52.124 Y66.500
G0 X53.649 Y68.026
G0 X56.581 Y68.026
G0 X56.798 Y66.697
;TYPE:FILL
G1 F900 X57.835 Y67.735 E20.16368
G0 F9000 X57.504 Y67.969
G1 F900 X56.779 Y67.245 E20.21480
G0 F9000 X56.779 Y67.810
G1 F900 X57.144 Y68.175 E20.24055
G0 F9000 X58.042 Y67.376
G1 F900 X57.364 Y66.697 E20.28842
G0 F9000 X57.929 Y66.697
G1 F900 X58.353 Y66.838 E20.31105
G1 X58.406 Y66.326 E20.32530
G1 X58.498 Y66.134 E20.33271
G1 X58.416 Y65.770 E20.33811
G1 X58.254 Y65.326 E20.36169
G0 F9000 X58.254 Y64.760
G1 F900 X58.822 Y65.328 E20.40177
G0 F9000 X59.066 Y65.005
G1 F900 X58.254 Y64.194 E20.45902
;TYPE:SKIN
G1 X59.066 Y65.005 E20.51628
G0 F9000 X58.822 Y65.328
G1 F900 X58.254 Y64.760 E20.55635
G0 F9000 X58.254 Y65.326
G1 F900 X58.455 Y65.809 E20.57919
G1 X58.406 Y66.043 E20.58462
G1 X58.560 Y66.480 E20.59196
G1 X58.091 Y66.577 E20.60623
G1 X58.250 Y67.018 E20.62962
G0 F9000 X58.042 Y67.376
G1 F900 X57.364 Y66.697 E20.67749
G0 F9000 X56.798 Y66.697
G1 F900 X57.835 Y67.735 E20.75069
G0 F9000 X57.504 Y67.969
G1 F900 X56.779 Y67.245 E20.80181
G0 F9000 X56.779 Y67.810
G1 F900 X56.964 Y68.278 E20.82755
G1 X56.527 Y68.406 E20.83868
G1 X56.062 Y68.224 E20.86359
G0 F9000 X55.496 Y68.224
G1 F900 X56.067 Y68.795 E20.90388
G0 F9000 X55.527 Y68.821
G1 F900 X54.930 Y68.224 E20.94600
G0 F9000 X54.365 Y68.224
G1 F900 X54.961 Y68.821 E20.98809
G0 F9000 X54.396 Y68.821
G1 F900 X53.799 Y68.224 E21.03021
G0 F9000 X53.636 Y68.626
G1 F900 X51.372 Y66.362 E21.18994
G0 F9000 X51.924 Y66.349
G1 F900 X51.176 Y65.601 E21.24272
G0 F9000 X51.176 Y65.036
G1 F900 X51.924 Y65.784 E21.29550
G0 F9000 X51.924 Y65.218
G1 F900 X51.176 Y64.470 E21.34827
G0 F9000 X51.201 Y63.929
G1 F900 X51.924 Y64.652 E21.39928
G0 F9000 X51.924 Y64.087
G1 F900 X51.511 Y63.390 E21.43566
G1 X52.130 Y63.444 E21.45744
G1 X51.822 Y62.853 E21.49069
G0 F9000 X52.029 Y62.494
G1 F900 X52.903 Y63.368 E21.55235
G0 F9000 X53.450 Y63.349
G1 F900 X52.263 Y62.163 E21.63607
G0 F9000 X52.622 Y61.955
G1 F900 X53.450 Y62.784 E21.69452
G0 F9000 X53.450 Y62.218
G1 F900 X53.159 Y61.644 E21.72767
G1 X53.693 Y61.613 E21.75249
G1 X54.256 Y61.893 E21.78386
G0 F9000 X54.821 Y61.893
G1 F900 X54.104 Y61.175 E21.83448
G0 F9000 X54.669 Y61.175
G1 F900 X55.387 Y61.893 E21.88514
G0 F9000 X55.953 Y61.893
G1 F900 X55.235 Y61.175 E21.93580
G0 F9000 X55.801 Y61.175
G1 F900 X56.519 Y61.893 E21.98646
G0 F9000 X56.779 Y62.153
G1 F900 X57.994 Y63.368 E22.07218
G0 F9000 X58.254 Y63.629
G1 F900 X58.446 Y63.820 E22.08569
G0 F9000 X58.359 Y63.167
G1 F900 X56.833 Y61.641 E22.19336
G0 F9000 X56.779 Y62.719
G1 F900 X57.429 Y63.368 E22.23919
G0 F9000 X56.863 Y63.368
G1 F900 X56.779 Y63.285 E22.24508
