;Generated with Cura_SteamEngine 15.05
; Default start code
G28 ; Home extruder
G1 Z15 F100
M107 ; Turn off fan
G90 ; Absolute positioning
M82 ; Extruder in absolute mode
M190 S50
; Activate all used extruder
M104 T0 S190
G92 E0 ; Reset extruder position
; Wait for all used extruders to reach temperature
M109 T0 S190
;Layer count: 10
;LAYER:0
M107
G0 F9000 X48.018 Y56.429 Z0.300
;TYPE:SKIRT
G1 F900 X49.703 Y55.817 E0.08944
G1 X51.114 Y54.654 E0.18066
G1 X53.367 Y54.056 E0.29696
G1 X54.898 Y54.423 E0.37550
G1 X56.796 Y54.093 E0.47162
G1 X58.918 Y54.670 E0.58133
G1 X60.269 Y55.783 E0.66866
G1 X62.045 Y56.493 E0.76408
G1 X63.570 Y58.018 E0.87168
G1 X64.182 Y59.703 E0.96111
G1 X65.345 Y61.114 E1.05234
G1 X65.943 Y63.367 E1.16863
G1 X65.576 Y64.898 E1.24718
G1 X65.906 Y66.796 E1.34329
G1 X65.329 Y68.918 E1.45300
G1 X64.216 Y70.269 E1.54033
G1 X63.506 Y72.045 E1.63575
G1 X61.981 Y73.570 E1.74335
G1 X60.156 Y74.234 E1.84024
G1 X59.590 Y75.158 E1.89430
G1 X56.632 Y75.943 E2.04698
G1 X55.101 Y75.576 E2.12553
G1 X53.203 Y75.906 E2.22164
G1 X51.081 Y75.329 E2.33135
G1 X49.730 Y74.216 E2.41868
G1 X47.954 Y73.506 E2.51410
G1 X46.429 Y71.981 E2.62170
G1 X45.765 Y70.156 E2.71859
G1 X44.841 Y69.590 E2.77265
G1 X43.774 Y65.570 E2.98015
G1 X44.382 Y64.864 E3.02664
G1 X44.093 Y63.203 E3.11075
G1 X44.670 Y61.081 E3.22046
G1 X45.912 Y59.573 E3.31793
G1 X45.930 Y58.517 E3.37062
G1 X48.018 Y56.429 E3.51794
G0 F9000 X48.238 Y56.775
G1 F900 X49.903 Y56.169 E3.60634
G1 X51.301 Y55.018 E3.69668
G1 X53.372 Y54.468 E3.80358
G1 X54.891 Y54.833 E3.88152
G1 X54.895 Y54.829 E3.88181
G1 X56.777 Y54.502 E3.97711
G1 X58.730 Y55.033 E4.07808
G1 X60.112 Y56.172 E4.16743
G1 X60.148 Y56.165 E4.16926
G1 X61.820 Y56.834 E4.25910
G1 X63.224 Y58.238 E4.35816
G1 X63.830 Y59.903 E4.44656
G1 X64.981 Y61.301 E4.53690
G1 X65.531 Y63.372 E4.64381
G1 X65.166 Y64.891 E4.72175
G1 X65.170 Y64.895 E4.72203
G1 X65.497 Y66.777 E4.81733
G1 X64.966 Y68.730 E4.91830
G1 X63.827 Y70.112 E5.00765
G1 X63.834 Y70.148 E5.00948
G1 X63.165 Y71.820 E5.09933
G1 X61.761 Y73.224 E5.19839
G1 X60.041 Y73.850 E5.28970
G1 X59.934 Y73.829 E5.29514
G1 X59.332 Y74.812 E5.35265
G1 X56.627 Y75.531 E5.49229
G1 X55.108 Y75.166 E5.57023
G1 X55.104 Y75.170 E5.57051
G1 X53.222 Y75.497 E5.66581
G1 X51.269 Y74.966 E5.76679
G1 X49.887 Y73.827 E5.85613
G1 X49.851 Y73.834 E5.85796
G1 X48.179 Y73.165 E5.94781
G1 X46.775 Y71.761 E6.04687
G1 X46.149 Y70.041 E6.13819
G1 X46.170 Y69.934 E6.14363
G1 X45.187 Y69.332 E6.20114
G1 X44.214 Y65.671 E6.39012
G1 X44.808 Y64.982 E6.43551
G1 X44.502 Y63.222 E6.52463
G1 X45.033 Y61.269 E6.62561
G1 X46.233 Y59.812 E6.71978
G1 X46.309 Y59.789 E6.72374
G1 X46.328 Y58.685 E6.77883
G1 X48.238 Y56.775 E6.91359
G0 F9000 X48.458 Y57.120
G1 F900 X49.990 Y56.563 E6.99491
G1 X50.141 Y56.593 E7.00259
G1 X50.182 Y56.458 E7.00963
G1 X51.488 Y55.382 E7.09405
G1 X53.377 Y54.881 E7.19156
G1 X55.009 Y55.272 E7.27528
G1 X55.082 Y55.203 E7.28029
G1 X56.758 Y54.911 E7.36517
G1 X58.542 Y55.397 E7.45742
G1 X59.840 Y56.465 E7.54128
G1 X59.887 Y56.620 E7.54936
G1 X60.107 Y56.579 E7.56052
G1 X61.595 Y57.175 E7.64049
G1 X62.879 Y58.458 E7.73105
G1 X63.436 Y59.990 E7.81238
G1 X63.406 Y60.141 E7.82006
G1 X63.541 Y60.182 E7.82710
G1 X64.617 Y61.488 E7.91152
G1 X65.118 Y63.377 E8.00902
G1 X64.727 Y65.009 E8.09274
G1 X64.796 Y65.082 E8.09775
G1 X65.088 Y66.758 E8.18263
G1 X64.602 Y68.542 E8.27488
G1 X63.534 Y69.840 E8.35874
G1 X63.379 Y69.887 E8.36682
G1 X63.420 Y70.107 E8.37798
G1 X62.824 Y71.595 E8.45795
G1 X61.541 Y72.879 E8.54851
G1 X60.009 Y73.436 E8.62984
G1 X59.739 Y73.382 E8.64358
G1 X59.075 Y74.467 E8.70704
G1 X56.622 Y75.118 E8.83366
G1 X54.990 Y74.727 E8.91738
G1 X54.917 Y74.796 E8.92239
G1 X53.241 Y75.088 E9.00727
G1 X51.457 Y74.602 E9.09952
G1 X50.159 Y73.534 E9.18338
G1 X50.112 Y73.379 E9.19146
G1 X49.892 Y73.420 E9.20262
G1 X48.404 Y72.824 E9.28259
G1 X47.120 Y71.541 E9.37315
G1 X46.563 Y70.009 E9.45448
G1 X46.617 Y69.739 E9.46821
G1 X45.532 Y69.075 E9.53168
G1 X44.655 Y65.773 E9.70213
G1 X45.307 Y65.015 E9.75201
G1 X45.200 Y64.899 E9.75988
G1 X44.911 Y63.241 E9.84385
G1 X45.397 Y61.457 E9.93609
G1 X46.465 Y60.159 E10.01995
G1 X46.704 Y60.087 E10.03241
G1 X46.725 Y58.854 E10.09393
G1 X48.458 Y57.120 E10.21624
G1 F2400 E6.21624
G0 F9000 X50.695 Y60.791
;TYPE:WALL-INNER
G1 F2400 E10.21624
G1 F900 X50.617 Y60.604 E10.22635
G1 X50.995 Y60.786 E10.24728
G1 X51.140 Y60.898 E10.25642
G1 X51.867 Y61.856 E10.31642
G1 X50.916 Y61.132 E10.37605
G1 X50.833 Y61.033 E10.38249
G1 X50.695 Y60.791 E10.39639
G0 F9000 X52.101 Y62.095
G1 F900 X53.944 Y61.034 E10.50249
G1 X55.465 Y61.037 E10.57837
G1 X56.075 Y61.043 E10.60880
G1 X57.906 Y62.102 E10.71433
G1 X58.941 Y63.903 E10.81796
G1 X58.466 Y63.964 E10.84186
G1 X59.248 Y65.006 E10.90685
G1 X58.459 Y66.047 E10.97202
G1 X58.937 Y66.109 E10.99607
G1 X57.899 Y67.903 E11.09947
G1 X56.057 Y68.965 E11.20555
G1 X54.534 Y68.962 E11.28153
G1 X53.924 Y68.956 E11.31197
G1 X52.095 Y67.898 E11.41738
G1 X51.034 Y66.057 E11.52339
G1 X51.037 Y64.534 E11.59938
G1 X51.043 Y63.922 E11.62991
G1 X52.101 Y62.095 E11.73524
G0 F9000 X53.593 Y63.507
G1 F900 X52.845 Y63.506 E11.77256
G1 X52.092 Y63.501 E11.81013
G1 X52.089 Y65.722 E11.92093
G1 X52.085 Y66.504 E11.95995
G1 X53.587 Y66.507 E12.03488
G1 X53.586 Y67.254 E12.07215
G1 X53.581 Y68.007 E12.10972
G1 X56.584 Y68.012 E12.25954
G1 X56.587 Y66.512 E12.33438
G1 X58.087 Y66.515 E12.40921
G1 X58.092 Y63.515 E12.55888
G1 X56.592 Y63.513 E12.63372
G1 X56.595 Y62.012 E12.70860
G1 X54.377 Y62.009 E12.81926
G1 X53.595 Y62.005 E12.85827
G1 X53.593 Y63.507 E12.93321
G0 F9000 X53.858 Y60.710
G1 F900 X53.389 Y59.583 E12.99411
G1 X53.370 Y59.333 E13.00662
G1 X53.401 Y59.008 E13.02291
G1 X53.632 Y59.331 E13.04272
G1 X53.702 Y59.487 E13.05125
G1 X53.858 Y60.710 E13.11276
G0 F9000 X53.944 Y60.984
G0 X56.068 Y60.991
G0 X56.310 Y59.514
G1 F900 X56.389 Y59.333 E13.12261
G1 X56.525 Y59.122 E13.13513
G1 X56.618 Y59.013 E13.14228
G1 X56.648 Y59.277 E13.15554
G1 X56.649 Y59.341 E13.15873
G1 X56.629 Y59.589 E13.17115
G1 X56.156 Y60.713 E13.23198
G1 X56.310 Y59.514 E13.29229
G0 F9000 X56.093 Y60.994
G0 X57.932 Y62.060
G0 X59.009 Y60.803
G1 F900 X59.196 Y60.700 E13.30295
G1 X59.395 Y60.617 E13.31370
G1 X59.192 Y61.032 E13.33675
G1 X59.118 Y61.122 E13.34256
G1 X58.138 Y61.872 E13.40413
G1 X58.877 Y60.905 E13.46485
G1 X59.009 Y60.803 E13.47317
G0 F9000 X57.949 Y62.080
G0 X59.010 Y63.921
G0 X60.660 Y63.369
G1 F900 X60.991 Y63.401 E13.48976
G1 X60.668 Y63.632 E13.50958
G1 X60.509 Y63.702 E13.51824
G1 X59.289 Y63.859 E13.57961
G1 X60.422 Y63.387 E13.64085
G1 X60.660 Y63.369 E13.65275
G0 F9000 X58.648 Y64.041
G0 X58.642 Y65.971
G0 X60.552 Y66.335
G1 F900 X60.860 Y66.511 E13.67045
G1 X60.986 Y66.618 E13.67870
G1 X60.722 Y66.648 E13.69195
G1 X60.658 Y66.649 E13.69515
G1 X60.427 Y66.630 E13.70671
G1 X59.279 Y66.154 E13.76871
G1 X60.492 Y66.312 E13.82974
G1 X60.552 Y66.335 E13.83295
G0 F9000 X59.003 Y66.094
G0 X57.939 Y67.932
G0 X59.059 Y68.849
G1 F900 X59.163 Y68.962 E13.84061
G1 X59.380 Y69.390 E13.86455
G1 X59.054 Y69.244 E13.88237
G1 X58.870 Y69.116 E13.89355
G1 X58.130 Y68.141 E13.95462
G1 X59.059 Y68.849 E14.01289
G0 F9000 X57.921 Y67.949
G0 X56.078 Y69.010
G0 X56.624 Y70.505
G1 F900 X56.630 Y70.636 E14.01944
G1 X56.598 Y70.992 E14.03727
G1 X56.361 Y70.656 E14.05778
G1 X56.300 Y70.515 E14.06545
G1 X56.140 Y69.289 E14.12713
G1 X56.609 Y70.413 E14.18789
G1 X56.624 Y70.505 E14.19254
G0 F9000 X56.054 Y69.015
G0 X53.931 Y69.008
G0 X53.689 Y70.485
G1 F900 X53.676 Y70.524 E14.19459
G1 X53.507 Y70.830 E14.21203
G1 X53.380 Y70.982 E14.22192
G1 X53.352 Y70.738 E14.23417
G1 X53.350 Y70.635 E14.23931
G1 X53.374 Y70.402 E14.25099
G1 X53.844 Y69.283 E14.31155
G1 X53.689 Y70.485 E14.37201
G0 F9000 X53.906 Y69.005
G0 X52.066 Y67.939
G0 X51.128 Y69.088
G1 F900 X51.056 Y69.149 E14.37672
G1 X50.604 Y69.382 E14.40209
G1 X50.809 Y68.965 E14.42527
G1 X50.892 Y68.863 E14.43183
G1 X51.857 Y68.132 E14.49223
G1 X51.128 Y69.088 E14.55221
G0 F9000 X52.050 Y67.921
G0 X50.989 Y66.078
G0 X49.587 Y66.609
G1 F900 X49.355 Y66.629 E14.56383
G1 X48.998 Y66.596 E14.58171
G1 X49.305 Y66.382 E14.60038
G1 X49.469 Y66.304 E14.60944
G1 X50.711 Y66.140 E14.67195
G1 X49.587 Y66.609 E14.73271
G0 F9000 X50.984 Y66.053
G0 X50.991 Y63.931
G0 X49.475 Y63.676
G1 F900 X49.333 Y63.609 E14.74054
G1 X49.085 Y63.446 E14.75535
G1 X49.011 Y63.381 E14.76026
G1 X49.259 Y63.352 E14.77272
G1 X49.412 Y63.350 E14.78035
G1 X49.599 Y63.373 E14.78975
G1 X50.716 Y63.844 E14.85023
G1 X49.520 Y63.690 E14.91039
G1 X49.475 Y63.676 E14.91274
G0 F9000 X49.127 Y63.953
;TYPE:WALL-OUTER
G1 F900 X48.847 Y63.768 E14.92949
G1 X48.540 Y63.499 E14.94985
G1 X48.404 Y63.353 E14.95980
G1 X48.472 Y63.105 E14.97263
G1 X49.043 Y62.971 E15.00190
G1 X49.428 Y62.950 E15.02113
G1 X49.680 Y62.980 E15.03379
G1 X49.735 Y62.996 E15.03665
G1 X50.846 Y63.465 E15.09682
G1 X51.602 Y62.158 E15.17214
G1 X50.652 Y61.433 E15.23176
G1 X50.495 Y61.248 E15.24387
G1 X50.339 Y60.975 E15.25956
G1 X50.232 Y60.717 E15.27349
G1 X50.109 Y60.277 E15.29629
G1 X50.294 Y60.092 E15.30934
G1 X50.329 Y60.099 E15.31112
G1 X50.747 Y60.222 E15.33286
G1 X51.208 Y60.444 E15.35838
G1 X51.430 Y60.618 E15.37246
G1 X52.170 Y61.593 E15.43352
G1 X53.479 Y60.840 E15.50886
G1 X53.009 Y59.710 E15.56992
G1 X52.987 Y59.610 E15.57503
G1 X52.969 Y59.328 E15.58913
G1 X53.009 Y58.929 E15.60913
G1 X53.032 Y58.802 E15.61557
G1 X53.130 Y58.464 E15.63313
G1 X53.372 Y58.399 E15.64563
G1 X53.661 Y58.685 E15.66592
G1 X53.946 Y59.074 E15.68997
G1 X54.067 Y59.317 E15.70352
G1 X54.083 Y59.367 E15.70614
G1 X54.252 Y60.635 E15.76996
G1 X55.468 Y60.637 E15.83062
G1 X55.762 Y60.640 E15.84529
G1 X55.914 Y59.454 E15.90495
G1 X55.937 Y59.364 E15.90958
G1 X56.050 Y59.120 E15.92300
G1 X56.200 Y58.887 E15.93682
G1 X56.461 Y58.580 E15.95692
G1 X56.647 Y58.404 E15.96970
G1 X56.894 Y58.472 E15.98248
G1 X57.028 Y59.043 E16.01174
G1 X57.050 Y59.352 E16.02720
G1 X57.026 Y59.640 E16.04162
G1 X57.011 Y59.713 E16.04533
G1 X56.534 Y60.846 E16.10666
G1 X57.841 Y61.602 E16.18199
G1 X58.576 Y60.640 E16.24239
G1 X58.800 Y60.462 E16.25667
G1 X59.282 Y60.232 E16.28331
G1 X59.722 Y60.109 E16.30610
G1 X59.907 Y60.294 E16.31916
G1 X59.900 Y60.329 E16.32094
G1 X59.777 Y60.747 E16.34268
G1 X59.555 Y61.208 E16.36820
G1 X59.400 Y61.410 E16.38091
G1 X58.406 Y62.171 E16.44336
G1 X59.159 Y63.479 E16.51866
G1 X60.295 Y63.007 E16.58003
G1 X60.423 Y62.982 E16.58654
G1 X60.669 Y62.968 E16.59883
G1 X61.070 Y63.009 E16.61894
G1 X61.197 Y63.032 E16.62538
G1 X61.535 Y63.130 E16.64294
G1 X61.600 Y63.372 E16.65544
G1 X61.314 Y63.661 E16.67572
G1 X60.925 Y63.946 E16.69978
G1 X60.591 Y64.095 E16.71803
G1 X59.198 Y64.273 E16.78809
G1 X59.749 Y65.008 E16.83392
G1 X59.194 Y65.740 E16.87975
G1 X60.571 Y65.919 E16.94903
G1 X60.725 Y65.973 E16.95717
G1 X61.071 Y66.171 E16.97706
G1 X61.113 Y66.200 E16.97960
G1 X61.419 Y66.461 E16.99967
G1 X61.595 Y66.647 E17.01244
G1 X61.527 Y66.894 E17.02523
G1 X60.956 Y67.028 E17.05449
G1 X60.642 Y67.050 E17.07019
G1 X60.322 Y67.019 E17.08623
G1 X59.153 Y66.535 E17.14935
G1 X58.397 Y67.841 E17.22464
G1 X59.326 Y68.549 E17.28291
G1 X59.559 Y68.836 E17.30136
G1 X59.755 Y69.249 E17.32416
G1 X59.767 Y69.282 E17.32592
G1 X59.890 Y69.722 E17.34871
G1 X59.705 Y69.907 E17.36176
G1 X59.670 Y69.900 E17.36354
G1 X59.299 Y69.793 E17.38281
G1 X58.858 Y69.595 E17.40692
G1 X58.644 Y69.450 E17.41982
G1 X58.561 Y69.370 E17.42557
G1 X57.829 Y68.406 E17.48596
G1 X56.520 Y69.160 E17.56132
G1 X56.988 Y70.281 E17.62193
G1 X57.021 Y70.460 E17.63101
G1 X57.031 Y70.652 E17.64060
G1 X56.967 Y71.197 E17.66798
G1 X56.872 Y71.535 E17.68550
G1 X56.627 Y71.600 E17.69814
G1 X56.338 Y71.314 E17.71843
G1 X56.037 Y70.898 E17.74404
G1 X55.907 Y70.601 E17.76022
G1 X55.747 Y69.364 E17.82245
G1 X54.531 Y69.362 E17.88311
G1 X54.237 Y69.359 E17.89778
G1 X54.085 Y70.545 E17.95744
G1 X53.976 Y70.829 E17.97261
G1 X53.836 Y71.059 E17.98605
G1 X53.535 Y71.421 E18.00953
G1 X53.352 Y71.595 E18.02213
G1 X53.105 Y71.527 E18.03491
G1 X52.987 Y71.059 E18.05899
G1 X52.952 Y70.759 E18.07406
G1 X52.949 Y70.613 E18.08135
G1 X52.972 Y70.361 E18.09397
G1 X52.993 Y70.274 E18.09844
G1 X53.465 Y69.153 E18.15912
G1 X52.158 Y68.397 E18.23445
G1 X51.431 Y69.350 E18.29425
G1 X51.271 Y69.488 E18.30479
G1 X50.764 Y69.750 E18.33326
G1 X50.717 Y69.767 E18.33575
G1 X50.277 Y69.890 E18.35855
G1 X50.092 Y69.705 E18.37160
G1 X50.099 Y69.670 E18.37338
G1 X50.157 Y69.454 E18.38454
G1 X50.222 Y69.252 E18.39513
G1 X50.444 Y68.792 E18.42061
G1 X50.607 Y68.580 E18.43395
G1 X51.593 Y67.829 E18.49579
G1 X50.839 Y66.520 E18.57115
G1 X49.720 Y66.987 E18.63165
G1 X49.611 Y67.011 E18.63721
G1 X49.349 Y67.031 E18.65032
G1 X48.981 Y66.999 E18.66875
G1 X48.802 Y66.967 E18.67782
G1 X48.464 Y66.872 E18.69534
G1 X48.401 Y66.634 E18.70762
G1 X48.544 Y66.468 E18.71855
G1 X48.878 Y66.183 E18.74046
G1 X49.109 Y66.033 E18.75420
G1 X49.263 Y65.955 E18.76281
G1 X49.380 Y65.912 E18.76903
G1 X50.635 Y65.746 E18.83219
G1 X50.637 Y64.531 E18.89281
G1 X50.640 Y64.237 E18.90747
G1 X49.448 Y64.084 E18.96743
G1 X49.330 Y64.049 E18.97357
G1 X49.127 Y63.953 E18.98477
G0 F9000 X49.277 Y63.693
G0 X52.191 Y63.903
G0 X52.491 Y63.904
G1 F900 X52.488 Y66.105 E19.09458
G1 X53.988 Y66.108 E19.16942
G1 X53.986 Y67.257 E19.22674
G1 X53.984 Y67.608 E19.24425
G1 X56.185 Y67.611 E19.35406
G1 X56.188 Y66.111 E19.42890
G1 X57.688 Y66.114 E19.50373
G1 X57.691 Y63.914 E19.61349
G1 X56.191 Y63.912 E19.68833
G1 X56.194 Y62.411 E19.76321
G1 X53.994 Y62.408 E19.87297
G1 X53.992 Y63.908 E19.94781
G1 X52.842 Y63.906 E20.00518
G1 X52.491 Y63.904 E20.02269
G0 F9000 X52.329 Y63.360
;TYPE:SKIN
G1 F900 X51.718 Y63.032 E20.05841
G1 X51.679 Y63.558 E20.08216
G1 X51.950 Y64.112 E20.11293
G0 F9000 X51.949 Y64.677
G1 F900 X51.199 Y63.927 E20.16585
G0 F9000 X51.179 Y64.473
G1 F900 X51.948 Y65.241 E20.22007
G0 F9000 X51.947 Y65.806
G1 F900 X51.177 Y65.036 E20.27440
G0 F9000 X51.175 Y65.600
G1 F900 X51.946 Y66.371 E20.32880
G0 F9000 X52.219 Y66.644
G1 F900 X53.441 Y67.866 E20.41501
G0 F9000 X53.721 Y68.146
G1 F900 X54.392 Y68.817 E20.46236
G0 F9000 X54.960 Y68.819
G1 F900 X54.288 Y68.147 E20.50977
G0 F9000 X54.855 Y68.148
G1 F900 X55.528 Y68.821 E20.55725
G0 F9000 X56.067 Y68.795
G1 F900 X55.421 Y68.149 E20.60283
G0 F9000 X55.988 Y68.150
G1 F900 X56.606 Y68.485 E20.63378
G1 X56.639 Y67.952 E20.65003
G1 X57.144 Y68.175 E20.67758
G0 F9000 X57.504 Y67.969
G1 F900 X56.725 Y67.190 E20.73254
G0 F9000 X56.753 Y66.652
G1 F900 X57.835 Y67.735 E20.80892
G0 F9000 X58.042 Y67.376
G1 F900 X57.319 Y66.653 E20.85993
G0 F9000 X57.885 Y66.654
G1 F900 X58.353 Y66.838 E20.88564
G1 X58.395 Y66.315 E20.90187
G1 X58.501 Y66.137 E20.90885
G1 X58.405 Y65.758 E20.91650
G1 X58.228 Y65.299 E20.94105
G0 F9000 X58.229 Y64.734
G1 F900 X58.826 Y65.331 E20.98317
G0 F9000 X59.070 Y65.009
G1 F900 X58.230 Y64.169 E21.04244
G0 F9000 X58.450 Y63.824
G1 F900 X58.231 Y63.605 E21.05789
G0 F9000 X57.999 Y63.373
G1 F900 X56.734 Y62.108 E21.14714
G0 F9000 X56.496 Y61.870
G1 F900 X55.806 Y61.181 E21.19579
G0 F9000 X55.239 Y61.178
G1 F900 X55.929 Y61.869 E21.24451
G0 F9000 X55.362 Y61.867
G1 F900 X54.671 Y61.176 E21.29326
G0 F9000 X54.102 Y61.173
G1 F900 X54.795 Y61.866 E21.34216
G0 F9000 X54.228 Y61.865
G1 F900 X53.519 Y61.438 E21.37942
G1 X53.558 Y62.043 E21.40211
G1 X52.981 Y61.749 E21.43441
G0 F9000 X52.622 Y61.955
G1 F900 X53.454 Y62.788 E21.49315
G0 F9000 X53.453 Y63.353
G1 F900 X52.262 Y62.162 E21.57718
G0 F9000 X52.029 Y62.494
G1 F900 X52.897 Y63.363 E21.63846
G0 F9000 X52.151 Y63.561
G0 X52.145 Y66.445
G0 X52.786 Y66.645
G1 F900 X53.444 Y67.303 E21.68489
G0 F9000 X53.447 Y66.740
G1 F900 X53.352 Y66.646 E21.69155
G0 F9000 X52.296 Y67.853
G1 F900 X52.138 Y67.694 E21.70274
G0 F9000 X51.371 Y66.361
G1 F900 X53.638 Y68.629 E21.86272
G0 F9000 X56.525 Y67.953
G0 X58.028 Y66.456
G0 X58.033 Y63.574
G0 X56.866 Y63.372
G1 F900 X56.732 Y63.237 E21.87221
G0 F9000 X56.733 Y62.672
G1 F900 X57.433 Y63.373 E21.92163
G0 F9000 X58.356 Y63.165
G1 F900 X56.835 Y61.643 E22.02898
;LAYER:1
M106 S63
G0 F9000 X56.592 Y63.512 Z0.500
;TYPE:WALL-INNER
G1 F960 X56.595 Y62.012 E22.07887
